;-- START GCODE --
;Sliced for Type A Machines Series 1
;Sliced at: Thu 01-02-2018 11:22:12
;Basic settings:
;	Layer height: 0.15
;	Walls: 1.5
;	Fill: 1
;	Print Speed: 30
;	Support: 0
;	Retraction Speed: 35
;	Retraction Distance: 0.6
;Print time: 32 minutes
;Filament used: 1.034m 2.0g
;Settings based on: MadeSolid PET+
G21        ;metric values
G90        ;absolute positioning
G28     ;move to endstops
G29		;allows for auto-levelling
G1 Z15.0 F12000 ;move the platform down 15mm
G1 X150 Y5 F12000 ;center
M109 S240 ;Heat To temp
G1 X150 Y5 Z0.3 ;move the platform to purge extrusion
G92 E0 ;zero the extruded length
G1 F200 X250 E30 ;extrude 30mm of feed stock
G92 E0 ;zero the extruded length again
G1 X150 Y150  Z25 F12000 ;recenter and begin
G1 F12000

;Layer count: 79
;LAYER:0
M107
G0 F12000 X130.063 Y127.983 Z0.200
G0 X130.452 Y128.104
;TYPE:SKIRT
G1 F1200 X130.664 Y127.912 E0.01260
G1 X131.231 Y127.453 E0.04474
G1 X131.604 Y127.184 E0.06500
G1 X131.598 Y126.816 E0.08122
G1 X132.781 Y126.336 E0.13746
G1 X133.774 Y125.620 E0.19140
G1 X134.072 Y125.811 E0.20699
G1 X134.539 Y125.622 E0.22919
G1 X135.226 Y125.386 E0.26119
G1 X135.651 Y125.266 E0.28065
G1 X135.769 Y124.917 E0.29688
G1 X137.056 Y124.869 E0.35362
G1 X138.462 Y124.471 E0.41800
G1 X138.678 Y124.808 E0.43563
G1 X138.959 Y124.797 E0.44802
G1 X139.687 Y124.809 E0.48010
G1 X140.139 Y124.842 E0.50006
G1 X140.370 Y124.557 E0.51623
G1 X141.585 Y124.949 E0.57247
G1 X143.042 Y125.056 E0.63684
G1 X143.130 Y125.447 E0.65449
G1 X143.401 Y125.534 E0.66703
G1 X144.069 Y125.792 E0.69858
G1 X144.342 Y125.913 E0.71174
G1 X144.671 Y125.687 E0.72932
G1 X145.779 Y126.548 E0.79114
G1 X146.916 Y127.051 E0.84592
G1 X146.901 Y127.420 E0.86219
G1 X147.315 Y127.741 E0.88527
G1 X147.837 Y128.194 E0.91572
G1 X148.198 Y128.542 E0.93781
G1 X148.555 Y128.474 E0.95382
G1 X149.213 Y129.520 E1.00826
G1 X150.251 Y130.521 E1.07180
G1 X150.070 Y130.884 E1.08967
G1 X150.241 Y131.156 E1.10382
G1 X150.593 Y131.789 E1.13573
G1 X150.706 Y132.022 E1.14714
G1 X151.115 Y132.056 E1.16522
G1 X151.424 Y133.499 E1.23024
G1 X152.049 Y134.786 E1.29327
G1 X151.758 Y135.060 E1.31088
G1 X151.825 Y135.374 E1.32502
G1 X151.937 Y136.082 E1.35660
G1 X151.968 Y136.369 E1.36932
G1 X152.328 Y136.540 E1.38688
G1 X152.135 Y137.940 E1.44914
G1 X152.290 Y139.387 E1.51326
G1 X151.914 Y139.549 E1.53129
G1 X151.870 Y139.872 E1.54566
G1 X151.731 Y140.581 E1.57749
G1 X151.661 Y140.861 E1.59020
G1 X151.942 Y141.146 E1.60784
G1 X151.274 Y142.411 E1.67086
G1 X150.929 Y143.791 E1.73353
G1 X150.531 Y143.817 E1.75110
G1 X150.373 Y144.116 E1.76600
G1 X149.999 Y144.735 E1.79786
G1 X149.792 Y145.042 E1.81418
G1 X149.939 Y145.392 E1.83090
G1 X148.947 Y146.291 E1.88988
G1 X148.120 Y147.516 E1.95500
G1 X147.731 Y147.395 E1.97295
G1 X147.519 Y147.587 E1.98555
G1 X146.954 Y148.044 E2.01756
G1 X146.579 Y148.315 E2.03795
G1 X146.585 Y148.683 E2.05416
G1 X145.410 Y149.160 E2.11003
G1 X144.231 Y150.012 E2.17412
G1 X143.911 Y149.769 E2.19182
G1 X143.644 Y149.877 E2.20451
G1 X142.957 Y150.113 E2.23651
G1 X142.532 Y150.233 E2.25597
G1 X142.414 Y150.582 E2.27220
G1 X141.126 Y150.630 E2.32898
G1 X139.715 Y151.029 E2.39359
G1 X139.500 Y150.692 E2.41120
G1 X139.224 Y150.702 E2.42337
G1 X138.496 Y150.690 E2.45544
G1 X138.044 Y150.657 E2.47541
G1 X137.813 Y150.942 E2.49157
G1 X136.598 Y150.550 E2.54782
G1 X135.167 Y150.445 E2.61103
G1 X135.077 Y150.060 E2.62845
G1 X134.786 Y149.966 E2.64192
G1 X134.105 Y149.705 E2.67406
G1 X133.841 Y149.586 E2.68681
G1 X133.512 Y149.812 E2.70440
G1 X132.365 Y148.921 E2.76839
G1 X130.972 Y148.293 E2.83571
G1 X131.035 Y147.887 E2.85381
G1 X130.872 Y147.761 E2.86288
G1 X130.371 Y147.329 E2.89203
G1 X130.001 Y146.972 E2.91468
G1 X129.637 Y147.045 E2.93104
G1 X128.967 Y145.976 E2.98662
G1 X127.931 Y144.978 E3.04999
G1 X128.113 Y144.614 E3.06792
G1 X127.940 Y144.338 E3.08228
G1 X127.591 Y143.711 E3.11389
G1 X127.477 Y143.477 E3.12536
G1 X127.068 Y143.443 E3.14344
G1 X126.762 Y142.011 E3.20795
G1 X126.130 Y140.717 E3.27140
G1 X126.425 Y140.439 E3.28926
G1 X126.358 Y140.125 E3.30340
G1 X126.246 Y139.413 E3.33516
G1 X126.217 Y139.134 E3.34751
G1 X125.849 Y138.960 E3.36545
G1 X126.049 Y137.529 E3.42911
G1 X125.923 Y136.331 E3.48218
G1 X126.239 Y136.163 E3.49794
G1 X126.314 Y135.627 E3.52179
G1 X126.451 Y134.922 E3.55343
G1 X126.521 Y134.644 E3.56606
G1 X126.241 Y134.361 E3.58360
G1 X126.907 Y133.097 E3.64654
G1 X127.254 Y131.708 E3.70962
G1 X127.653 Y131.682 E3.72723
G1 X127.809 Y131.385 E3.74202
G1 X128.184 Y130.764 E3.77398
G1 X128.342 Y130.530 E3.78641
G1 X128.176 Y130.168 E3.80396
G1 X129.236 Y129.207 E3.86700
G1 X130.063 Y127.983 E3.93208
G1 X130.452 Y128.104 E3.95002
G0 F12000 X130.577 Y128.666
G1 F1200 X130.989 Y128.292 E3.97454
G1 X131.535 Y127.851 E4.00546
G1 X132.108 Y127.438 E4.03658
G1 X132.104 Y127.151 E4.04922
G1 X133.023 Y126.778 E4.09292
G1 X133.790 Y126.225 E4.13458
G1 X134.020 Y126.373 E4.14663
G1 X134.715 Y126.091 E4.17967
G1 X135.375 Y125.863 E4.21044
G1 X136.040 Y125.675 E4.24088
G1 X136.132 Y125.403 E4.25353
G1 X137.136 Y125.365 E4.29780
G1 X138.242 Y125.053 E4.34843
G1 X138.412 Y125.318 E4.36230
G1 X138.964 Y125.297 E4.38663
G1 X139.664 Y125.309 E4.41748
G1 X140.364 Y125.361 E4.44840
G1 X140.543 Y125.139 E4.46097
G1 X141.488 Y125.443 E4.50470
G1 X142.636 Y125.528 E4.55542
G1 X142.705 Y125.836 E4.56932
G1 X143.234 Y126.006 E4.59380
G1 X143.877 Y126.254 E4.62416
G1 X144.395 Y126.483 E4.64912
G1 X144.652 Y126.306 E4.66286
G1 X145.519 Y126.980 E4.71125
G1 X146.403 Y127.370 E4.75381
G1 X146.391 Y127.657 E4.76647
G1 X146.998 Y128.128 E4.80032
G1 X147.499 Y128.563 E4.82955
G1 X148.038 Y129.082 E4.86252
G1 X148.313 Y129.029 E4.87485
G1 X148.820 Y129.836 E4.91684
G1 X149.640 Y130.626 E4.96701
G1 X149.497 Y130.912 E4.98109
G1 X149.810 Y131.411 E5.00705
G1 X150.149 Y132.020 E5.03775
G1 X150.381 Y132.497 E5.06112
G1 X150.704 Y132.524 E5.07540
G1 X150.948 Y133.664 E5.12676
G1 X151.439 Y134.674 E5.17624
G1 X151.211 Y134.889 E5.19005
G1 X151.334 Y135.465 E5.21600
G1 X151.441 Y136.147 E5.24641
G1 X151.500 Y136.701 E5.27096
G1 X151.783 Y136.835 E5.28475
G1 X151.632 Y137.934 E5.33362
G1 X151.754 Y139.074 E5.38414
G1 X151.458 Y139.202 E5.39834
G1 X151.377 Y139.790 E5.42449
G1 X151.243 Y140.472 E5.45511
G1 X151.108 Y141.012 E5.47964
G1 X151.329 Y141.236 E5.49350
G1 X150.803 Y142.232 E5.54312
G1 X150.532 Y143.316 E5.59235
G1 X150.220 Y143.336 E5.60613
G1 X149.938 Y143.870 E5.63273
G1 X149.578 Y144.466 E5.66341
G1 X149.226 Y144.986 E5.69107
G1 X149.341 Y145.260 E5.70416
G1 X148.565 Y145.963 E5.75029
G1 X147.913 Y146.928 E5.80160
G1 X147.607 Y146.833 E5.81572
G1 X147.194 Y147.207 E5.84027
G1 X146.650 Y147.647 E5.87109
G1 X146.075 Y148.063 E5.90236
G1 X146.079 Y148.348 E5.91492
G1 X145.170 Y148.717 E5.95814
G1 X144.239 Y149.390 E6.00875
G1 X143.986 Y149.198 E6.02274
G1 X143.468 Y149.408 E6.04737
G1 X142.808 Y149.636 E6.07813
G1 X142.143 Y149.824 E6.10858
G1 X142.051 Y150.096 E6.12123
G1 X141.046 Y150.134 E6.16554
G1 X139.936 Y150.447 E6.21635
G1 X139.767 Y150.182 E6.23019
G1 X139.219 Y150.202 E6.25435
G1 X138.519 Y150.190 E6.28520
G1 X137.819 Y150.138 E6.31612
G1 X137.640 Y150.360 E6.32869
G1 X136.696 Y150.056 E6.37238
G1 X135.570 Y149.973 E6.42212
G1 X135.499 Y149.670 E6.43583
G1 X134.952 Y149.494 E6.46115
G1 X134.298 Y149.243 E6.49201
G1 X133.791 Y149.014 E6.51652
G1 X133.531 Y149.193 E6.53043
G1 X132.624 Y148.489 E6.58101
G1 X131.524 Y147.993 E6.63417
G1 X131.574 Y147.673 E6.64844
G1 X131.189 Y147.374 E6.66992
G1 X130.708 Y146.959 E6.69791
G1 X130.159 Y146.430 E6.73149
G1 X129.877 Y146.487 E6.74417
G1 X129.356 Y145.656 E6.78738
G1 X128.543 Y144.873 E6.83711
G1 X128.686 Y144.588 E6.85116
G1 X128.370 Y144.084 E6.87737
G1 X128.035 Y143.480 E6.90780
G1 X127.802 Y143.002 E6.93122
G1 X127.479 Y142.975 E6.94550
G1 X127.237 Y141.844 E6.99646
G1 X126.741 Y140.828 E7.04627
G1 X126.972 Y140.610 E7.06026
G1 X126.849 Y140.034 E7.08621
G1 X126.741 Y139.348 E7.11681
G1 X126.684 Y138.801 E7.14104
G1 X126.395 Y138.665 E7.15511
G1 X126.552 Y137.540 E7.20515
G1 X126.455 Y136.615 E7.24613
G1 X126.699 Y136.486 E7.25829
G1 X126.807 Y135.709 E7.29285
G1 X126.939 Y135.030 E7.32332
G1 X127.074 Y134.492 E7.34776
G1 X126.854 Y134.270 E7.36153
G1 X127.378 Y133.276 E7.41104
G1 X127.651 Y132.183 E7.46067
G1 X127.964 Y132.162 E7.47449
G1 X128.244 Y131.631 E7.50094
G1 X128.605 Y131.033 E7.53171
G1 X128.914 Y130.576 E7.55602
G1 X128.784 Y130.292 E7.56978
G1 X129.617 Y129.536 E7.61934
G1 X130.270 Y128.571 E7.67067
G1 X130.577 Y128.666 E7.68483
G1 F2100 E7.08483
G0 F12000 X134.233 Y133.317
;TYPE:WALL-INNER
G1 F2100 E7.68483
G1 F1200 X134.953 Y132.561 E7.73082
G1 X136.050 Y131.918 E7.78684
G1 X136.916 Y131.488 E7.82944
G1 X137.884 Y131.284 E7.87303
G1 X139.205 Y131.108 E7.93174
G1 X140.512 Y131.327 E7.99012
G1 X141.513 Y131.572 E8.03553
G1 X142.617 Y132.197 E8.09142
G1 X143.482 Y132.775 E8.13725
G1 X144.299 Y133.733 E8.19272
G1 X144.883 Y134.525 E8.23608
G1 X145.251 Y135.446 E8.27977
G1 X145.635 Y136.647 E8.33532
G1 X145.668 Y137.684 E8.38103
G1 X145.615 Y139.006 E8.43932
G1 X145.174 Y140.251 E8.49751
G1 X144.757 Y141.205 E8.54338
G1 X143.949 Y142.184 E8.59931
G1 X143.228 Y142.939 E8.64530
G1 X142.135 Y143.580 E8.70112
G1 X141.211 Y144.039 E8.74658
G1 X139.961 Y144.269 E8.80257
G1 X138.978 Y144.378 E8.84615
G1 X138.020 Y144.238 E8.88880
G1 X136.724 Y143.957 E8.94723
G1 X135.566 Y143.302 E9.00584
G1 X134.751 Y142.758 E9.04901
G1 X134.084 Y142.014 E9.09303
G1 X133.305 Y140.982 E9.15000
G1 X132.932 Y140.059 E9.19386
G1 X132.548 Y138.847 E9.24987
G1 X132.515 Y137.815 E9.29536
G1 X132.568 Y136.492 E9.35369
G1 X133.011 Y135.243 E9.41208
G1 X133.428 Y134.291 E9.45787
G1 X134.233 Y133.317 E9.51354
G0 F12000 X134.991 Y134.199
G1 F1200 X134.667 Y134.611 E9.53663
G1 X134.387 Y135.051 E9.55961
G1 X134.148 Y135.515 E9.58260
G1 X133.957 Y135.997 E9.60544
G1 X133.818 Y136.467 E9.62704
G1 X133.672 Y137.439 E9.67034
G1 X133.670 Y137.994 E9.69479
G1 X133.723 Y138.544 E9.71914
G1 X133.826 Y139.060 E9.74232
G1 X133.976 Y139.559 E9.76527
G1 X134.171 Y140.038 E9.78806
G1 X134.419 Y140.509 E9.81151
G1 X134.709 Y140.950 E9.83476
G1 X135.038 Y141.356 E9.85779
G1 X135.403 Y141.730 E9.88081
G1 X135.807 Y142.068 E9.90402
G1 X136.238 Y142.365 E9.92708
G1 X136.697 Y142.618 E9.95017
G1 X137.176 Y142.825 E9.97316
G1 X137.666 Y142.986 E9.99588
G1 X138.187 Y143.100 E10.01938
G1 X138.699 Y143.162 E10.04210
G1 X139.234 Y143.174 E10.06567
G1 X139.786 Y143.133 E10.09006
G1 X140.742 Y142.920 E10.13321
G1 X141.269 Y142.719 E10.15806
G1 X141.737 Y142.487 E10.18107
G1 X142.183 Y142.210 E10.20420
G1 X142.600 Y141.889 E10.22739
G1 X142.981 Y141.532 E10.25039
G1 X143.329 Y141.139 E10.27352
G1 X143.637 Y140.712 E10.29671
G1 X143.901 Y140.260 E10.31978
G1 X144.120 Y139.786 E10.34278
G1 X144.295 Y139.288 E10.36604
G1 X144.425 Y138.740 E10.39085
G1 X144.495 Y138.221 E10.41392
G1 X144.518 Y137.699 E10.43694
G1 X144.486 Y137.176 E10.46003
G1 X144.403 Y136.633 E10.48423
G1 X144.137 Y135.749 E10.52490
G1 X143.906 Y135.245 E10.54932
G1 X143.609 Y134.744 E10.57498
G1 X143.316 Y134.343 E10.59686
G1 X142.966 Y133.950 E10.62005
G1 X142.582 Y133.596 E10.64306
G1 X142.174 Y133.284 E10.66569
G1 X141.720 Y133.002 E10.68923
G1 X141.222 Y132.758 E10.71367
G1 X140.293 Y132.456 E10.75670
G1 X139.745 Y132.363 E10.78119
G1 X139.220 Y132.325 E10.80438
G1 X138.690 Y132.339 E10.82774
G1 X138.170 Y132.401 E10.85081
G1 X137.655 Y132.516 E10.87406
G1 X137.128 Y132.689 E10.89850
G1 X136.252 Y133.123 E10.94157
G1 X135.790 Y133.443 E10.96633
G1 X135.384 Y133.787 E10.98977
G1 X134.991 Y134.199 E11.01486
G0 F12000 X135.369 Y134.527
G1 F1200 X135.075 Y134.901 E11.03581
G1 X134.821 Y135.300 E11.05665
G1 X134.604 Y135.722 E11.07756
G1 X134.430 Y136.161 E11.09836
G1 X134.307 Y136.576 E11.11743
G1 X134.172 Y137.477 E11.15757
G1 X134.170 Y137.971 E11.17934
G1 X134.218 Y138.471 E11.20146
G1 X134.311 Y138.939 E11.22249
G1 X134.448 Y139.393 E11.24338
G1 X134.624 Y139.826 E11.26397
G1 X134.850 Y140.255 E11.28533
G1 X135.113 Y140.654 E11.30639
G1 X135.412 Y141.023 E11.32731
G1 X135.743 Y141.363 E11.34822
G1 X136.110 Y141.670 E11.36930
G1 X136.501 Y141.939 E11.39021
G1 X136.918 Y142.169 E11.41119
G1 X137.353 Y142.357 E11.43207
G1 X137.798 Y142.503 E11.45270
G1 X138.271 Y142.606 E11.47403
G1 X138.735 Y142.663 E11.49462
G1 X139.221 Y142.674 E11.51604
G1 X139.713 Y142.637 E11.53778
G1 X140.598 Y142.440 E11.57772
G1 X141.068 Y142.261 E11.59988
G1 X141.494 Y142.050 E11.62082
G1 X141.898 Y141.798 E11.64180
G1 X142.276 Y141.508 E11.66279
G1 X142.622 Y141.183 E11.68370
G1 X142.938 Y140.826 E11.70471
G1 X143.217 Y140.439 E11.72573
G1 X143.457 Y140.029 E11.74666
G1 X143.656 Y139.598 E11.76757
G1 X143.815 Y139.147 E11.78864
G1 X143.933 Y138.648 E11.81123
G1 X143.997 Y138.177 E11.83217
G1 X144.017 Y137.704 E11.85303
G1 X143.989 Y137.229 E11.87399
G1 X143.914 Y136.743 E11.89566
G1 X143.668 Y135.926 E11.93325
G1 X143.462 Y135.477 E11.95501
G1 X143.191 Y135.020 E11.97842
G1 X142.926 Y134.657 E11.99822
G1 X142.609 Y134.301 E12.01922
G1 X142.260 Y133.979 E12.04014
G1 X141.889 Y133.696 E12.06070
G1 X141.477 Y133.440 E12.08207
G1 X141.034 Y133.222 E12.10382
G1 X140.173 Y132.943 E12.14370
G1 X139.685 Y132.860 E12.16551
G1 X139.209 Y132.825 E12.18653
G1 X138.726 Y132.838 E12.20782
G1 X138.254 Y132.895 E12.22877
G1 X137.788 Y132.999 E12.24980
G1 X137.318 Y133.153 E12.27159
G1 X136.507 Y133.555 E12.31147
G1 X136.095 Y133.841 E12.33357
G1 X135.727 Y134.151 E12.35477
G1 X135.369 Y134.527 E12.37764
G1 F2100 E11.77764
G0 F12000 X133.866 Y132.977
G1 F2100 E12.37764
G1 F1200 X134.609 Y132.197 E12.42510
G1 X134.600 Y132.188 E12.42566
G1 X135.802 Y131.484 E12.48703
G1 X136.750 Y131.012 E12.53369
G1 X137.807 Y130.789 E12.58128
G1 X139.215 Y130.602 E12.64386
G1 X140.605 Y130.836 E12.70596
G1 X141.659 Y131.094 E12.75376
G1 X141.662 Y131.082 E12.75431
G1 X142.886 Y131.775 E12.81628
G1 X143.782 Y132.374 E12.86376
G1 X143.789 Y132.364 E12.86430
G1 X144.698 Y133.431 E12.92605
G1 X145.324 Y134.280 E12.97252
G1 X145.721 Y135.271 E13.01956
G1 X146.147 Y136.607 E13.08134
G1 X146.134 Y136.608 E13.08191
G1 X146.168 Y137.702 E13.13013
G1 X146.112 Y139.102 E13.19186
G1 X145.635 Y140.445 E13.25465
G1 X145.201 Y141.436 E13.30232
G1 X144.317 Y142.523 E13.36404
G1 X143.572 Y143.302 E13.41153
G1 X143.581 Y143.311 E13.41209
G1 X142.381 Y144.015 E13.47339
G1 X141.403 Y144.502 E13.52152
G1 X141.408 Y144.512 E13.52201
G1 X140.023 Y144.765 E13.58404
G1 X138.972 Y144.882 E13.63063
G1 X137.928 Y144.730 E13.67711
G1 X136.544 Y144.430 E13.73950
G1 X135.297 Y143.724 E13.80263
G1 X134.422 Y143.139 E13.84901
G1 X133.693 Y142.326 E13.89711
G1 X132.864 Y141.226 E13.95780
G1 X132.461 Y140.225 E14.00534
G1 X132.037 Y138.892 E14.06697
G1 X132.049 Y138.891 E14.06750
G1 X132.015 Y137.798 E14.11567
G1 X132.071 Y136.396 E14.17749
G1 X132.548 Y135.054 E14.24024
G1 X132.981 Y134.064 E14.28784
G1 X132.971 Y134.059 E14.28834
G1 X133.866 Y132.977 E14.35020
G0 F12000 X134.132 Y131.537
G1 F1200 X134.483 Y132.070 E14.37832
G1 X133.680 Y131.261 E14.42854
G1 X133.851 Y131.122 E14.43824
G1 X134.132 Y131.537 E14.46033
G1 F2100 E13.86033
G0 F12000 X132.306 Y133.608
G1 F2100 E14.46033
G1 F1200 X132.815 Y133.986 E14.48826
G1 X131.823 Y133.522 E14.53651
G1 X131.789 Y133.499 E14.53831
G1 X131.905 Y133.307 E14.54820
G1 X132.306 Y133.608 E14.57029
G1 F2100 E13.97029
G0 F12000 X131.299 Y136.177
G1 F2100 E14.57029
G1 F1200 X131.905 Y136.364 E14.59823
G1 X130.816 Y136.263 E14.64641
G1 X130.776 Y136.253 E14.64823
G1 X130.819 Y136.032 E14.65815
G1 X131.299 Y136.177 E14.68024
G1 F2100 E14.08024
G0 F12000 X131.232 Y138.938
G1 F2100 E14.68024
G1 F1200 X131.899 Y138.900 E14.70967
G1 X130.771 Y139.192 E14.76101
G1 X130.731 Y138.966 E14.77112
G1 X131.232 Y138.938 E14.79322
G1 F2100 E14.19322
G0 F12000 X132.113 Y141.555
G1 F2100 E14.79322
G1 F1200 X132.706 Y141.295 E14.82175
G1 X131.784 Y141.939 E14.87130
G1 X131.762 Y141.951 E14.87240
G1 X131.651 Y141.752 E14.88244
G1 X132.113 Y141.555 E14.90457
G1 F2100 E14.30457
G0 F12000 X133.668 Y144.172
G1 F2100 E14.90457
G1 F1200 X133.638 Y144.204 E14.90650
G1 X133.467 Y144.056 E14.91647
G1 X134.286 Y143.288 E14.96593
G1 X133.668 Y144.172 E15.01345
G1 F2100 E14.41345
G0 F12000 X136.189 Y145.649
G1 F2100 E15.01345
G1 F1200 X136.176 Y145.680 E15.01493
G1 X135.964 Y145.598 E15.02495
G1 X136.483 Y144.579 E15.07533
G1 X136.189 Y145.649 E15.12421
G1 F2100 E14.52421
G0 F12000 X138.837 Y146.195
G1 F2100 E15.12421
G1 F1200 X138.973 Y145.084 E15.17353
G1 X139.067 Y146.193 E15.22256
G1 X138.837 Y146.195 E15.23269
G1 F2100 E14.63269
G0 F12000 X141.627 Y145.285
G1 F2100 E15.23269
G1 F1200 X141.484 Y144.677 E15.26021
G1 X141.954 Y145.686 E15.30925
G1 X141.959 Y145.698 E15.30982
G1 X141.741 Y145.773 E15.31998
G1 X141.627 Y145.285 E15.34206
G1 F2100 E14.74206
G0 F12000 X144.052 Y143.963
G1 F2100 E15.34206
G1 F1200 X143.703 Y143.433 E15.37002
G1 X144.504 Y144.237 E15.42002
G1 X144.324 Y144.383 E15.43023
G1 X144.052 Y143.963 E15.45227
G1 F2100 E14.85227
G0 F12000 X145.876 Y141.891
G1 F2100 E15.45227
G1 F1200 X145.370 Y141.515 E15.48005
G1 X146.363 Y141.978 E15.52832
G1 X146.395 Y141.999 E15.53000
G1 X146.278 Y142.192 E15.53995
G1 X145.876 Y141.891 E15.56207
G1 F2100 E14.96207
G0 F12000 X146.884 Y139.322
G1 F2100 E15.56207
G1 F1200 X146.305 Y139.143 E15.58877
G1 X147.367 Y139.236 E15.63574
G1 X147.407 Y139.246 E15.63756
G1 X147.364 Y139.467 E15.64748
G1 X146.884 Y139.322 E15.66957
G1 F2100 E15.06957
G0 F12000 X146.951 Y136.562
G1 F2100 E15.66957
G1 F1200 X146.313 Y136.598 E15.69772
G1 X147.414 Y136.307 E15.74789
G1 X147.452 Y136.528 E15.75777
G1 X146.951 Y136.562 E15.77989
G1 F2100 E15.17989
G0 F12000 X146.070 Y133.944
G1 F2100 E15.77989
G1 F1200 X145.477 Y134.204 E15.80842
G1 X146.400 Y133.559 E15.85803
G1 X146.422 Y133.547 E15.85913
G1 X146.533 Y133.747 E15.86921
G1 X146.070 Y133.944 E15.89138
G1 F2100 E15.29138
G0 F12000 X143.893 Y132.215
G1 F2100 E15.89138
G1 F1200 X144.541 Y131.292 E15.94107
G1 X144.715 Y131.443 E15.95122
G1 X143.893 Y132.215 E16.00090
G1 F2100 E15.40090
G0 F12000 X141.987 Y130.361
G1 F2100 E16.00090
G1 F1200 X141.713 Y130.896 E16.02738
G1 X141.993 Y129.856 E16.07483
G1 X142.008 Y129.821 E16.07651
G1 X142.210 Y129.898 E16.08603
G1 X141.987 Y130.361 E16.10867
G1 F2100 E15.50867
G0 F12000 X139.208 Y130.434
G1 F2100 E16.10867
G1 F1200 X139.116 Y129.300 E16.15880
G1 X139.346 Y129.304 E16.16893
G1 X139.208 Y130.434 E16.21909
G1 F2100 E15.61909
G0 F12000 X136.229 Y129.813
G1 F2100 E16.21909
G1 F1200 X136.224 Y129.801 E16.21966
G1 X136.442 Y129.726 E16.22981
G1 X136.701 Y130.828 E16.27969
G1 X136.229 Y129.813 E16.32900
G0 F12000 X135.768 Y130.007
;TYPE:WALL-OUTER
G1 F1200 X135.702 Y129.833 E16.33720
G1 X135.649 Y129.489 E16.35254
G1 X136.415 Y129.207 E16.38850
G1 X136.697 Y129.127 E16.40141
G1 X136.814 Y129.309 E16.41095
G1 X136.909 Y129.525 E16.42134
G1 X137.120 Y130.423 E16.46198
G1 X137.718 Y130.297 E16.48891
G1 X138.684 Y130.168 E16.53184
G1 X138.617 Y129.334 E16.56870
G1 X138.610 Y129.212 E16.57409
G1 X138.683 Y128.810 E16.59209
G1 X139.002 Y128.798 E16.60615
G1 X139.513 Y128.807 E16.62867
G1 X139.790 Y128.827 E16.64091
G1 X139.839 Y129.046 E16.65079
G1 X139.854 Y129.234 E16.65910
G1 X139.853 Y129.275 E16.66091
G1 X139.784 Y129.859 E16.68682
G1 X139.743 Y130.184 E16.70125
G1 X140.712 Y130.347 E16.74454
G1 X141.304 Y130.492 E16.77139
G1 X141.520 Y129.690 E16.80798
G1 X141.672 Y129.341 E16.82475
G1 X141.761 Y129.208 E16.83181
G1 X142.534 Y129.487 E16.86801
G1 X142.805 Y129.607 E16.88107
G1 X142.736 Y129.959 E16.89687
G1 X142.441 Y130.572 E16.92684
G1 X142.291 Y130.863 E16.94127
G1 X143.143 Y131.346 E16.98442
G1 X143.653 Y131.687 E17.01144
G1 X144.143 Y130.990 E17.04898
G1 X144.191 Y130.920 E17.05272
G1 X144.383 Y130.738 E17.06438
G1 X144.527 Y130.639 E17.07207
G1 X145.141 Y131.151 E17.10730
G1 X145.359 Y131.361 E17.12063
G1 X145.260 Y131.559 E17.13038
G1 X145.124 Y131.746 E17.14057
G1 X144.454 Y132.374 E17.18103
G1 X145.089 Y133.118 E17.22412
G1 X145.452 Y133.611 E17.25110
G1 X146.140 Y133.132 E17.28803
G1 X146.369 Y133.006 E17.29954
G1 X146.627 Y132.924 E17.31147
G1 X146.801 Y133.201 E17.32588
G1 X147.041 Y133.631 E17.34758
G1 X147.167 Y133.890 E17.36027
G1 X147.004 Y134.044 E17.37015
G1 X146.813 Y134.171 E17.38025
G1 X146.268 Y134.403 E17.40635
G1 X145.965 Y134.536 E17.42093
G1 X146.193 Y135.107 E17.44801
G1 X146.489 Y136.034 E17.49089
G1 X147.305 Y135.819 E17.52806
G1 X147.478 Y135.785 E17.53583
G1 X147.596 Y135.779 E17.54104
G1 X147.826 Y135.798 E17.55120
G1 X147.969 Y136.600 E17.58710
G1 X147.999 Y136.885 E17.59972
G1 X147.798 Y136.972 E17.60937
G1 X147.627 Y137.018 E17.61717
G1 X146.980 Y137.061 E17.64574
G1 X146.649 Y137.079 E17.66034
G1 X146.669 Y137.692 E17.68736
G1 X146.630 Y138.669 E17.73044
G1 X147.452 Y138.741 E17.76680
G1 X147.819 Y138.831 E17.78344
G1 X147.966 Y138.900 E17.79060
G1 X147.922 Y139.221 E17.80487
G1 X147.828 Y139.703 E17.82651
G1 X147.755 Y139.991 E17.83960
G1 X147.613 Y140.000 E17.84587
G1 X147.295 Y139.968 E17.85995
G1 X146.742 Y139.802 E17.88538
G1 X146.429 Y139.704 E17.89983
G1 X146.098 Y140.635 E17.94337
G1 X145.855 Y141.189 E17.97002
G1 X146.606 Y141.540 E18.00654
G1 X146.924 Y141.751 E18.02335
G1 X147.038 Y141.867 E18.03052
G1 X146.893 Y142.141 E18.04418
G1 X146.632 Y142.574 E18.06645
G1 X146.469 Y142.815 E18.07927
G1 X146.252 Y142.748 E18.08927
G1 X146.058 Y142.652 E18.09881
G1 X145.317 Y142.097 E18.13960
G1 X144.701 Y142.844 E18.18226
G1 X144.271 Y143.295 E18.20971
G1 X144.871 Y143.897 E18.24715
G1 X144.963 Y143.999 E18.25321
G1 X145.154 Y144.332 E18.27012
G1 X144.528 Y144.862 E18.30626
G1 X144.292 Y145.033 E18.31910
G1 X144.117 Y144.900 E18.32878
G1 X144.008 Y144.794 E18.33548
G1 X143.953 Y144.729 E18.33923
G1 X143.633 Y144.237 E18.36509
G1 X143.454 Y143.965 E18.37943
G1 X142.611 Y144.460 E18.42250
G1 X142.062 Y144.733 E18.44951
G1 X142.415 Y145.492 E18.48639
G1 X142.481 Y145.666 E18.49459
G1 X142.534 Y146.010 E18.50993
G1 X141.768 Y146.292 E18.54589
G1 X141.487 Y146.371 E18.55875
G1 X141.367 Y146.184 E18.56854
G1 X141.274 Y145.972 E18.57874
G1 X141.066 Y145.082 E18.61900
G1 X140.097 Y145.260 E18.66241
G1 X139.495 Y145.327 E18.68909
G1 X139.566 Y146.166 E18.72619
G1 X139.573 Y146.287 E18.73153
G1 X139.500 Y146.689 E18.74953
G1 X139.181 Y146.701 E18.76359
G1 X138.670 Y146.692 E18.78611
G1 X138.391 Y146.671 E18.79844
G1 X138.349 Y146.492 E18.80654
G1 X138.329 Y146.306 E18.81478
G1 X138.330 Y146.224 E18.81839
G1 X138.399 Y145.640 E18.84430
G1 X138.441 Y145.310 E18.85896
G1 X137.839 Y145.222 E18.88576
G1 X136.882 Y145.015 E18.92890
G1 X136.663 Y145.811 E18.96527
G1 X136.540 Y146.108 E18.97943
G1 X136.421 Y146.290 E18.98901
G1 X135.651 Y146.014 E19.02505
G1 X135.389 Y145.896 E19.03771
G1 X135.443 Y145.549 E19.05318
G1 X135.742 Y144.927 E19.08359
G1 X135.892 Y144.636 E19.09801
G1 X135.040 Y144.153 E19.14116
G1 X134.529 Y143.812 E19.16822
G1 X134.054 Y144.492 E19.20477
G1 X133.791 Y144.767 E19.22153
G1 X133.656 Y144.860 E19.22875
G1 X133.068 Y144.373 E19.26239
G1 X132.824 Y144.138 E19.27732
G1 X132.924 Y143.939 E19.28713
G1 X133.059 Y143.753 E19.29725
G1 X133.733 Y143.121 E19.33796
G1 X133.320 Y142.660 E19.36523
G1 X132.731 Y141.888 E19.40801
G1 X132.043 Y142.367 E19.44494
G1 X131.814 Y142.493 E19.45646
G1 X131.556 Y142.575 E19.46838
G1 X131.382 Y142.298 E19.48280
G1 X131.017 Y141.608 E19.51719
G1 X131.175 Y141.459 E19.52675
G1 X131.379 Y141.324 E19.53753
G1 X131.915 Y141.096 E19.56319
G1 X132.219 Y140.963 E19.57781
G1 X131.988 Y140.390 E19.60503
G1 X131.696 Y139.469 E19.64760
G1 X130.878 Y139.680 E19.68482
G1 X130.705 Y139.714 E19.69258
G1 X130.587 Y139.720 E19.69779
G1 X130.357 Y139.701 E19.70796
G1 X130.214 Y138.899 E19.74385
G1 X130.183 Y138.606 E19.75683
G1 X130.606 Y138.472 E19.77638
G1 X131.534 Y138.420 E19.81733
G1 X131.514 Y137.805 E19.84444
G1 X131.553 Y136.834 E19.88725
G1 X130.731 Y136.758 E19.92362
G1 X130.365 Y136.668 E19.94022
G1 X130.217 Y136.599 E19.94742
G1 X130.355 Y135.796 E19.98331
G1 X130.428 Y135.508 E19.99640
G1 X130.570 Y135.499 E20.00267
G1 X130.888 Y135.531 E20.01675
G1 X131.441 Y135.697 E20.04219
G1 X131.754 Y135.795 E20.05664
G1 X132.085 Y134.864 E20.10017
G1 X132.328 Y134.310 E20.12682
G1 X131.575 Y133.958 E20.16344
G1 X131.263 Y133.751 E20.17994
G1 X131.146 Y133.632 E20.18729
G1 X131.296 Y133.347 E20.20148
G1 X131.714 Y132.684 E20.23601
G1 X131.931 Y132.751 E20.24602
G1 X132.074 Y132.817 E20.25296
G1 X132.129 Y132.850 E20.25578
G1 X132.605 Y133.207 E20.28200
G1 X132.866 Y133.401 E20.29632
G1 X133.495 Y132.641 E20.33979
G1 X133.912 Y132.204 E20.36640
G1 X133.295 Y131.584 E20.40493
G1 X133.251 Y131.539 E20.40771
G1 X133.104 Y131.318 E20.41940
G1 X133.033 Y131.163 E20.42691
G1 X133.655 Y130.637 E20.46280
G1 X133.897 Y130.463 E20.47593
G1 X134.063 Y130.595 E20.48528
G1 X134.165 Y130.694 E20.49154
G1 X134.550 Y131.262 E20.52177
G1 X134.729 Y131.534 E20.53611
G1 X135.572 Y131.039 E20.57918
G1 X136.121 Y130.766 E20.60620
G1 X135.768 Y130.007 E20.64308
G1 F2100 E20.04308
G0 F12000 X137.508 Y133.617
G1 F2100 E20.64308
G1 F1200 X136.762 Y133.987 E20.67976
G1 X136.399 Y134.238 E20.69921
G1 X136.070 Y134.516 E20.71818
G1 X135.748 Y134.854 E20.73875
G1 X135.484 Y135.190 E20.75757
G1 X135.255 Y135.549 E20.77633
G1 X135.060 Y135.929 E20.79515
G1 X134.903 Y136.324 E20.81388
G1 X134.796 Y136.685 E20.83047
G1 X134.672 Y137.516 E20.86748
G1 X134.670 Y137.948 E20.88652
G1 X134.713 Y138.398 E20.90643
G1 X134.797 Y138.818 E20.92530
G1 X134.920 Y139.226 E20.94408
G1 X135.078 Y139.615 E20.96257
G1 X135.281 Y140.000 E20.98175
G1 X135.517 Y140.359 E21.00068
G1 X135.786 Y140.690 E21.01947
G1 X136.084 Y140.996 E21.03829
G1 X136.413 Y141.271 E21.05718
G1 X136.764 Y141.513 E21.07596
G1 X137.139 Y141.720 E21.09483
G1 X137.929 Y142.020 E21.13206
G1 X138.355 Y142.113 E21.15127
G1 X138.771 Y142.164 E21.16974
G1 X139.208 Y142.173 E21.18899
G1 X139.640 Y142.141 E21.20808
G1 X140.454 Y141.960 E21.24482
G1 X140.867 Y141.802 E21.26430
G1 X141.250 Y141.613 E21.28311
G1 X141.613 Y141.387 E21.30195
G1 X141.952 Y141.126 E21.32080
G1 X142.263 Y140.834 E21.33960
G1 X142.547 Y140.513 E21.35848
G1 X142.798 Y140.166 E21.37735
G1 X143.013 Y139.798 E21.39612
G1 X143.192 Y139.410 E21.41495
G1 X143.334 Y139.006 E21.43382
G1 X143.441 Y138.557 E21.45415
G1 X143.498 Y138.133 E21.47300
G1 X143.516 Y137.708 E21.49174
G1 X143.491 Y137.282 E21.51054
G1 X143.425 Y136.854 E21.52962
G1 X143.199 Y136.103 E21.56417
G1 X143.019 Y135.710 E21.58322
G1 X142.773 Y135.295 E21.60447
G1 X142.537 Y134.972 E21.62210
G1 X142.252 Y134.652 E21.64097
G1 X141.938 Y134.362 E21.65981
G1 X141.605 Y134.108 E21.67826
G1 X141.234 Y133.878 E21.69749
G1 X140.845 Y133.687 E21.71658
G1 X140.053 Y133.430 E21.75326
G1 X139.625 Y133.357 E21.77239
G1 X139.198 Y133.326 E21.79125
G1 X138.763 Y133.337 E21.81043
G1 X138.339 Y133.388 E21.82924
G1 X137.921 Y133.482 E21.84812
G1 X137.508 Y133.617 E21.86726
G0 F12000 X137.000 Y132.557
;TYPE:SKIN
G1 F1200 X137.250 Y131.597 E21.90721
G1 X137.750 Y132.321 E21.94419
G1 X138.250 Y131.411 E21.98005
G1 X138.750 Y132.170 E22.01561
G1 X139.250 Y131.323 E22.05279
G1 X139.500 Y132.170 E22.09170
G1 F2100 E21.49170
G0 F12000 X136.500 Y131.890
G1 F2100 E22.09170
G1 F1200 X136.250 Y132.945 E22.13201
G1 X136.000 Y132.150 E22.16873
G0 F12000 X135.500 Y132.444
G1 F1200 X135.500 Y133.460 E22.21349
G0 F12000 X135.000 Y133.936
G1 F1200 X135.000 Y132.765 E22.26508
G0 F12000 X134.500 Y133.289
G1 F1200 X134.500 Y134.547 E22.32050
G0 F12000 X134.000 Y133.874
G1 F1200 X134.000 Y135.420 E22.38861
G0 F12000 X133.500 Y134.563
G1 F1200 X133.500 Y137.405 E22.51382
G0 F12000 X133.500 Y138.052
G1 F1200 X133.500 Y140.949 E22.64146
G0 F12000 X134.000 Y141.612
G1 F1200 X134.000 Y140.085 E22.70873
G0 F12000 X134.500 Y140.951
G1 F1200 X134.500 Y142.216 E22.76446
G0 F12000 X135.000 Y142.713
G1 F1200 X135.000 Y141.568 E22.81491
G0 F12000 X135.500 Y142.039
G1 F1200 X135.500 Y143.047 E22.85932
G0 F12000 X136.000 Y143.345
G1 F1200 X136.250 Y142.561 E22.90036
G1 X136.750 Y143.732 E22.94075
G1 X137.250 Y143.028 E22.98023
G1 X137.750 Y144.000 E23.01674
G1 X138.250 Y143.277 E23.05260
G1 X138.750 Y144.165 E23.08852
G1 X139.250 Y143.336 E23.12622
G1 X139.750 Y144.114 E23.16216
G1 X140.250 Y143.208 E23.19826
G1 X140.750 Y143.946 E23.23518
G1 X141.250 Y142.903 E23.27442
G1 X141.750 Y143.576 E23.31409
G1 X142.250 Y142.358 E23.35470
G1 X142.500 Y143.163 E23.39183
G0 F12000 X143.000 Y142.870
G1 F1200 X143.000 Y141.753 E23.44104
G0 F12000 X143.500 Y141.199
G1 F1200 X143.500 Y142.401 E23.49400
G0 F12000 X144.000 Y141.848
G1 F1200 X144.000 Y140.437 E23.55616
G0 F12000 X144.500 Y141.242
G1 F1200 X144.500 Y139.181 E23.64696
G0 F12000 X145.000 Y140.214
G1 F1200 X145.000 Y135.290 E23.86390
G0 F12000 X144.000 Y135.060
G1 F1200 X144.000 Y133.651 E23.92598
G0 F12000 X143.500 Y133.066
G1 F1200 X143.500 Y134.298 E23.98025
G0 F12000 X143.000 Y133.743
G1 F1200 X143.000 Y132.664 E24.02779
G0 F12000 X142.500 Y132.333
G1 F1200 X142.250 Y133.141 E24.07094
G1 X141.750 Y131.908 E24.11139
G1 X141.250 Y132.600 E24.15246
G1 X140.750 Y131.565 E24.19095
G1 X140.250 Y132.284 E24.22776
G1 X140.000 Y131.419 E24.26743
G1 F2100 E23.66743
G0 F12000 X144.500 Y134.300
G1 F2100 E24.26743
G1 F1200 X144.500 Y136.350 E24.35774
G1 F2100 E23.75774
G0 F12000 X133.000 Y135.798
G1 F2100 E24.35774
G1 F1200 X133.000 Y139.696 E24.52947
;LAYER:1
G0 F12000 X132.825 Y139.746 Z0.350
;TYPE:WALL-INNER
G1 F1320 X132.545 Y138.797 E24.56217
G1 X132.515 Y137.811 E24.59476
G1 X132.568 Y136.495 E24.63828
G1 X133.013 Y135.237 E24.68237
G1 X133.407 Y134.341 E24.71472
G1 X134.016 Y133.566 E24.74728
G1 X134.908 Y132.587 E24.79105
G1 X136.050 Y131.918 E24.83478
G1 X136.913 Y131.489 E24.86662
G1 X137.885 Y131.283 E24.89946
G1 X139.204 Y131.107 E24.94342
G1 X140.505 Y131.326 E24.98702
G1 X141.516 Y131.574 E25.02141
G1 X142.622 Y132.200 E25.06341
G1 X143.480 Y132.773 E25.09750
G1 X144.309 Y133.746 E25.13974
G1 X144.916 Y134.567 E25.17347
G1 X145.358 Y135.753 E25.21529
G1 X145.638 Y136.702 E25.24799
G1 X145.668 Y137.688 E25.28058
G1 X145.615 Y139.002 E25.32404
G1 X145.170 Y140.262 E25.36819
G1 X144.755 Y141.207 E25.40229
G1 X143.945 Y142.187 E25.44430
G1 X143.229 Y142.939 E25.47861
G1 X142.137 Y143.579 E25.52044
G1 X141.213 Y144.038 E25.55453
G1 X139.962 Y144.269 E25.59656
G1 X138.929 Y144.383 E25.63090
G1 X137.678 Y144.173 E25.67282
G1 X136.667 Y143.925 E25.70721
G1 X135.561 Y143.299 E25.74921
G1 X134.702 Y142.725 E25.78334
G1 X133.874 Y141.753 E25.82554
G1 X133.267 Y140.932 E25.85927
G1 X132.825 Y139.746 E25.90109
G0 F12000 X133.982 Y139.574
G1 F1320 X134.182 Y140.059 E25.91843
G1 X134.427 Y140.521 E25.93571
G1 X134.717 Y140.959 E25.95307
G1 X135.047 Y141.367 E25.97040
G1 X135.435 Y141.760 E25.98865
G1 X136.206 Y142.347 E26.02067
G1 X136.709 Y142.623 E26.03963
G1 X137.190 Y142.831 E26.05695
G1 X137.688 Y142.990 E26.07422
G1 X138.177 Y143.098 E26.09077
G1 X138.699 Y143.162 E26.10814
G1 X139.225 Y143.174 E26.12553
G1 X139.770 Y143.133 E26.14359
G1 X140.316 Y143.037 E26.16191
G1 X141.235 Y142.736 E26.19386
G1 X141.750 Y142.479 E26.21288
G1 X142.193 Y142.201 E26.23016
G1 X142.609 Y141.881 E26.24750
G1 X142.992 Y141.521 E26.26487
G1 X143.338 Y141.126 E26.28222
G1 X143.644 Y140.700 E26.29955
G1 X143.907 Y140.248 E26.31683
G1 X144.126 Y139.772 E26.33414
G1 X144.295 Y139.280 E26.35133
G1 X144.419 Y138.784 E26.36823
G1 X144.498 Y138.172 E26.38862
G1 X144.517 Y137.803 E26.40082
G1 X144.513 Y137.588 E26.40793
G1 X144.430 Y136.763 E26.43533
G1 X144.260 Y136.100 E26.45794
G1 X144.067 Y135.587 E26.47605
G1 X143.673 Y134.839 E26.50399
G1 X143.324 Y134.352 E26.52379
G1 X142.956 Y133.942 E26.54199
G1 X142.571 Y133.586 E26.55932
G1 X142.153 Y133.270 E26.57663
G1 X141.708 Y132.997 E26.59388
G1 X141.236 Y132.765 E26.61126
G1 X140.744 Y132.582 E26.62861
G1 X140.242 Y132.448 E26.64577
G1 X139.746 Y132.363 E26.66240
G1 X139.219 Y132.325 E26.67986
G1 X138.674 Y132.340 E26.69788
G1 X138.126 Y132.409 E26.71613
G1 X137.192 Y132.665 E26.74813
G1 X136.639 Y132.908 E26.76808
G1 X135.820 Y133.418 E26.79996
G1 X135.395 Y133.776 E26.81833
G1 X135.021 Y134.160 E26.83604
G1 X134.629 Y134.668 E26.85724
G1 X134.342 Y135.130 E26.87521
G1 X133.984 Y135.909 E26.90354
G1 X133.793 Y136.586 E26.92678
G1 X133.674 Y137.426 E26.95481
G1 X133.670 Y137.976 E26.97299
G1 X133.725 Y138.556 E26.99224
G1 X133.830 Y139.074 E27.00970
G1 X133.982 Y139.574 E27.02697
G0 F12000 X134.453 Y139.406
G1 F1320 X134.635 Y139.846 E27.04270
G1 X134.858 Y140.266 E27.05842
G1 X135.121 Y140.663 E27.07415
G1 X135.420 Y141.033 E27.08987
G1 X135.766 Y141.383 E27.10613
G1 X136.479 Y141.927 E27.13577
G1 X136.929 Y142.173 E27.15271
G1 X137.365 Y142.362 E27.16841
G1 X137.818 Y142.507 E27.18413
G1 X138.262 Y142.605 E27.19916
G1 X138.735 Y142.663 E27.21490
G1 X139.212 Y142.674 E27.23067
G1 X139.708 Y142.636 E27.24710
G1 X140.194 Y142.550 E27.26341
G1 X141.045 Y142.273 E27.29298
G1 X141.505 Y142.043 E27.30998
G1 X141.907 Y141.790 E27.32567
G1 X142.284 Y141.500 E27.34139
G1 X142.632 Y141.174 E27.35714
G1 X142.946 Y140.815 E27.37290
G1 X143.224 Y140.428 E27.38865
G1 X143.463 Y140.017 E27.40436
G1 X143.661 Y139.586 E27.42003
G1 X143.816 Y139.138 E27.43569
G1 X143.927 Y138.691 E27.45091
G1 X144.000 Y138.128 E27.46967
G1 X144.016 Y137.795 E27.48069
G1 X144.013 Y137.617 E27.48657
G1 X143.937 Y136.851 E27.51201
G1 X143.782 Y136.250 E27.53251
G1 X143.610 Y135.792 E27.54868
G1 X143.246 Y135.103 E27.57443
G1 X142.933 Y134.665 E27.59222
G1 X142.600 Y134.293 E27.60871
G1 X142.250 Y133.971 E27.62443
G1 X141.870 Y133.684 E27.64016
G1 X141.466 Y133.435 E27.65584
G1 X141.038 Y133.225 E27.67160
G1 X140.591 Y133.059 E27.68735
G1 X140.135 Y132.937 E27.70295
G1 X139.686 Y132.860 E27.71800
G1 X139.208 Y132.825 E27.73384
G1 X138.713 Y132.839 E27.75020
G1 X138.224 Y132.900 E27.76648
G1 X137.360 Y133.137 E27.79609
G1 X136.873 Y133.351 E27.81366
G1 X136.115 Y133.824 E27.84319
G1 X135.736 Y134.142 E27.85953
G1 X135.400 Y134.489 E27.87549
G1 X135.040 Y134.954 E27.89493
G1 X134.783 Y135.367 E27.91100
G1 X134.455 Y136.082 E27.93699
G1 X134.284 Y136.690 E27.95786
G1 X134.173 Y137.463 E27.98366
G1 X134.170 Y137.954 E27.99989
G1 X134.220 Y138.482 E28.01741
G1 X134.315 Y138.952 E28.03326
G1 X134.453 Y139.406 E28.04894
G1 F2100 E27.44894
G0 F12000 X132.345 Y139.887
G1 F2100 E28.04894
G1 F1320 X132.048 Y138.877 E28.08372
G1 X132.015 Y137.793 E28.11956
G1 X132.072 Y136.399 E28.16566
G1 X132.546 Y135.055 E28.21275
G1 X132.975 Y134.082 E28.24788
G1 X133.639 Y133.237 E28.28339
G1 X134.587 Y132.198 E28.32987
G1 X135.800 Y131.485 E28.37636
G1 X136.746 Y131.014 E28.41128
G1 X137.808 Y130.789 E28.44715
G1 X139.213 Y130.602 E28.49398
G1 X140.612 Y130.837 E28.54086
G1 X141.659 Y131.094 E28.57648
G1 X141.662 Y131.082 E28.57689
G1 X142.884 Y131.775 E28.62331
G1 X143.782 Y132.373 E28.65896
G1 X143.789 Y132.363 E28.65936
G1 X144.689 Y133.420 E28.70523
G1 X145.339 Y134.299 E28.74135
G1 X145.835 Y135.603 E28.78745
G1 X146.135 Y136.622 E28.82255
G1 X146.169 Y137.707 E28.85842
G1 X146.112 Y139.098 E28.90442
G1 X145.637 Y140.444 E28.95158
G1 X145.200 Y141.435 E28.98737
G1 X145.211 Y141.440 E28.98777
G1 X144.320 Y142.519 E29.03401
G1 X143.572 Y143.304 E29.06984
G1 X143.580 Y143.312 E29.07021
G1 X142.383 Y144.014 E29.11606
G1 X141.403 Y144.502 E29.15224
G1 X140.024 Y144.765 E29.19862
G1 X138.957 Y144.883 E29.23410
G1 X138.958 Y144.895 E29.23449
G1 X137.571 Y144.662 E29.28097
G1 X136.524 Y144.405 E29.31659
G1 X136.521 Y144.417 E29.31700
G1 X135.299 Y143.725 E29.36340
G1 X134.400 Y143.125 E29.39911
G1 X134.393 Y143.135 E29.39952
G1 X133.490 Y142.075 E29.44553
G1 X132.844 Y141.200 E29.48147
G1 X132.345 Y139.887 E29.52788
G1 F2100 E28.92788
G0 F12000 X130.872 Y139.165
G1 F2100 E29.52788
G1 F1320 X130.624 Y139.218 E29.53626
G1 X130.583 Y138.997 E29.54368
G1 X130.697 Y138.968 E29.54757
G1 X131.866 Y138.901 E29.58626
G1 X130.872 Y139.165 E29.62024
G1 F2100 E29.02024
G0 F12000 X130.897 Y136.271
G1 F2100 E29.62024
G1 F1320 X130.634 Y136.229 E29.62905
G1 X130.671 Y136.008 E29.63645
G1 X130.762 Y136.015 E29.63946
G1 X131.948 Y136.376 E29.68043
G1 X130.897 Y136.271 E29.71533
G1 F2100 E29.11533
G0 F12000 X131.884 Y133.550
G1 F2100 E29.71533
G1 F1320 X131.703 Y133.457 E29.72205
G1 X131.666 Y133.425 E29.72367
G1 X131.773 Y133.236 E29.73085
G1 X131.879 Y133.287 E29.73473
G1 X132.798 Y133.978 E29.77273
G1 X131.884 Y133.550 E29.80607
G1 F2100 E29.20607
G0 F12000 X133.733 Y131.315
G1 F2100 E29.80607
G1 F1320 X133.590 Y131.149 E29.81331
G1 X133.757 Y131.005 E29.82060
G1 X133.831 Y131.076 E29.82399
G1 X134.521 Y132.130 E29.86561
G1 X133.733 Y131.315 E29.90307
G1 F2100 E29.30307
G0 F12000 X136.267 Y129.893
G1 F2100 E29.90307
G1 F1320 X136.178 Y129.665 E29.91116
G1 X136.391 Y129.585 E29.91868
G1 X136.406 Y129.614 E29.91976
G1 X136.533 Y130.115 E29.93683
G1 X136.702 Y130.830 E29.96111
G1 X136.267 Y129.893 E29.99525
G1 F2100 E29.39525
G0 F12000 X139.124 Y129.396
G1 F2100 E29.99525
G1 F1320 X139.112 Y129.223 E30.00098
G1 X139.120 Y129.150 E30.00340
G1 X139.346 Y129.155 E30.01087
G1 X139.354 Y129.222 E30.01310
G1 X139.204 Y130.481 E30.05500
G1 X139.124 Y129.396 E30.09094
G1 F2100 E29.49094
G0 F12000 X141.977 Y129.918
G1 F2100 E30.09094
G1 F1320 X142.057 Y129.685 E30.09908
G1 X142.269 Y129.759 E30.10650
G1 X142.246 Y129.846 E30.10948
G1 X141.711 Y130.903 E30.14862
G1 X141.977 Y129.918 E30.18234
G1 F2100 E29.58234
G0 F12000 X144.486 Y131.372
G1 F2100 E30.18234
G1 F1320 X144.638 Y131.186 E30.19027
G1 X144.808 Y131.325 E30.19753
G1 X144.741 Y131.418 E30.20132
G1 X143.897 Y132.210 E30.23956
G1 X144.486 Y131.372 E30.27340
G1 F2100 E29.67340
G0 F12000 X146.337 Y133.604
G1 F2100 E30.27340
G1 F1320 X146.478 Y133.510 E30.27900
G1 X146.549 Y133.480 E30.28155
G1 X146.664 Y133.672 E30.28895
G1 X146.591 Y133.722 E30.29187
G1 X145.485 Y134.197 E30.33164
G1 X146.337 Y133.604 E30.36594
G1 F2100 E29.76594
G0 F12000 X147.311 Y136.334
G1 F2100 E30.36594
G1 F1320 X147.558 Y136.281 E30.37429
G1 X147.601 Y136.503 E30.38176
G1 X147.489 Y136.531 E30.38558
G1 X146.317 Y136.598 E30.42437
G1 X147.311 Y136.334 E30.45835
G1 F2100 E29.85835
G0 F12000 X147.295 Y139.229
G1 F2100 E30.45835
G1 F1320 X147.549 Y139.270 E30.46685
G1 X147.512 Y139.491 E30.47425
G1 X147.421 Y139.484 E30.47727
G1 X146.293 Y139.141 E30.51623
G1 X147.295 Y139.229 E30.54946
G1 F2100 E29.94946
G0 F12000 X146.321 Y141.959
G1 F2100 E30.54946
G1 F1320 X146.481 Y142.042 E30.55542
G1 X146.517 Y142.074 E30.55701
G1 X146.411 Y142.263 E30.56417
G1 X146.308 Y142.214 E30.56794
G1 X145.384 Y141.521 E30.60610
G1 X146.321 Y141.959 E30.64028
G1 F2100 E30.04028
G0 F12000 X144.428 Y144.159
G1 F2100 E30.64028
G1 F1320 X144.593 Y144.350 E30.64862
G1 X144.426 Y144.494 E30.65591
G1 X144.343 Y144.410 E30.65981
G1 X143.709 Y143.441 E30.69807
G1 X144.428 Y144.159 E30.73165
G1 F2100 E30.13165
G0 F12000 X141.911 Y145.594
G1 F2100 E30.73165
G1 F1320 X142.002 Y145.825 E30.73985
G1 X142.003 Y145.835 E30.74018
G1 X141.791 Y145.914 E30.74766
G1 X141.648 Y145.373 E30.76615
G1 X141.482 Y144.671 E30.78998
G1 X141.911 Y145.594 E30.82361
G1 F2100 E30.22361
G0 F12000 X139.059 Y146.102
G1 F2100 E30.82361
G1 F1320 X139.071 Y146.271 E30.82921
G1 X139.061 Y146.349 E30.83181
G1 X138.836 Y146.344 E30.83925
G1 X138.829 Y146.282 E30.84131
G1 X138.830 Y146.260 E30.84204
G1 X138.973 Y145.069 E30.88167
G1 X139.059 Y146.102 E30.91592
G1 F2100 E30.31592
G0 F12000 X136.207 Y145.579
G1 F2100 E30.91592
G1 F1320 X136.126 Y145.814 E30.92414
G1 X135.914 Y145.740 E30.93156
G1 X135.937 Y145.653 E30.93453
G1 X136.472 Y144.596 E30.97367
G1 X136.207 Y145.579 E31.00732
G1 F2100 E30.40732
G0 F12000 X133.709 Y144.112
G1 F2100 E31.00732
G1 F1320 X133.568 Y144.294 E31.01492
G1 X133.544 Y144.313 E31.01593
G1 X133.375 Y144.174 E31.02316
G1 X133.442 Y144.081 E31.02695
G1 X134.283 Y143.292 E31.06506
G1 X133.709 Y144.112 E31.09813
G1 F2100 E30.49813
G0 F12000 X131.846 Y141.895
G1 F2100 E31.09813
G1 F1320 X131.705 Y141.989 E31.10373
G1 X131.634 Y142.019 E31.10628
G1 X131.522 Y141.831 E31.11351
G1 X131.620 Y141.765 E31.11741
G1 X132.698 Y141.302 E31.15618
G1 X131.846 Y141.895 E31.19048
G0 F12000 X132.123 Y142.311
;TYPE:WALL-OUTER
G1 F1320 X131.939 Y142.433 E31.19777
G1 X131.708 Y142.531 E31.20606
G1 X131.401 Y142.606 E31.21650
G1 X131.065 Y142.040 E31.23825
G1 X130.903 Y141.717 E31.25019
G1 X131.120 Y141.501 E31.26031
G1 X131.381 Y141.324 E31.27073
G1 X132.213 Y140.966 E31.30066
G1 X131.876 Y140.062 E31.33254
G1 X131.699 Y139.463 E31.35318
G1 X130.988 Y139.652 E31.37749
G1 X130.690 Y139.715 E31.38755
G1 X130.556 Y139.720 E31.39198
G1 X130.203 Y139.683 E31.40371
G1 X130.078 Y139.018 E31.42607
G1 X130.039 Y138.678 E31.43737
G1 X130.322 Y138.547 E31.44768
G1 X130.618 Y138.472 E31.45777
G1 X131.533 Y138.420 E31.48805
G1 X131.514 Y137.799 E31.50858
G1 X131.553 Y136.839 E31.54033
G1 X130.819 Y136.765 E31.56470
G1 X130.515 Y136.719 E31.57486
G1 X130.155 Y136.576 E31.58766
G1 X130.078 Y136.533 E31.59058
G1 X130.189 Y135.860 E31.61311
G1 X130.269 Y135.525 E31.62450
G1 X130.579 Y135.499 E31.63477
G1 X130.881 Y135.529 E31.64480
G1 X131.755 Y135.794 E31.67498
G1 X132.079 Y134.877 E31.70712
G1 X132.328 Y134.310 E31.72758
G1 X131.661 Y133.998 E31.75191
G1 X131.418 Y133.872 E31.76095
G1 X131.037 Y133.524 E31.77800
G1 X131.367 Y132.937 E31.80025
G1 X131.562 Y132.642 E31.81194
G1 X131.862 Y132.724 E31.82222
G1 X132.138 Y132.856 E31.83232
G1 X132.871 Y133.406 E31.86260
G1 X133.255 Y132.916 E31.88318
G1 X133.901 Y132.208 E31.91484
G1 X133.374 Y131.663 E31.93989
G1 X133.184 Y131.449 E31.94935
G1 X133.002 Y131.110 E31.96206
G1 X132.969 Y131.023 E31.96514
G1 X133.482 Y130.583 E31.98747
G1 X133.769 Y130.369 E31.99930
G1 X134.147 Y130.680 E32.01547
G1 X134.230 Y130.771 E32.01954
G1 X134.728 Y131.534 E32.04965
G1 X135.570 Y131.041 E32.08189
G1 X136.121 Y130.766 E32.10224
G1 X135.812 Y130.100 E32.12650
G1 X135.694 Y129.800 E32.13715
G1 X135.662 Y129.634 E32.14274
G1 X135.640 Y129.436 E32.14932
G1 X135.638 Y129.334 E32.15269
G1 X136.261 Y129.100 E32.17468
G1 X136.607 Y128.997 E32.18661
G1 X136.786 Y129.254 E32.19696
G1 X136.878 Y129.440 E32.20381
G1 X137.020 Y130.000 E32.22290
G1 X137.120 Y130.423 E32.23726
G1 X137.716 Y130.297 E32.25739
G1 X138.680 Y130.169 E32.28953
G1 X138.610 Y129.213 E32.32120
G1 X138.634 Y128.996 E32.32841
G1 X138.731 Y128.657 E32.34006
G1 X139.025 Y128.648 E32.34978
G1 X139.526 Y128.658 E32.36634
G1 X139.749 Y128.672 E32.37372
G1 X139.830 Y128.977 E32.38415
G1 X139.854 Y129.198 E32.39150
G1 X139.853 Y129.275 E32.39404
G1 X139.745 Y130.184 E32.42429
G1 X140.706 Y130.346 E32.45649
G1 X141.304 Y130.492 E32.47683
G1 X141.494 Y129.785 E32.50102
G1 X141.595 Y129.482 E32.51157
G1 X141.797 Y129.155 E32.52427
G1 X141.855 Y129.083 E32.52733
G1 X142.500 Y129.310 E32.54992
G1 X142.815 Y129.446 E32.56126
G1 X142.786 Y129.757 E32.57158
G1 X142.705 Y130.047 E32.58153
G1 X142.292 Y130.864 E32.61178
G1 X143.141 Y131.345 E32.64402
G1 X143.653 Y131.686 E32.66435
G1 X144.079 Y131.082 E32.68877
G1 X144.276 Y130.834 E32.69923
G1 X144.575 Y130.598 E32.71182
G1 X144.652 Y130.551 E32.71480
G1 X145.168 Y130.974 E32.73685
G1 X145.430 Y131.221 E32.74875
G1 X145.298 Y131.500 E32.75894
G1 X145.115 Y131.754 E32.76929
G1 X144.454 Y132.374 E32.79923
G1 X145.081 Y133.109 E32.83116
G1 X145.452 Y133.611 E32.85178
G1 X146.060 Y133.188 E32.87626
G1 X146.244 Y133.066 E32.88355
G1 X146.478 Y132.967 E32.89195
G1 X146.778 Y132.886 E32.90221
G1 X147.122 Y133.464 E32.92444
G1 X147.280 Y133.782 E32.93617
G1 X147.057 Y134.004 E32.94657
G1 X146.816 Y134.170 E32.95624
G1 X145.970 Y134.533 E32.98666
G1 X146.307 Y135.437 E33.01854
G1 X146.484 Y136.036 E33.03917
G1 X147.195 Y135.847 E33.06348
G1 X147.493 Y135.784 E33.07355
G1 X147.627 Y135.779 E33.07798
G1 X147.980 Y135.816 E33.08971
G1 X148.105 Y136.481 E33.11206
G1 X148.144 Y136.821 E33.12337
G1 X147.859 Y136.953 E33.13375
G1 X147.566 Y137.027 E33.14374
G1 X146.650 Y137.079 E33.17405
G1 X146.669 Y137.698 E33.19452
G1 X146.630 Y138.669 E33.22663
G1 X147.363 Y138.734 E33.25094
G1 X147.668 Y138.780 E33.26113
G1 X148.028 Y138.923 E33.27393
G1 X148.105 Y138.966 E33.27685
G1 X147.995 Y139.633 E33.29918
G1 X147.914 Y139.974 E33.31076
G1 X147.604 Y140.000 E33.32104
G1 X147.302 Y139.970 E33.33107
G1 X146.428 Y139.705 E33.36125
G1 X146.104 Y140.622 E33.39338
G1 X145.855 Y141.189 E33.41385
G1 X146.532 Y141.506 E33.43855
G1 X146.767 Y141.628 E33.44730
G1 X147.085 Y141.905 E33.46123
G1 X147.147 Y141.975 E33.46432
G1 X146.816 Y142.563 E33.48662
G1 X146.622 Y142.858 E33.49828
G1 X146.324 Y142.776 E33.50850
G1 X146.044 Y142.641 E33.51877
G1 X145.317 Y142.097 E33.54877
G1 X144.694 Y142.852 E33.58111
G1 X144.271 Y143.295 E33.60135
G1 X144.798 Y143.823 E33.62600
G1 X144.999 Y144.050 E33.63602
G1 X145.181 Y144.389 E33.64873
G1 X145.214 Y144.476 E33.65181
G1 X144.701 Y144.916 E33.67414
G1 X144.420 Y145.125 E33.68571
G1 X144.170 Y144.948 E33.69583
G1 X143.951 Y144.724 E33.70619
G1 X143.455 Y143.965 E33.73614
G1 X142.613 Y144.458 E33.76838
G1 X142.062 Y144.733 E33.78873
G1 X142.370 Y145.396 E33.81289
G1 X142.489 Y145.697 E33.82358
G1 X142.544 Y146.067 E33.83594
G1 X142.546 Y146.165 E33.83918
G1 X141.922 Y146.399 E33.86120
G1 X141.577 Y146.502 E33.87310
G1 X141.398 Y146.245 E33.88345
G1 X141.305 Y146.058 E33.89035
G1 X141.163 Y145.496 E33.90950
G1 X141.066 Y145.082 E33.92355
G1 X140.101 Y145.260 E33.95598
G1 X139.496 Y145.326 E33.97609
G1 X139.558 Y146.067 E34.00066
G1 X139.573 Y146.282 E34.00778
G1 X139.542 Y146.535 E34.01620
G1 X139.451 Y146.842 E34.02678
G1 X139.159 Y146.851 E34.03643
G1 X138.657 Y146.841 E34.05302
G1 X138.435 Y146.827 E34.06037
G1 X138.352 Y146.516 E34.07101
G1 X138.329 Y146.305 E34.07802
G1 X138.330 Y146.224 E34.08070
G1 X138.438 Y145.315 E34.11095
G1 X137.477 Y145.153 E34.14315
G1 X136.879 Y145.007 E34.16349
G1 X136.689 Y145.714 E34.18768
G1 X136.588 Y146.017 E34.19823
G1 X136.384 Y146.348 E34.21108
G1 X136.329 Y146.416 E34.21397
G1 X135.683 Y146.189 E34.23659
G1 X135.368 Y146.053 E34.24793
G1 X135.397 Y145.742 E34.25825
G1 X135.478 Y145.452 E34.26820
G1 X135.891 Y144.635 E34.29845
G1 X135.042 Y144.154 E34.33069
G1 X134.529 Y143.812 E34.35107
G1 X134.109 Y144.413 E34.37529
G1 X133.925 Y144.648 E34.38515
G1 X133.530 Y144.948 E34.40154
G1 X133.011 Y144.523 E34.42371
G1 X132.753 Y144.279 E34.43544
G1 X132.885 Y143.999 E34.44567
G1 X133.068 Y143.745 E34.45602
G1 X133.729 Y143.125 E34.48596
G1 X133.101 Y142.389 E34.51793
G1 X132.731 Y141.888 E34.53851
G1 X132.123 Y142.311 E34.56298
G1 F2100 E33.96298
G0 F12000 X135.288 Y140.010
G1 F2100 E34.56298
G1 F1320 X135.524 Y140.367 E34.57712
G1 X135.793 Y140.699 E34.59124
G1 X136.097 Y141.007 E34.60554
G1 X136.752 Y141.506 E34.63275
G1 X137.149 Y141.724 E34.64772
G1 X137.541 Y141.893 E34.66182
G1 X137.949 Y142.024 E34.67598
G1 X138.347 Y142.112 E34.68945
G1 X138.771 Y142.164 E34.70356
G1 X139.199 Y142.173 E34.71771
G1 X139.645 Y142.139 E34.73249
G1 X140.073 Y142.064 E34.74685
G1 X140.854 Y141.809 E34.77399
G1 X141.260 Y141.606 E34.78899
G1 X141.621 Y141.379 E34.80308
G1 X141.960 Y141.119 E34.81720
G1 X142.272 Y140.826 E34.83134
G1 X142.554 Y140.504 E34.84548
G1 X142.804 Y140.156 E34.85964
G1 X143.018 Y139.787 E34.87374
G1 X143.196 Y139.399 E34.88784
G1 X143.336 Y138.995 E34.90197
G1 X143.435 Y138.598 E34.91549
G1 X143.501 Y138.083 E34.93265
G1 X143.516 Y137.786 E34.94247
G1 X143.514 Y137.646 E34.94710
G1 X143.443 Y136.938 E34.97061
G1 X143.305 Y136.401 E34.98893
G1 X143.153 Y135.997 E35.00319
G1 X142.820 Y135.366 E35.02677
G1 X142.542 Y134.978 E35.04254
G1 X142.243 Y134.644 E35.05735
G1 X141.929 Y134.355 E35.07145
G1 X141.588 Y134.097 E35.08558
G1 X141.225 Y133.874 E35.09966
G1 X140.840 Y133.685 E35.11383
G1 X140.439 Y133.536 E35.12797
G1 X140.028 Y133.426 E35.14203
G1 X139.625 Y133.357 E35.15554
G1 X139.197 Y133.326 E35.16971
G1 X138.751 Y133.338 E35.18446
G1 X138.321 Y133.392 E35.19878
G1 X137.527 Y133.610 E35.22598
G1 X137.107 Y133.794 E35.24113
G1 X136.410 Y134.229 E35.26828
G1 X136.077 Y134.509 E35.28266
G1 X135.778 Y134.817 E35.29684
G1 X135.451 Y135.239 E35.31448
G1 X135.224 Y135.604 E35.32869
G1 X134.926 Y136.255 E35.35234
G1 X134.774 Y136.793 E35.37082
G1 X134.673 Y137.500 E35.39441
G1 X134.670 Y137.932 E35.40869
G1 X134.715 Y138.409 E35.42452
G1 X134.800 Y138.829 E35.43868
G1 X134.924 Y139.237 E35.45277
G1 X135.088 Y139.633 E35.46693
G1 X135.288 Y140.010 E35.48103
G0 F12000 X134.218 Y140.500
;TYPE:SKIN
G1 F1320 X133.198 Y140.250 E35.51164
G1 X133.968 Y140.000 E35.53839
G0 F12000 X133.534 Y141.000
G1 F1320 X134.534 Y141.000 E35.57143
G0 F12000 X134.932 Y141.500
G1 F1320 X133.904 Y141.500 E35.60540
G0 F12000 X134.313 Y142.000
G1 F1320 X135.463 Y142.000 E35.64340
G0 F12000 X136.123 Y142.500
G1 F1320 X134.739 Y142.500 E35.68913
G0 F12000 X135.429 Y143.000
G1 F1320 X137.147 Y143.000 E35.74590
G0 F12000 X136.273 Y143.500
G1 F1320 X141.898 Y143.500 E35.93176
G0 F12000 X142.774 Y143.000
G1 F1320 X140.989 Y143.000 E35.99074
G0 F12000 X140.446 Y144.000
G1 F1320 X137.712 Y144.000 E36.08108
G1 F2100 E35.48108
G0 F12000 X142.045 Y142.500
G1 F2100 E36.08108
G1 F1320 X143.403 Y142.500 E36.12595
G0 F12000 X143.870 Y142.000
G1 F1320 X142.736 Y142.000 E36.16342
G0 F12000 X143.242 Y141.500
G1 F1320 X144.283 Y141.500 E36.19782
G0 F12000 X144.653 Y141.000
G1 F1320 X143.642 Y141.000 E36.23123
G0 F12000 X143.961 Y140.500
G1 F1320 X144.973 Y140.250 E36.26133
G1 X144.308 Y139.750 E36.28981
G1 X145.340 Y139.250 E36.31785
G1 X144.587 Y138.750 E36.34706
G1 X145.468 Y138.250 E36.37437
G1 X144.679 Y137.750 E36.40073
G1 X145.479 Y137.250 E36.42742
G1 X144.585 Y136.750 E36.45530
G1 X145.322 Y136.250 E36.48350
G1 X144.313 Y135.750 E36.51125
G1 X144.984 Y135.250 E36.53962
G1 X143.955 Y135.000 E36.57461
G0 F12000 X143.644 Y134.500
G1 F1320 X144.649 Y134.500 E36.60782
G0 F12000 X144.280 Y134.000
G1 F1320 X143.243 Y134.000 E36.64209
G0 F12000 X142.736 Y133.500
G1 F1320 X143.871 Y133.500 E36.67959
G0 F12000 X143.444 Y133.000
G1 F1320 X142.048 Y133.000 E36.72572
G0 F12000 X142.757 Y132.500
G1 F1320 X141.027 Y132.500 E36.78288
G0 F12000 X141.914 Y132.000
G1 F1320 X136.276 Y132.000 E36.96917
G0 F12000 X137.130 Y132.500
G1 F1320 X135.401 Y132.500 E37.02631
G0 F12000 X134.767 Y133.000
G1 F1320 X136.158 Y133.000 E37.07227
G0 F12000 X135.448 Y133.500
G1 F1320 X134.312 Y133.500 E37.10980
G0 F12000 X133.897 Y134.000
G1 F1320 X134.930 Y134.000 E37.14394
G0 F12000 X134.535 Y134.500
G1 F1320 X133.528 Y134.500 E37.17721
G0 F12000 X133.307 Y135.000
G1 F1320 X134.096 Y135.250 E37.20718
G1 X133.016 Y135.750 E37.23597
G1 X133.703 Y136.250 E37.26393
G1 X132.736 Y136.750 E37.29307
G1 X133.526 Y137.250 E37.32056
G1 X132.698 Y137.750 E37.34684
G1 X133.519 Y138.250 E37.37333
G1 X132.747 Y138.750 E37.40086
G1 X133.707 Y139.250 E37.42897
G1 X132.934 Y139.500 E37.45582
G1 F2100 E36.85582
G0 F12000 X137.701 Y131.500
G1 F2100 E37.45582
G1 F1320 X140.478 Y131.500 E37.54758
;LAYER:2
G0 F12000 X140.496 Y131.325 Z0.500
;TYPE:WALL-INNER
G1 F1500 X141.512 Y131.572 E37.58212
G1 X142.619 Y132.198 E37.62415
G1 X143.480 Y132.773 E37.65836
G1 X144.300 Y133.735 E37.70012
G1 X144.913 Y134.562 E37.73414
G1 X145.357 Y135.752 E37.77611
G1 X145.638 Y136.699 E37.80875
G1 X145.669 Y137.706 E37.84204
G1 X145.597 Y139.055 E37.88667
G1 X145.175 Y140.248 E37.92849
G1 X144.755 Y141.206 E37.96305
G1 X143.953 Y142.178 E38.00469
G1 X143.229 Y142.939 E38.03940
G1 X142.151 Y143.571 E38.08069
G1 X141.212 Y144.039 E38.11535
G1 X139.968 Y144.267 E38.15714
G1 X138.932 Y144.384 E38.19159
G1 X137.687 Y144.174 E38.23331
G1 X136.671 Y143.927 E38.26786
G1 X135.564 Y143.301 E38.30988
G1 X134.702 Y142.726 E38.34412
G1 X133.879 Y141.759 E38.38608
G1 X133.270 Y140.937 E38.41988
G1 X132.825 Y139.744 E38.46196
G1 X132.545 Y138.800 E38.49449
G1 X132.515 Y137.806 E38.52735
G1 X132.541 Y137.158 E38.54878
G1 X132.624 Y136.338 E38.57601
G1 X133.009 Y135.248 E38.61421
G1 X133.429 Y134.290 E38.64877
G1 X134.238 Y133.312 E38.69071
G1 X134.950 Y132.563 E38.72486
G1 X136.032 Y131.928 E38.76631
G1 X136.970 Y131.461 E38.80093
G1 X138.217 Y131.231 E38.84283
G1 X139.252 Y131.115 E38.87725
G1 X140.496 Y131.325 E38.91893
G0 F12000 X140.229 Y132.445
G1 F1500 X139.746 Y132.363 E38.93512
G1 X139.218 Y132.325 E38.95261
G1 X138.661 Y132.341 E38.97103
G1 X138.141 Y132.408 E38.98835
G1 X137.628 Y132.525 E39.00574
G1 X137.131 Y132.691 E39.02305
G1 X136.652 Y132.903 E39.04036
G1 X136.196 Y133.162 E39.05769
G1 X135.768 Y133.461 E39.07494
G1 X135.358 Y133.811 E39.09275
G1 X134.891 Y134.320 E39.11557
G1 X134.444 Y134.947 E39.14102
G1 X134.181 Y135.439 E39.15945
G1 X133.912 Y136.138 E39.18420
G1 X133.733 Y136.892 E39.20981
G1 X133.675 Y137.429 E39.22765
G1 X133.668 Y137.956 E39.24507
G1 X133.727 Y138.569 E39.26542
G1 X133.833 Y139.087 E39.28289
G1 X133.987 Y139.587 E39.30018
G1 X134.188 Y140.072 E39.31752
G1 X134.435 Y140.534 E39.33483
G1 X134.727 Y140.971 E39.35220
G1 X135.057 Y141.375 E39.36944
G1 X135.425 Y141.748 E39.38675
G1 X135.830 Y142.084 E39.40414
G1 X136.262 Y142.378 E39.42140
G1 X136.722 Y142.630 E39.43873
G1 X137.230 Y142.846 E39.45697
G1 X138.148 Y143.095 E39.48840
G1 X138.699 Y143.162 E39.50674
G1 X139.227 Y143.174 E39.52420
G1 X139.780 Y143.131 E39.54252
G1 X140.267 Y143.047 E39.55885
G1 X140.805 Y142.898 E39.57730
G1 X141.295 Y142.707 E39.59468
G1 X141.759 Y142.473 E39.61185
G1 X142.176 Y142.214 E39.62807
G1 X142.619 Y141.872 E39.64656
G1 X142.998 Y141.514 E39.66379
G1 X143.323 Y141.147 E39.67998
G1 X143.634 Y140.718 E39.69749
G1 X143.912 Y140.237 E39.71585
G1 X144.130 Y139.760 E39.73318
G1 X144.304 Y139.253 E39.75089
G1 X144.449 Y138.602 E39.77293
G1 X144.517 Y137.842 E39.79814
G1 X144.511 Y137.549 E39.80782
G1 X144.471 Y137.051 E39.82433
G1 X144.376 Y136.523 E39.84206
G1 X144.148 Y135.778 E39.86780
G1 X143.818 Y135.084 E39.89320
G1 X143.384 Y134.429 E39.91916
G1 X142.954 Y133.940 E39.94067
G1 X142.588 Y133.599 E39.95720
G1 X142.141 Y133.263 E39.97568
G1 X141.694 Y132.990 E39.99299
G1 X141.227 Y132.763 E40.01014
G1 X140.766 Y132.588 E40.02644
G1 X140.229 Y132.445 E40.04480
G0 F12000 X140.123 Y132.934
G1 F1500 X139.685 Y132.860 E40.05948
G1 X139.208 Y132.825 E40.07528
G1 X138.700 Y132.840 E40.09207
G1 X138.229 Y132.901 E40.10777
G1 X137.763 Y133.007 E40.12356
G1 X137.312 Y133.158 E40.13927
G1 X136.877 Y133.350 E40.15499
G1 X136.463 Y133.585 E40.17072
G1 X136.074 Y133.857 E40.18640
G1 X135.706 Y134.172 E40.20241
G1 X135.280 Y134.635 E40.22319
G1 X134.870 Y135.211 E40.24656
G1 X134.637 Y135.647 E40.26289
G1 X134.391 Y136.287 E40.28555
G1 X134.226 Y136.977 E40.30899
G1 X134.175 Y137.459 E40.32500
G1 X134.169 Y137.935 E40.34073
G1 X134.222 Y138.494 E40.35929
G1 X134.318 Y138.964 E40.37514
G1 X134.458 Y139.417 E40.39080
G1 X134.640 Y139.858 E40.40657
G1 X134.865 Y140.277 E40.42228
G1 X135.129 Y140.673 E40.43801
G1 X135.429 Y141.041 E40.45370
G1 X135.763 Y141.379 E40.46940
G1 X136.131 Y141.684 E40.48519
G1 X136.523 Y141.951 E40.50086
G1 X136.941 Y142.180 E40.51661
G1 X137.394 Y142.372 E40.53287
G1 X138.245 Y142.603 E40.56201
G1 X138.735 Y142.663 E40.57832
G1 X139.213 Y142.674 E40.59412
G1 X139.718 Y142.634 E40.61086
G1 X140.157 Y142.559 E40.62557
G1 X140.647 Y142.423 E40.64237
G1 X141.091 Y142.250 E40.65812
G1 X141.514 Y142.037 E40.67377
G1 X141.891 Y141.803 E40.68843
G1 X142.294 Y141.492 E40.70525
G1 X142.638 Y141.166 E40.72091
G1 X142.933 Y140.834 E40.73559
G1 X143.214 Y140.446 E40.75141
G1 X143.467 Y140.007 E40.76816
G1 X143.665 Y139.574 E40.78389
G1 X143.822 Y139.118 E40.79982
G1 X143.954 Y138.525 E40.81990
G1 X144.017 Y137.825 E40.84312
G1 X144.011 Y137.574 E40.85142
G1 X143.975 Y137.116 E40.86660
G1 X143.889 Y136.640 E40.88258
G1 X143.681 Y135.959 E40.90611
G1 X143.381 Y135.331 E40.92911
G1 X142.986 Y134.733 E40.95279
G1 X142.595 Y134.289 E40.97234
G1 X142.266 Y133.983 E40.98718
G1 X141.859 Y133.677 E41.00401
G1 X141.454 Y133.429 E41.01970
G1 X141.029 Y133.223 E41.03530
G1 X140.612 Y133.064 E41.05005
G1 X140.123 Y132.934 E41.06677
G1 F2100 E40.46677
G0 F12000 X140.603 Y130.836
G1 F2100 E41.06677
G1 F1500 X141.659 Y131.093 E41.10268
G1 X141.662 Y131.082 E41.10306
G1 X142.876 Y131.769 E41.14915
G1 X143.782 Y132.373 E41.18513
G1 X143.789 Y132.363 E41.18553
G1 X144.685 Y133.416 E41.23122
G1 X145.340 Y134.299 E41.26754
G1 X145.837 Y135.609 E41.31384
G1 X146.135 Y136.622 E41.34873
G1 X146.168 Y137.706 E41.38457
G1 X146.093 Y139.124 E41.43149
G1 X145.642 Y140.430 E41.47714
G1 X145.201 Y141.435 E41.51340
G1 X145.211 Y141.440 E41.51377
G1 X144.334 Y142.503 E41.55931
G1 X143.572 Y143.303 E41.59582
G1 X143.580 Y143.311 E41.59619
G1 X142.380 Y144.015 E41.64216
G1 X141.403 Y144.503 E41.67825
G1 X140.030 Y144.764 E41.72443
G1 X138.956 Y144.884 E41.76013
G1 X138.957 Y144.895 E41.76050
G1 X137.580 Y144.663 E41.80664
G1 X136.524 Y144.406 E41.84255
G1 X136.521 Y144.417 E41.84293
G1 X135.307 Y143.730 E41.88902
G1 X134.400 Y143.125 E41.92504
G1 X134.393 Y143.135 E41.92545
G1 X133.493 Y142.077 E41.97134
G1 X132.843 Y141.200 E42.00741
G1 X132.346 Y139.890 E42.05371
G1 X132.048 Y138.877 E42.08860
G1 X132.015 Y137.787 E42.12463
G1 X132.042 Y137.123 E42.14659
G1 X132.117 Y136.378 E42.17133
G1 X132.080 Y136.375 E42.17256
G1 X132.541 Y135.069 E42.21832
G1 X132.982 Y134.064 E42.25459
G1 X132.971 Y134.059 E42.25499
G1 X133.856 Y132.990 E42.30084
G1 X134.609 Y132.196 E42.33700
G1 X134.601 Y132.188 E42.33737
G1 X135.803 Y131.484 E42.38340
G1 X136.780 Y130.996 E42.41949
G1 X138.156 Y130.735 E42.46576
G1 X139.229 Y130.615 E42.50144
G1 X139.228 Y130.604 E42.50181
G1 X140.603 Y130.836 E42.54788
G1 F2100 E41.94788
G0 F12000 X142.015 Y129.775
G1 F2100 E42.54788
G1 F1500 X142.081 Y129.632 E42.55309
G1 X142.137 Y129.550 E42.55637
G1 X142.300 Y129.608 E42.56208
G1 X142.235 Y129.868 E42.57094
G1 X141.708 Y130.911 E42.60955
G1 X142.015 Y129.775 E42.64843
G1 F2100 E42.04843
G0 F12000 X139.335 Y129.051
G1 F2100 E42.64843
G1 F1500 X139.354 Y129.222 E42.65412
G1 X139.213 Y130.425 E42.69414
G1 X139.110 Y129.246 E42.73325
G1 X139.120 Y129.123 E42.73732
G1 X139.150 Y129.001 E42.74148
G1 X139.325 Y129.006 E42.74726
G1 X139.335 Y129.051 E42.74878
G1 F2100 E42.14878
G0 F12000 X136.406 Y129.615
G1 F2100 E42.74878
G1 F1500 X136.703 Y130.830 E42.79011
G1 X136.199 Y129.747 E42.82958
G1 X136.165 Y129.620 E42.83393
G1 X136.153 Y129.511 E42.83755
G1 X136.316 Y129.451 E42.84329
G1 X136.406 Y129.615 E42.84947
G1 F2100 E42.24947
G0 F12000 X133.823 Y131.063
G1 F2100 E42.84947
G1 F1500 X134.476 Y132.062 E42.88891
G1 X133.625 Y131.206 E42.92879
G1 X133.514 Y131.014 E42.93612
G1 X133.646 Y130.900 E42.94188
G1 X133.823 Y131.063 E42.94983
G1 F2100 E42.34983
G0 F12000 X131.857 Y133.270
G1 F2100 E42.94983
G1 F1500 X132.804 Y133.981 E42.98896
G1 X131.733 Y133.480 E43.02803
G1 X131.688 Y133.452 E43.02978
G1 X131.622 Y133.400 E43.03256
G1 X131.544 Y133.325 E43.03613
G1 X131.635 Y133.176 E43.04190
G1 X131.857 Y133.270 E43.04987
G1 F2100 E42.44987
G0 F12000 X130.785 Y136.023
G1 F2100 E43.04987
G1 F1500 X131.898 Y136.359 E43.08828
G1 X130.717 Y136.254 E43.12746
G1 X130.490 Y136.168 E43.13548
G1 X130.518 Y136.002 E43.14104
G1 X130.560 Y136.000 E43.14243
G1 X130.785 Y136.023 E43.14991
G1 F2100 E42.54991
G0 F12000 X130.659 Y138.970
G1 F2100 E43.14991
G1 F1500 X131.862 Y138.902 E43.18972
G1 X130.710 Y139.208 E43.22911
G1 X130.592 Y139.220 E43.23303
G1 X130.467 Y139.206 E43.23718
G1 X130.437 Y139.043 E43.24266
G1 X130.659 Y138.970 E43.25038
G1 F2100 E42.65038
G0 F12000 X131.590 Y141.778
G1 F2100 E43.25038
G1 F1500 X132.689 Y141.308 E43.28987
G1 X131.729 Y141.977 E43.32854
G1 X131.489 Y142.074 E43.33709
G1 X131.401 Y141.924 E43.34284
G1 X131.590 Y141.778 E43.35073
G1 F2100 E42.75073
G0 F12000 X133.414 Y144.107
G1 F2100 E43.35073
G1 F1500 X134.286 Y143.288 E43.39026
G1 X133.610 Y144.255 E43.42924
G1 X133.426 Y144.412 E43.43724
G1 X133.292 Y144.302 E43.44296
G1 X133.414 Y144.107 E43.45057
G1 F2100 E42.85057
G0 F12000 X135.948 Y145.631
G1 F2100 E43.45057
G1 F1500 X136.475 Y144.588 E43.48918
G1 X136.168 Y145.722 E43.52800
G1 X136.046 Y145.948 E43.53648
G1 X135.883 Y145.891 E43.54219
G1 X135.948 Y145.631 E43.55104
G1 F2100 E42.95104
G0 F12000 X138.830 Y146.261
G1 F2100 E43.55104
G1 F1500 X138.971 Y145.066 E43.59080
G1 X139.073 Y146.253 E43.63017
G1 X139.065 Y146.366 E43.63391
G1 X139.026 Y146.498 E43.63846
G1 X138.860 Y146.493 E43.64395
G1 X138.829 Y146.282 E43.65100
G1 X138.830 Y146.261 E43.65169
G1 F2100 E43.05169
G0 F12000 X141.772 Y145.864
G1 F2100 E43.65169
G1 F1500 X141.483 Y144.674 E43.69215
G1 X141.983 Y145.749 E43.73133
G1 X142.017 Y145.874 E43.73561
G1 X142.030 Y145.988 E43.73940
G1 X141.875 Y146.046 E43.74487
G1 X141.772 Y145.864 E43.75178
G1 F2100 E43.15178
G0 F12000 X144.396 Y144.473
G1 F2100 E43.75178
G1 F1500 X143.708 Y143.439 E43.79282
G1 X144.546 Y144.279 E43.83202
G1 X144.664 Y144.490 E43.84001
G1 X144.538 Y144.598 E43.84549
G1 X144.396 Y144.473 E43.85175
G1 F2100 E43.25175
G0 F12000 X146.331 Y142.231
G1 F2100 E43.85175
G1 F1500 X145.377 Y141.517 E43.89112
G1 X146.451 Y142.019 E43.93029
G1 X146.475 Y142.034 E43.93123
G1 X146.637 Y142.180 E43.93843
G1 X146.549 Y142.323 E43.94398
G1 X146.331 Y142.231 E43.95180
G1 F2100 E43.35180
G0 F12000 X147.398 Y139.476
G1 F2100 E43.95180
G1 F1500 X146.288 Y139.141 E43.99011
G1 X147.466 Y139.245 E44.02919
G1 X147.693 Y139.331 E44.03721
G1 X147.666 Y139.497 E44.04276
G1 X147.623 Y139.499 E44.04419
G1 X147.398 Y139.476 E44.05166
G1 F2100 E43.45166
G0 F12000 X147.537 Y136.527
G1 F2100 E44.05166
G1 F1500 X146.321 Y136.597 E44.09191
G1 X147.473 Y136.291 E44.13129
G1 X147.591 Y136.279 E44.13521
G1 X147.716 Y136.293 E44.13937
G1 X147.747 Y136.457 E44.14488
G1 X147.537 Y136.527 E44.15220
G1 F2100 E43.55220
G0 F12000 X146.597 Y133.719
G1 F2100 E44.15220
G1 F1500 X145.494 Y134.191 E44.19184
G1 X146.454 Y133.522 E44.23050
G1 X146.694 Y133.425 E44.23906
G1 X146.781 Y133.572 E44.24470
G1 X146.597 Y133.719 E44.25248
G1 F2100 E43.65248
G0 F12000 X144.764 Y131.397
G1 F2100 E44.25248
G1 F1500 X143.893 Y132.215 E44.29196
G1 X144.577 Y131.242 E44.33126
G1 X144.763 Y131.091 E44.33918
G1 X144.888 Y131.194 E44.34453
G1 X144.858 Y131.260 E44.34693
G1 X144.764 Y131.397 E44.35242
G0 F12000 X145.236 Y130.834
;TYPE:WALL-OUTER
G1 F1500 X145.495 Y131.074 E44.36408
G1 X145.295 Y131.505 E44.37978
G1 X145.120 Y131.749 E44.38971
G1 X144.454 Y132.374 E44.41988
G1 X145.079 Y133.107 E44.45171
G1 X145.453 Y133.611 E44.47245
G1 X146.205 Y133.086 E44.50276
G1 X146.426 Y132.983 E44.51081
G1 X146.714 Y132.900 E44.52072
G1 X146.941 Y132.862 E44.52832
G1 X147.226 Y133.342 E44.54677
G1 X147.392 Y133.667 E44.55883
G1 X147.060 Y134.000 E44.57436
G1 X146.816 Y134.170 E44.58419
G1 X145.969 Y134.532 E44.61463
G1 X146.306 Y135.434 E44.64644
G1 X146.484 Y136.036 E44.66718
G1 X147.374 Y135.800 E44.69761
G1 X147.491 Y135.783 E44.70152
G1 X147.613 Y135.779 E44.70555
G1 X148.140 Y135.837 E44.72307
G1 X148.244 Y136.401 E44.74202
G1 X148.288 Y136.755 E44.75380
G1 X148.105 Y136.851 E44.76063
G1 X147.840 Y136.959 E44.77009
G1 X147.652 Y137.014 E44.77656
G1 X147.575 Y137.027 E44.77914
G1 X146.650 Y137.079 E44.80975
G1 X146.669 Y137.698 E44.83022
G1 X146.653 Y138.217 E44.84737
G1 X146.624 Y138.669 E44.86234
G1 X147.545 Y138.750 E44.89289
G1 X147.641 Y138.771 E44.89614
G1 X148.055 Y138.939 E44.91090
G1 X148.247 Y139.051 E44.91824
G1 X148.156 Y139.597 E44.93653
G1 X148.073 Y139.960 E44.94884
G1 X147.610 Y140.000 E44.96419
G1 X147.295 Y139.968 E44.97466
G1 X146.428 Y139.706 E45.00458
G1 X146.105 Y140.619 E45.03658
G1 X145.855 Y141.189 E45.05715
G1 X146.691 Y141.580 E45.08765
G1 X146.775 Y141.632 E45.09091
G1 X147.108 Y141.932 E45.10572
G1 X147.252 Y142.106 E45.11318
G1 X146.826 Y142.826 E45.14083
G1 X146.781 Y142.894 E45.14352
G1 X146.324 Y142.777 E45.15911
G1 X146.052 Y142.647 E45.16907
G1 X145.317 Y142.097 E45.19940
G1 X144.705 Y142.839 E45.23118
G1 X144.271 Y143.295 E45.25198
G1 X144.922 Y143.948 E45.28245
G1 X144.987 Y144.033 E45.28599
G1 X145.194 Y144.423 E45.30058
G1 X145.268 Y144.631 E45.30787
G1 X144.835 Y145.002 E45.32671
G1 X144.557 Y145.212 E45.33822
G1 X144.368 Y145.100 E45.34548
G1 X144.156 Y144.936 E45.35434
G1 X144.014 Y144.799 E45.36086
G1 X143.455 Y143.965 E45.39403
G1 X142.624 Y144.452 E45.42586
G1 X142.062 Y144.733 E45.44662
G1 X142.452 Y145.573 E45.47722
G1 X142.484 Y145.672 E45.48066
G1 X142.512 Y145.796 E45.48486
G1 X142.544 Y146.073 E45.49408
G1 X142.548 Y146.327 E45.50247
G1 X142.015 Y146.527 E45.52128
G1 X141.677 Y146.630 E45.53296
G1 X141.526 Y146.444 E45.54087
G1 X141.304 Y146.052 E45.55576
G1 X141.066 Y145.082 E45.58876
G1 X140.103 Y145.259 E45.62111
G1 X139.495 Y145.327 E45.64133
G1 X139.574 Y146.244 E45.67174
G1 X139.570 Y146.356 E45.67544
G1 X139.554 Y146.473 E45.67935
G1 X139.402 Y146.995 E45.69731
G1 X139.136 Y147.001 E45.70610
G1 X138.554 Y146.986 E45.72534
G1 X138.482 Y146.982 E45.72772
G1 X138.353 Y146.520 E45.74357
G1 X138.329 Y146.308 E45.75062
G1 X138.330 Y146.225 E45.75336
G1 X138.438 Y145.315 E45.78364
G1 X137.477 Y145.153 E45.81584
G1 X136.879 Y145.007 E45.83618
G1 X136.641 Y145.890 E45.86640
G1 X136.536 Y146.118 E45.87470
G1 X136.369 Y146.365 E45.88455
G1 X136.220 Y146.539 E45.89212
G1 X135.683 Y146.350 E45.91093
G1 X135.356 Y146.212 E45.92266
G1 X135.366 Y145.976 E45.93046
G1 X135.402 Y145.719 E45.93904
G1 X135.480 Y145.448 E45.94835
G1 X135.891 Y144.635 E45.97846
G1 X135.045 Y144.156 E46.01058
G1 X134.529 Y143.812 E46.03107
G1 X134.000 Y144.568 E46.06156
G1 X133.833 Y144.733 E46.06932
G1 X133.582 Y144.917 E46.07960
G1 X133.387 Y145.027 E46.08700
G1 X132.947 Y144.666 E46.10580
G1 X132.687 Y144.424 E46.11754
G1 X132.896 Y143.980 E46.13375
G1 X133.063 Y143.750 E46.14315
G1 X133.729 Y143.125 E46.17333
G1 X133.103 Y142.391 E46.20520
G1 X132.730 Y141.888 E46.22589
G1 X131.978 Y142.413 E46.25620
G1 X131.757 Y142.516 E46.26425
G1 X131.469 Y142.599 E46.27416
G1 X131.241 Y142.637 E46.28180
G1 X130.952 Y142.148 E46.30056
G1 X130.794 Y141.838 E46.31206
G1 X130.956 Y141.653 E46.32019
G1 X131.139 Y141.487 E46.32835
G1 X131.313 Y141.360 E46.33547
G1 X131.369 Y141.329 E46.33758
G1 X132.214 Y140.967 E46.36796
G1 X131.877 Y140.065 E46.39977
G1 X131.699 Y139.463 E46.42052
G1 X130.809 Y139.699 E46.45094
G1 X130.692 Y139.716 E46.45485
G1 X130.570 Y139.720 E46.45888
G1 X130.044 Y139.662 E46.47637
G1 X129.939 Y139.098 E46.49532
G1 X129.895 Y138.744 E46.50711
G1 X130.345 Y138.540 E46.52344
G1 X130.608 Y138.472 E46.53241
G1 X131.533 Y138.420 E46.56303
G1 X131.514 Y137.793 E46.58375
G1 X131.543 Y137.093 E46.60690
G1 X131.569 Y136.831 E46.61560
G1 X130.638 Y136.749 E46.64648
G1 X130.543 Y136.728 E46.64970
G1 X130.125 Y136.559 E46.66460
G1 X129.936 Y136.448 E46.67184
G1 X130.027 Y135.902 E46.69013
G1 X130.110 Y135.540 E46.70240
G1 X130.318 Y135.511 E46.70934
G1 X130.573 Y135.499 E46.71777
G1 X130.888 Y135.531 E46.72824
G1 X131.755 Y135.793 E46.75816
G1 X132.078 Y134.880 E46.79016
G1 X132.328 Y134.310 E46.81073
G1 X131.493 Y133.920 E46.84118
G1 X131.294 Y133.779 E46.84924
G1 X130.929 Y133.398 E46.86667
G1 X131.053 Y133.168 E46.87531
G1 X131.361 Y132.667 E46.89474
G1 X131.402 Y132.605 E46.89720
G1 X131.638 Y132.654 E46.90516
G1 X131.862 Y132.723 E46.91291
G1 X132.129 Y132.850 E46.92268
G1 X132.866 Y133.402 E46.95310
G1 X133.491 Y132.646 E46.98551
G1 X133.912 Y132.204 E47.00568
G1 X133.255 Y131.544 E47.03645
G1 X133.190 Y131.459 E47.03999
G1 X133.120 Y131.347 E47.04435
G1 X132.991 Y131.081 E47.05412
G1 X132.915 Y130.868 E47.06159
G1 X133.348 Y130.497 E47.08044
G1 X133.626 Y130.286 E47.09197
G1 X133.809 Y130.394 E47.09899
G1 X134.176 Y130.706 E47.11491
G1 X134.226 Y130.766 E47.11749
G1 X134.728 Y131.534 E47.14780
G1 X135.559 Y131.047 E47.17963
G1 X136.121 Y130.766 E47.20039
G1 X135.731 Y129.926 E47.23099
G1 X135.698 Y129.823 E47.23457
G1 X135.671 Y129.703 E47.23863
G1 X135.640 Y129.427 E47.24781
G1 X135.635 Y129.172 E47.25623
G1 X136.168 Y128.972 E47.27505
G1 X136.506 Y128.869 E47.28672
G1 X136.659 Y129.058 E47.29476
G1 X136.792 Y129.269 E47.30300
G1 X136.877 Y129.439 E47.30928
G1 X137.119 Y130.417 E47.34257
G1 X138.080 Y130.240 E47.37486
G1 X138.689 Y130.172 E47.39510
G1 X138.609 Y129.255 E47.42552
G1 X138.629 Y129.025 E47.43315
G1 X138.708 Y128.710 E47.44388
G1 X138.784 Y128.505 E47.45110
G1 X139.047 Y128.498 E47.45980
G1 X139.629 Y128.513 E47.47903
G1 X139.701 Y128.517 E47.48142
G1 X139.829 Y128.970 E47.49697
G1 X139.854 Y129.198 E47.50455
G1 X139.853 Y129.274 E47.50706
G1 X139.745 Y130.184 E47.53734
G1 X140.706 Y130.346 E47.56954
G1 X141.304 Y130.492 E47.58988
G1 X141.542 Y129.609 E47.62010
G1 X141.647 Y129.382 E47.62836
G1 X141.816 Y129.131 E47.63836
G1 X141.963 Y128.960 E47.64581
G1 X142.501 Y129.149 E47.66466
G1 X142.827 Y129.286 E47.67634
G1 X142.817 Y129.521 E47.68411
G1 X142.781 Y129.780 E47.69275
G1 X142.703 Y130.051 E47.70207
G1 X142.292 Y130.864 E47.73217
G1 X143.138 Y131.343 E47.76429
G1 X143.653 Y131.686 E47.78474
G1 X144.187 Y130.928 E47.81538
G1 X144.254 Y130.853 E47.81870
G1 X144.603 Y130.582 E47.83330
G1 X144.796 Y130.472 E47.84064
G1 X145.236 Y130.834 E47.85947
G1 F2100 E47.25947
G0 F12000 X141.945 Y134.367
G1 F2100 E47.85947
G1 F1500 X141.578 Y134.091 E47.87464
G1 X141.214 Y133.868 E47.88875
G1 X140.830 Y133.682 E47.90284
G1 X140.459 Y133.541 E47.91596
G1 X140.016 Y133.423 E47.93111
G1 X139.625 Y133.357 E47.94421
G1 X139.197 Y133.326 E47.95839
G1 X138.739 Y133.339 E47.97353
G1 X138.316 Y133.394 E47.98762
G1 X137.898 Y133.489 E48.00179
G1 X137.493 Y133.625 E48.01590
G1 X137.102 Y133.797 E48.03002
G1 X136.730 Y134.008 E48.04415
G1 X136.381 Y134.253 E48.05824
G1 X136.053 Y134.533 E48.07249
G1 X135.669 Y134.950 E48.09122
G1 X135.296 Y135.475 E48.11250
G1 X135.092 Y135.856 E48.12678
G1 X134.870 Y136.435 E48.14727
G1 X134.720 Y137.062 E48.16857
G1 X134.674 Y137.489 E48.18276
G1 X134.669 Y137.914 E48.19681
G1 X134.717 Y138.420 E48.21360
G1 X134.803 Y138.840 E48.22777
G1 X134.929 Y139.248 E48.24188
G1 X135.093 Y139.643 E48.25601
G1 X135.294 Y140.020 E48.27013
G1 X135.532 Y140.376 E48.28428
G1 X135.802 Y140.706 E48.29836
G1 X136.102 Y141.010 E48.31248
G1 X136.432 Y141.284 E48.32665
G1 X136.784 Y141.524 E48.34073
G1 X137.160 Y141.729 E48.35488
G1 X137.558 Y141.899 E48.36918
G1 X138.341 Y142.111 E48.39598
G1 X138.771 Y142.164 E48.41030
G1 X139.199 Y142.173 E48.42444
G1 X139.656 Y142.137 E48.43959
G1 X140.048 Y142.070 E48.45273
G1 X140.489 Y141.948 E48.46785
G1 X140.888 Y141.793 E48.48199
G1 X141.269 Y141.600 E48.49611
G1 X141.606 Y141.392 E48.50919
G1 X141.969 Y141.111 E48.52436
G1 X142.279 Y140.818 E48.53845
G1 X142.542 Y140.521 E48.55156
G1 X142.794 Y140.173 E48.56576
G1 X143.022 Y139.778 E48.58083
G1 X143.200 Y139.389 E48.59497
G1 X143.340 Y138.982 E48.60919
G1 X143.459 Y138.448 E48.62726
G1 X143.516 Y137.808 E48.64850
G1 X143.512 Y137.599 E48.65540
G1 X143.478 Y137.180 E48.66929
G1 X143.402 Y136.758 E48.68346
G1 X143.214 Y136.141 E48.70477
G1 X142.945 Y135.578 E48.72539
G1 X142.588 Y135.038 E48.74678
G1 X142.236 Y134.638 E48.76439
G1 X141.945 Y134.367 E48.77753
G0 F12000 X142.500 Y133.314
;TYPE:SKIN
G1 F1500 X142.250 Y132.191 E48.80991
G1 X141.750 Y132.835 E48.84036
G1 X141.250 Y131.698 E48.87114
G1 X140.750 Y132.412 E48.89954
G1 X140.250 Y131.463 E48.92690
G1 X140.000 Y132.228 E48.95349
G1 F2100 E48.35349
G0 F12000 X143.000 Y132.664
G1 F2100 E48.95349
G1 F1500 X143.000 Y133.743 E48.98915
G0 F12000 X143.500 Y134.295
G1 F1500 X143.500 Y133.066 E49.02975
G0 F12000 X144.000 Y133.652
G1 F1500 X144.000 Y135.060 E49.07628
G0 F12000 X144.500 Y134.299
G1 F1500 X144.500 Y136.332 E49.14345
G0 F12000 X145.000 Y135.295
G1 F1500 X145.000 Y140.213 E49.30596
G0 F12000 X144.000 Y140.433
G1 F1500 X144.000 Y141.846 E49.35265
G0 F12000 X143.500 Y142.400
G1 F1500 X143.500 Y141.200 E49.39230
G0 F12000 X143.000 Y141.753
G1 F1500 X143.000 Y142.870 E49.42921
G0 F12000 X142.500 Y143.164
G1 F1500 X142.250 Y142.357 E49.46153
G1 X141.750 Y143.575 E49.49199
G1 X141.250 Y142.904 E49.52174
G1 X140.750 Y143.946 E49.55114
G1 X140.250 Y143.217 E49.57848
G1 X140.000 Y144.084 E49.60830
G1 F2100 E49.00830
G0 F12000 X144.500 Y141.240
G1 F2100 E49.60830
G1 F1500 X144.500 Y139.180 E49.67637
G1 F2100 E49.07637
G0 F12000 X139.500 Y143.327
G1 F2100 E49.67637
G1 F1500 X139.250 Y144.173 E49.70336
G1 X138.750 Y143.329 E49.73169
G1 X138.250 Y144.091 E49.75867
G1 X137.750 Y143.169 E49.78549
G1 X137.250 Y143.887 E49.81348
G1 X136.750 Y142.823 E49.84277
G1 X136.250 Y143.486 E49.87317
G1 X136.000 Y142.411 E49.90964
G0 F12000 X135.500 Y142.037
G1 F1500 X135.500 Y143.047 E49.94301
G0 F12000 X135.000 Y142.714
G1 F1500 X135.000 Y141.566 E49.98095
G0 F12000 X134.500 Y140.946
G1 F1500 X134.500 Y142.219 E50.02301
G0 F12000 X134.000 Y141.627
G1 F1500 X134.000 Y140.076 E50.07426
G0 F12000 X133.500 Y140.953
G1 F1500 X133.500 Y138.033 E50.17074
G0 F12000 X133.500 Y137.422
G1 F1500 X133.500 Y134.564 E50.26518
G0 F12000 X134.000 Y133.874
G1 F1500 X134.000 Y135.422 E50.31633
G0 F12000 X134.500 Y134.567
G1 F1500 X134.500 Y133.289 E50.35856
G0 F12000 X135.000 Y132.764
G1 F1500 X135.000 Y133.942 E50.39748
G0 F12000 X135.500 Y133.461
G1 F1500 X135.500 Y132.444 E50.43108
G0 F12000 X136.000 Y132.150
G1 F1500 X136.250 Y132.936 E50.46199
G1 X136.750 Y131.765 E50.49161
G1 X137.250 Y132.471 E50.52191
G1 X137.750 Y131.495 E50.54974
G1 X138.250 Y132.223 E50.57653
G1 X138.750 Y131.346 E50.60328
G1 X139.250 Y132.163 E50.63101
G1 X139.500 Y131.335 E50.65958
G1 F2100 E50.05958
G0 F12000 X133.000 Y135.798
G1 F2100 E50.65958
G1 F1500 X133.000 Y139.712 E50.78891
;LAYER:3
G0 F12000 X132.826 Y139.747 Z0.650
;TYPE:WALL-INNER
G1 F1620 X132.545 Y138.797 E50.82165
G1 X132.515 Y137.801 E50.85457
G1 X132.539 Y137.187 E50.87488
G1 X132.706 Y136.103 E50.91112
G1 X133.011 Y135.241 E50.94133
G1 X133.428 Y134.291 E50.97561
G1 X134.235 Y133.315 E51.01746
G1 X134.949 Y132.564 E51.05170
G1 X136.050 Y131.918 E51.09388
G1 X136.971 Y131.461 E51.12785
G1 X138.218 Y131.231 E51.16975
G1 X139.202 Y131.121 E51.20247
G1 X140.191 Y131.265 E51.23549
G1 X140.789 Y131.396 E51.25572
G1 X141.686 Y131.671 E51.28672
G1 X142.617 Y132.197 E51.32205
G1 X143.483 Y132.775 E51.35645
G1 X144.294 Y133.727 E51.39778
G1 X144.914 Y134.564 E51.43220
G1 X145.357 Y135.752 E51.47409
G1 X145.638 Y136.702 E51.50683
G1 X145.669 Y137.707 E51.54005
G1 X145.652 Y138.210 E51.55668
G1 X145.593 Y139.066 E51.58503
G1 X145.175 Y140.251 E51.62655
G1 X144.754 Y141.208 E51.66110
G1 X143.961 Y142.170 E51.70229
G1 X143.231 Y142.936 E51.73725
G1 X142.136 Y143.579 E51.77921
G1 X141.212 Y144.038 E51.81330
G1 X139.967 Y144.268 E51.85514
G1 X138.982 Y144.378 E51.88789
G1 X137.991 Y144.234 E51.92098
G1 X137.394 Y144.103 E51.94117
G1 X136.492 Y143.827 E51.97234
G1 X135.573 Y143.306 E52.00725
G1 X134.702 Y142.725 E52.04184
G1 X133.889 Y141.772 E52.08323
G1 X133.269 Y140.935 E52.11765
G1 X132.826 Y139.747 E52.15955
G0 F12000 X133.842 Y139.124
G1 F1620 X134.159 Y140.017 E52.19086
G1 X134.443 Y140.545 E52.21067
G1 X134.735 Y140.982 E52.22803
G1 X135.066 Y141.386 E52.24529
G1 X135.431 Y141.753 E52.26239
G1 X135.802 Y142.066 E52.27843
G1 X136.275 Y142.386 E52.29730
G1 X136.736 Y142.636 E52.31463
G1 X137.218 Y142.840 E52.33193
G1 X137.742 Y143.004 E52.35007
G1 X138.670 Y143.162 E52.38117
G1 X139.229 Y143.174 E52.39965
G1 X139.796 Y143.128 E52.41844
G1 X140.314 Y143.036 E52.43583
G1 X140.819 Y142.892 E52.45318
G1 X141.307 Y142.701 E52.47050
G1 X141.775 Y142.465 E52.48781
G1 X142.212 Y142.187 E52.50493
G1 X142.592 Y141.897 E52.52072
G1 X142.979 Y141.536 E52.53821
G1 X143.354 Y141.106 E52.55706
G1 X143.659 Y140.677 E52.57446
G1 X143.916 Y140.228 E52.59155
G1 X144.117 Y139.796 E52.60729
G1 X144.291 Y139.302 E52.62460
G1 X144.421 Y138.776 E52.64250
G1 X144.504 Y138.064 E52.66619
G1 X144.516 Y137.834 E52.67380
G1 X144.509 Y137.483 E52.68540
G1 X144.437 Y136.815 E52.70760
G1 X144.320 Y136.295 E52.72521
G1 X144.156 Y135.802 E52.74238
G1 X143.947 Y135.328 E52.75950
G1 X143.691 Y134.869 E52.77686
G1 X143.327 Y134.356 E52.79765
G1 X142.970 Y133.954 E52.81541
G1 X142.548 Y133.569 E52.83429
G1 X142.134 Y133.260 E52.85136
G1 X141.726 Y133.005 E52.86725
G1 X141.187 Y132.745 E52.88703
G1 X140.292 Y132.456 E52.91810
G1 X139.745 Y132.363 E52.93644
G1 X139.217 Y132.325 E52.95393
G1 X138.647 Y132.343 E52.97277
G1 X138.127 Y132.410 E52.99010
G1 X137.615 Y132.529 E53.00747
G1 X137.117 Y132.697 E53.02483
G1 X136.644 Y132.909 E53.04196
G1 X136.224 Y133.143 E53.05785
G1 X135.758 Y133.470 E53.07666
G1 X135.347 Y133.823 E53.09456
G1 X134.877 Y134.340 E53.11765
G1 X134.728 Y134.525 E53.12549
G1 X134.441 Y134.953 E53.14252
G1 X134.196 Y135.411 E53.15968
G1 X133.995 Y135.890 E53.17685
G1 X133.833 Y136.405 E53.19469
G1 X133.693 Y137.213 E53.22178
G1 X133.667 Y137.926 E53.24536
G1 X133.730 Y138.579 E53.26704
G1 X133.842 Y139.124 E53.28542
G0 F12000 X134.325 Y138.990
G1 F1620 X134.617 Y139.814 E53.31431
G1 X134.872 Y140.287 E53.33206
G1 X135.137 Y140.683 E53.34781
G1 X135.438 Y141.050 E53.36349
G1 X135.770 Y141.385 E53.37907
G1 X136.104 Y141.666 E53.39350
G1 X136.535 Y141.958 E53.41070
G1 X136.953 Y142.185 E53.42642
G1 X137.391 Y142.370 E53.44213
G1 X137.859 Y142.517 E53.45834
G1 X138.717 Y142.663 E53.48709
G1 X139.214 Y142.674 E53.50352
G1 X139.731 Y142.632 E53.52066
G1 X140.202 Y142.548 E53.53647
G1 X140.660 Y142.418 E53.55220
G1 X141.102 Y142.244 E53.56789
G1 X141.527 Y142.030 E53.58362
G1 X141.926 Y141.777 E53.59923
G1 X142.269 Y141.515 E53.61349
G1 X142.619 Y141.188 E53.62932
G1 X142.961 Y140.796 E53.64651
G1 X143.237 Y140.407 E53.66227
G1 X143.472 Y139.998 E53.67785
G1 X143.653 Y139.607 E53.69209
G1 X143.811 Y139.158 E53.70782
G1 X143.928 Y138.686 E53.72389
G1 X144.006 Y138.023 E53.74594
G1 X144.015 Y137.827 E53.75243
G1 X144.009 Y137.515 E53.76274
G1 X143.943 Y136.897 E53.78327
G1 X143.837 Y136.429 E53.79913
G1 X143.689 Y135.982 E53.81469
G1 X143.499 Y135.551 E53.83025
G1 X143.267 Y135.136 E53.84596
G1 X142.935 Y134.668 E53.86492
G1 X142.614 Y134.305 E53.88093
G1 X142.229 Y133.955 E53.89813
G1 X141.484 Y133.443 E53.92800
G1 X141.000 Y133.210 E53.94575
G1 X140.172 Y132.943 E53.97449
G1 X139.685 Y132.860 E53.99082
G1 X139.207 Y132.825 E54.00665
G1 X138.688 Y132.842 E54.02381
G1 X138.216 Y132.903 E54.03954
G1 X137.751 Y133.011 E54.05531
G1 X137.299 Y133.163 E54.07107
G1 X136.868 Y133.356 E54.08667
G1 X136.490 Y133.567 E54.10098
G1 X136.065 Y133.865 E54.11813
G1 X135.696 Y134.182 E54.13420
G1 X135.257 Y134.665 E54.15577
G1 X135.131 Y134.821 E54.16239
G1 X134.870 Y135.211 E54.17790
G1 X134.647 Y135.627 E54.19350
G1 X134.465 Y136.061 E54.20905
G1 X134.320 Y136.523 E54.22505
G1 X134.191 Y137.266 E54.24996
G1 X134.168 Y137.911 E54.27129
G1 X134.225 Y138.505 E54.29101
G1 X134.325 Y138.990 E54.30737
G1 F2100 E53.70737
G0 F12000 X132.348 Y139.896
G1 F2100 E54.30737
G1 F1620 X132.048 Y138.881 E54.34234
G1 X132.014 Y137.781 E54.37871
G1 X132.040 Y137.145 E54.39974
G1 X132.158 Y136.381 E54.42528
G1 X132.081 Y136.374 E54.42784
G1 X132.540 Y135.071 E54.47349
G1 X132.982 Y134.064 E54.50982
G1 X132.972 Y134.059 E54.51019
G1 X133.854 Y132.992 E54.55594
G1 X134.609 Y132.196 E54.59219
G1 X134.602 Y132.188 E54.59254
G1 X135.800 Y131.485 E54.63843
G1 X136.781 Y130.997 E54.67464
G1 X138.154 Y130.735 E54.72082
G1 X139.211 Y130.617 E54.75597
G1 X140.274 Y130.771 E54.79146
G1 X140.922 Y130.913 E54.81338
G1 X141.648 Y131.136 E54.83847
G1 X141.662 Y131.083 E54.84028
G1 X142.877 Y131.768 E54.88637
G1 X143.781 Y132.374 E54.92233
G1 X143.788 Y132.364 E54.92274
G1 X144.691 Y133.423 E54.96872
G1 X145.340 Y134.299 E55.00475
G1 X145.835 Y135.603 E55.05083
G1 X146.135 Y136.618 E55.08581
G1 X146.168 Y137.709 E55.12187
G1 X146.150 Y138.256 E55.13996
G1 X146.090 Y139.123 E55.16867
G1 X146.103 Y139.124 E55.16910
G1 X145.643 Y140.428 E55.21479
G1 X145.201 Y141.435 E55.25113
G1 X145.211 Y141.439 E55.25149
G1 X144.329 Y142.509 E55.29731
G1 X143.572 Y143.303 E55.33355
G1 X143.580 Y143.311 E55.33393
G1 X142.383 Y144.014 E55.37980
G1 X141.402 Y144.502 E55.41600
G1 X140.029 Y144.764 E55.46219
G1 X138.973 Y144.882 E55.49730
G1 X137.910 Y144.728 E55.53279
G1 X137.261 Y144.586 E55.55474
G1 X136.535 Y144.363 E55.57983
G1 X136.521 Y144.416 E55.58165
G1 X135.310 Y143.732 E55.62760
G1 X134.400 Y143.125 E55.66375
G1 X134.394 Y143.134 E55.66410
G1 X133.489 Y142.072 E55.71021
G1 X132.843 Y141.200 E55.74607
G1 X132.348 Y139.896 E55.79215
G1 F2100 E55.19215
G0 F12000 X130.713 Y139.207
G1 F2100 E55.79215
G1 F1620 X130.569 Y139.220 E55.79693
G1 X130.311 Y139.200 E55.80548
G1 X130.294 Y139.104 E55.80870
G1 X130.680 Y138.969 E55.82222
G1 X131.861 Y138.903 E55.86130
G1 X130.713 Y139.207 E55.90054
G1 F2100 E55.30054
G0 F12000 X131.620 Y141.765
G1 F2100 E55.90054
G1 F1620 X132.689 Y141.308 E55.93895
G1 X131.731 Y141.976 E55.97755
G1 X131.560 Y142.054 E55.98376
G1 X131.337 Y142.114 E55.99139
G1 X131.288 Y142.030 E55.99460
G1 X131.423 Y141.900 E56.00079
G1 X131.620 Y141.765 E56.00868
G1 F2100 E55.40868
G0 F12000 X133.445 Y144.077
G1 F2100 E56.00868
G1 F1620 X134.284 Y143.290 E56.04669
G1 X133.622 Y144.237 E56.08487
G1 X133.488 Y144.368 E56.09106
G1 X133.296 Y144.503 E56.09882
G1 X133.222 Y144.441 E56.10201
G1 X133.326 Y144.240 E56.10949
G1 X133.445 Y144.077 E56.11616
G1 F2100 E55.51616
G0 F12000 X135.935 Y145.657
G1 F2100 E56.11616
G1 F1620 X136.474 Y144.588 E56.15571
G1 X136.169 Y145.717 E56.19436
G1 X136.086 Y145.893 E56.20079
G1 X135.989 Y146.039 E56.20658
G1 X135.956 Y146.078 E56.20827
G1 X135.872 Y146.048 E56.21121
G1 X135.890 Y145.835 E56.21828
G1 X135.935 Y145.657 E56.22434
G1 F2100 E55.62434
G0 F12000 X138.830 Y146.258
G1 F2100 E56.22434
G1 F1620 X138.972 Y145.066 E56.26401
G1 X139.073 Y146.258 E56.30354
G1 X139.072 Y146.297 E56.30483
G1 X138.994 Y146.647 E56.31667
G1 X138.896 Y146.644 E56.31991
G1 X138.829 Y146.279 E56.33218
G1 X138.830 Y146.258 E56.33287
G1 F2100 E55.73287
G0 F12000 X141.771 Y145.868
G1 F2100 E56.33287
G1 F1620 X141.474 Y144.657 E56.37407
G1 X141.976 Y145.733 E56.41330
G1 X142.023 Y145.917 E56.41958
G1 X142.045 Y146.107 E56.42590
G1 X142.045 Y146.144 E56.42712
G1 X141.962 Y146.176 E56.43006
G1 X141.833 Y145.995 E56.43741
G1 X141.771 Y145.868 E56.44208
G1 F2100 E55.84208
G0 F12000 X144.343 Y144.411
G1 F2100 E56.44208
G1 F1620 X143.711 Y143.442 E56.48030
G1 X144.546 Y144.279 E56.51937
G1 X144.736 Y144.630 E56.53256
G1 X144.670 Y144.686 E56.53542
G1 X144.496 Y144.566 E56.54240
G1 X144.343 Y144.411 E56.54960
G1 F2100 E55.94960
G0 F12000 X146.307 Y142.213
G1 F2100 E56.54960
G1 F1620 X145.375 Y141.516 E56.58805
G1 X146.431 Y142.010 E56.62657
G1 X146.568 Y142.108 E56.63214
G1 X146.744 Y142.293 E56.64058
G1 X146.701 Y142.368 E56.64343
G1 X146.484 Y142.301 E56.65094
G1 X146.307 Y142.213 E56.65747
G1 F2100 E56.05747
G0 F12000 X147.398 Y139.476
G1 F2100 E56.65747
G1 F1620 X146.285 Y139.140 E56.69588
G1 X147.445 Y139.243 E56.73436
G1 X147.624 Y139.293 E56.74051
G1 X147.838 Y139.390 E56.74827
G1 X147.821 Y139.486 E56.75149
G1 X147.631 Y139.499 E56.75778
G1 X147.398 Y139.476 E56.76552
G1 F2100 E56.16552
G0 F12000 X147.518 Y136.529
G1 F2100 E56.76552
G1 F1620 X146.322 Y136.596 E56.80510
G1 X147.470 Y136.292 E56.84434
G1 X147.614 Y136.279 E56.84912
G1 X147.871 Y136.299 E56.85764
G1 X147.888 Y136.388 E56.86063
G1 X147.693 Y136.480 E56.86775
G1 X147.518 Y136.529 E56.87376
G1 F2100 E56.27376
G0 F12000 X146.563 Y133.734
G1 F2100 E56.87376
G1 F1620 X145.494 Y134.191 E56.91217
G1 X146.452 Y133.523 E56.95076
G1 X146.617 Y133.448 E56.95675
G1 X146.846 Y133.384 E56.96461
G1 X146.896 Y133.470 E56.96790
G1 X146.761 Y133.598 E56.97404
G1 X146.563 Y133.734 E56.98198
G1 F2100 E56.38198
G0 F12000 X144.738 Y131.422
G1 F2100 E56.98198
G1 F1620 X143.894 Y132.213 E57.02020
G1 X144.564 Y131.260 E57.05869
G1 X144.694 Y131.132 E57.06472
G1 X144.888 Y130.997 E57.07253
G1 X144.961 Y131.058 E57.07568
G1 X144.857 Y131.259 E57.08315
G1 X144.738 Y131.422 E57.08982
G1 F2100 E56.48982
G0 F12000 X142.249 Y129.840
G1 F2100 E57.08982
G1 F1620 X141.709 Y130.911 E57.12945
G1 X142.013 Y129.783 E57.16806
G1 X142.089 Y129.625 E57.17385
G1 X142.235 Y129.425 E57.18203
G1 X142.311 Y129.452 E57.18470
G1 X142.293 Y129.664 E57.19173
G1 X142.249 Y129.840 E57.19772
G1 F2100 E56.59772
G0 F12000 X139.354 Y129.237
G1 F2100 E57.19772
G1 F1620 X139.213 Y130.420 E57.23709
G1 X139.110 Y129.239 E57.27626
G1 X139.111 Y129.204 E57.27742
G1 X139.190 Y128.852 E57.28934
G1 X139.287 Y128.855 E57.29254
G1 X139.354 Y129.220 E57.30481
G1 X139.354 Y129.237 E57.30537
G1 F2100 E56.70537
G0 F12000 X136.434 Y129.692
G1 F2100 E57.30537
G1 F1620 X136.701 Y130.825 E57.34383
G1 X136.209 Y129.769 E57.38232
G1 X136.161 Y129.580 E57.38877
G1 X136.139 Y129.391 E57.39505
G1 X136.139 Y129.356 E57.39621
G1 X136.231 Y129.322 E57.39945
G1 X136.355 Y129.515 E57.40703
G1 X136.434 Y129.692 E57.41344
G1 F2100 E56.81344
G0 F12000 X133.824 Y131.064
G1 F2100 E57.41344
G1 F1620 X134.475 Y132.061 E57.45278
G1 X133.647 Y131.231 E57.49152
G1 X133.545 Y131.080 E57.49754
G1 X133.447 Y130.870 E57.50520
G1 X133.514 Y130.812 E57.50813
G1 X133.692 Y130.937 E57.51531
G1 X133.824 Y131.064 E57.52137
G1 F2100 E56.92137
G0 F12000 X131.876 Y133.285
G1 F2100 E57.52137
G1 F1620 X132.806 Y133.982 E57.55977
G1 X131.744 Y133.485 E57.59851
G1 X131.604 Y133.384 E57.60422
G1 X131.434 Y133.217 E57.61209
G1 X131.482 Y133.131 E57.61534
G1 X131.703 Y133.200 E57.62299
G1 X131.876 Y133.285 E57.62936
G1 F2100 E57.02936
G0 F12000 X130.786 Y136.023
G1 F2100 E57.62936
G1 F1620 X131.896 Y136.358 E57.66767
G1 X130.738 Y136.256 E57.70609
G1 X130.556 Y136.206 E57.71232
G1 X130.345 Y136.109 E57.72000
G1 X130.362 Y136.010 E57.72331
G1 X130.584 Y136.001 E57.73066
G1 X130.786 Y136.023 E57.73737
G0 F12000 X131.755 Y135.793
;TYPE:WALL-OUTER
G1 F1620 X132.077 Y134.882 E57.76930
G1 X132.328 Y134.310 E57.78994
G1 X131.488 Y133.917 E57.82058
G1 X131.282 Y133.768 E57.82898
G1 X131.063 Y133.554 E57.83910
G1 X130.833 Y133.262 E57.85138
G1 X131.242 Y132.579 E57.87769
G1 X131.571 Y132.635 E57.88871
G1 X131.894 Y132.736 E57.89990
G1 X132.137 Y132.856 E57.90885
G1 X132.866 Y133.402 E57.93895
G1 X133.489 Y132.648 E57.97126
G1 X133.912 Y132.204 E57.99153
G1 X133.258 Y131.548 E58.02213
G1 X133.114 Y131.335 E58.03063
G1 X132.999 Y131.105 E58.03913
G1 X132.862 Y130.712 E58.05288
G1 X133.197 Y130.425 E58.06745
G1 X133.487 Y130.203 E58.07952
G1 X134.008 Y130.547 E58.10015
G1 X134.226 Y130.766 E58.11036
G1 X134.728 Y131.534 E58.14068
G1 X135.571 Y131.040 E58.17296
G1 X136.122 Y130.766 E58.19330
G1 X135.734 Y129.934 E58.22363
G1 X135.668 Y129.674 E58.23249
G1 X135.640 Y129.424 E58.24081
G1 X135.634 Y129.136 E58.25033
G1 X135.643 Y129.007 E58.25460
G1 X136.401 Y128.742 E58.28113
G1 X136.621 Y129.004 E58.29244
G1 X136.793 Y129.270 E58.30290
G1 X136.911 Y129.536 E58.31252
G1 X137.118 Y130.417 E58.34242
G1 X138.077 Y130.240 E58.37464
G1 X138.689 Y130.172 E58.39499
G1 X138.610 Y129.256 E58.42537
G1 X138.614 Y129.136 E58.42934
G1 X138.712 Y128.697 E58.44420
G1 X138.849 Y128.352 E58.45647
G1 X139.068 Y128.348 E58.46370
G1 X139.643 Y128.364 E58.48271
G1 X139.762 Y128.687 E58.49408
G1 X139.833 Y129.005 E58.50485
G1 X139.853 Y129.187 E58.51090
G1 X139.854 Y129.217 E58.51189
G1 X139.853 Y129.274 E58.51378
G1 X139.744 Y130.189 E58.54422
G1 X140.368 Y130.280 E58.56506
G1 X141.044 Y130.427 E58.58792
G1 X141.300 Y130.506 E58.59677
G1 X141.541 Y129.613 E58.62733
G1 X141.659 Y129.365 E58.63641
G1 X141.976 Y128.933 E58.65411
G1 X142.070 Y128.836 E58.65858
G1 X142.825 Y129.123 E58.68527
G1 X142.830 Y129.248 E58.68940
G1 X142.788 Y129.751 E58.70608
G1 X142.707 Y130.043 E58.71609
G1 X142.292 Y130.864 E58.74649
G1 X143.136 Y131.341 E58.77852
G1 X143.653 Y131.687 E58.79908
G1 X144.183 Y130.934 E58.82950
G1 X144.372 Y130.747 E58.83829
G1 X144.572 Y130.600 E58.84649
G1 X144.941 Y130.393 E58.86047
G1 X145.547 Y130.916 E58.88692
G1 X145.433 Y131.234 E58.89808
G1 X145.283 Y131.524 E58.90887
G1 X145.114 Y131.754 E58.91830
G1 X144.454 Y132.374 E58.94822
G1 X145.077 Y133.104 E58.97993
G1 X145.453 Y133.611 E59.00079
G1 X146.204 Y133.087 E59.03105
G1 X146.443 Y132.978 E59.03973
G1 X146.741 Y132.894 E59.04996
G1 X147.104 Y132.838 E59.06209
G1 X147.495 Y133.539 E59.08862
G1 X147.241 Y133.835 E59.10150
G1 X147.073 Y133.991 E59.10908
G1 X146.806 Y134.174 E59.11978
G1 X145.969 Y134.532 E59.14986
G1 X146.305 Y135.431 E59.18157
G1 X146.484 Y136.036 E59.20242
G1 X147.375 Y135.800 E59.23287
G1 X147.498 Y135.784 E59.23697
G1 X147.634 Y135.778 E59.24147
G1 X148.162 Y135.838 E59.25903
G1 X148.301 Y135.872 E59.26376
G1 X148.382 Y136.307 E59.27838
G1 X148.429 Y136.669 E59.29044
G1 X148.327 Y136.733 E59.29442
G1 X147.869 Y136.950 E59.31116
G1 X147.577 Y137.026 E59.32113
G1 X146.650 Y137.079 E59.35181
G1 X146.669 Y137.703 E59.37244
G1 X146.650 Y138.273 E59.39129
G1 X146.623 Y138.668 E59.40437
G1 X147.534 Y138.749 E59.43459
G1 X147.794 Y138.821 E59.44350
G1 X148.065 Y138.943 E59.45332
G1 X148.387 Y139.142 E59.46583
G1 X148.235 Y139.929 E59.49232
G1 X147.821 Y139.990 E59.50614
G1 X147.620 Y140.000 E59.51279
G1 X147.295 Y139.968 E59.52358
G1 X146.428 Y139.706 E59.55351
G1 X146.106 Y140.617 E59.58544
G1 X145.855 Y141.189 E59.60608
G1 X146.681 Y141.575 E59.63620
G1 X146.902 Y141.732 E59.64516
G1 X147.269 Y142.118 E59.66276
G1 X147.352 Y142.232 E59.66742
G1 X146.942 Y142.921 E59.69391
G1 X146.611 Y142.864 E59.70501
G1 X146.294 Y142.765 E59.71598
G1 X146.045 Y142.642 E59.72516
G1 X145.317 Y142.097 E59.75521
G1 X144.707 Y142.837 E59.78690
G1 X144.271 Y143.295 E59.80779
G1 X144.923 Y143.949 E59.83831
G1 X144.967 Y144.005 E59.84066
G1 X145.185 Y144.399 E59.85554
G1 X145.321 Y144.788 E59.86915
G1 X144.695 Y145.297 E59.89581
G1 X144.590 Y145.240 E59.89976
G1 X144.177 Y144.953 E59.91638
G1 X143.949 Y144.723 E59.92708
G1 X143.455 Y143.965 E59.95698
G1 X142.612 Y144.459 E59.98926
G1 X142.061 Y144.733 E60.00959
G1 X142.448 Y145.564 E60.03988
G1 X142.516 Y145.827 E60.04886
G1 X142.544 Y146.075 E60.05711
G1 X142.549 Y146.362 E60.06659
G1 X142.540 Y146.492 E60.07090
G1 X141.776 Y146.759 E60.09764
G1 X141.403 Y146.254 E60.11838
G1 X141.299 Y146.043 E60.12616
G1 X141.064 Y145.082 E60.15885
G1 X140.106 Y145.259 E60.19104
G1 X139.495 Y145.327 E60.21135
G1 X139.573 Y146.243 E60.24173
G1 X139.569 Y146.362 E60.24566
G1 X139.472 Y146.800 E60.26048
G1 X139.342 Y147.147 E60.27273
G1 X139.115 Y147.151 E60.28023
G1 X138.535 Y147.135 E60.29940
G1 X138.401 Y146.735 E60.31334
G1 X138.350 Y146.492 E60.32155
G1 X138.330 Y146.312 E60.32753
G1 X138.329 Y146.282 E60.32852
G1 X138.330 Y146.225 E60.33041
G1 X138.439 Y145.310 E60.36085
G1 X137.816 Y145.219 E60.38166
G1 X137.139 Y145.072 E60.40455
G1 X136.883 Y144.993 E60.41340
G1 X136.641 Y145.889 E60.44407
G1 X136.523 Y146.138 E60.45317
G1 X136.388 Y146.342 E60.46126
G1 X136.112 Y146.663 E60.47524
G1 X135.359 Y146.376 E60.50187
G1 X135.354 Y146.250 E60.50604
G1 X135.395 Y145.748 E60.52268
G1 X135.478 Y145.452 E60.53284
G1 X135.891 Y144.635 E60.56309
G1 X135.048 Y144.158 E60.59509
G1 X134.529 Y143.812 E60.61570
G1 X134.006 Y144.560 E60.64586
G1 X133.810 Y144.752 E60.65493
G1 X133.604 Y144.903 E60.66337
G1 X133.243 Y145.106 E60.67705
G1 X132.891 Y144.817 E60.69210
G1 X132.636 Y144.583 E60.70354
G1 X132.750 Y144.265 E60.71470
G1 X132.900 Y143.975 E60.72549
G1 X133.069 Y143.745 E60.73492
G1 X133.729 Y143.125 E60.76484
G1 X133.105 Y142.394 E60.79660
G1 X132.730 Y141.888 E60.81741
G1 X131.979 Y142.412 E60.84766
G1 X131.738 Y142.522 E60.85642
G1 X131.491 Y142.595 E60.86493
G1 X131.079 Y142.662 E60.87872
G1 X130.688 Y141.961 E60.90524
G1 X130.939 Y141.668 E60.91799
G1 X131.115 Y141.504 E60.92594
G1 X131.377 Y141.325 E60.93643
G1 X132.214 Y140.967 E60.96651
G1 X131.878 Y140.068 E60.99822
G1 X131.699 Y139.463 E61.01907
G1 X130.808 Y139.699 E61.04952
G1 X130.685 Y139.715 E61.05362
G1 X130.549 Y139.721 E61.05812
G1 X130.021 Y139.661 E61.07568
G1 X129.883 Y139.627 E61.08037
G1 X129.754 Y138.830 E61.10705
G1 X129.858 Y138.764 E61.11112
G1 X130.118 Y138.632 E61.12076
G1 X130.569 Y138.479 E61.13649
G1 X131.533 Y138.420 E61.16840
G1 X131.514 Y137.788 E61.18930
G1 X131.543 Y137.093 E61.21228
G1 X131.583 Y136.832 E61.22101
G1 X130.649 Y136.750 E61.25199
G1 X130.389 Y136.678 E61.26090
G1 X130.115 Y136.554 E61.27084
G1 X129.796 Y136.357 E61.28323
G1 X129.947 Y135.572 E61.30964
G1 X130.076 Y135.544 E61.31400
G1 X130.323 Y135.512 E61.32223
G1 X130.605 Y135.500 E61.33156
G1 X130.888 Y135.531 E61.34097
G1 X131.755 Y135.793 E61.37089
G1 F2100 E60.77089
G0 F12000 X134.807 Y136.641
G1 F2100 E61.37089
G1 F1620 X134.690 Y137.318 E61.39359
G1 X134.669 Y137.896 E61.41271
G1 X134.720 Y138.430 E61.43043
G1 X134.808 Y138.855 E61.44477
G1 X135.076 Y139.611 E61.47128
G1 X135.301 Y140.029 E61.48696
G1 X135.539 Y140.385 E61.50111
G1 X135.809 Y140.715 E61.51520
G1 X136.109 Y141.017 E61.52926
G1 X136.406 Y141.267 E61.54209
G1 X136.795 Y141.530 E61.55761
G1 X137.170 Y141.734 E61.57171
G1 X137.564 Y141.900 E61.58584
G1 X137.976 Y142.030 E61.60012
G1 X138.765 Y142.164 E61.62656
G1 X139.199 Y142.173 E61.64090
G1 X139.667 Y142.135 E61.65642
G1 X140.089 Y142.060 E61.67058
G1 X140.500 Y141.943 E61.68470
G1 X140.898 Y141.787 E61.69883
G1 X141.280 Y141.595 E61.71295
G1 X141.639 Y141.366 E61.72702
G1 X141.946 Y141.132 E61.73978
G1 X142.259 Y140.840 E61.75392
G1 X142.568 Y140.486 E61.76945
G1 X142.816 Y140.137 E61.78359
G1 X143.027 Y139.768 E61.79764
G1 X143.190 Y139.418 E61.81040
G1 X143.332 Y139.015 E61.82452
G1 X143.435 Y138.597 E61.83874
G1 X143.507 Y137.982 E61.85920
G1 X143.515 Y137.820 E61.86456
G1 X143.510 Y137.546 E61.87362
G1 X143.449 Y136.979 E61.89246
G1 X143.355 Y136.564 E61.90652
G1 X143.222 Y136.162 E61.92051
G1 X143.051 Y135.774 E61.93452
G1 X142.844 Y135.403 E61.94856
G1 X142.543 Y134.979 E61.96574
G1 X142.257 Y134.657 E61.97997
G1 X141.910 Y134.341 E61.99548
G1 X141.569 Y134.086 E62.00955
G1 X141.242 Y133.882 E62.02228
G1 X140.814 Y133.675 E62.03799
G1 X140.053 Y133.430 E62.06441
G1 X139.625 Y133.357 E62.07876
G1 X139.197 Y133.326 E62.09293
G1 X138.728 Y133.341 E62.10844
G1 X138.305 Y133.396 E62.12253
G1 X137.888 Y133.492 E62.13667
G1 X137.482 Y133.629 E62.15083
G1 X137.093 Y133.803 E62.16491
G1 X136.756 Y133.991 E62.17766
G1 X136.372 Y134.260 E62.19316
G1 X136.045 Y134.541 E62.20740
G1 X135.637 Y134.990 E62.22745
G1 X135.534 Y135.118 E62.23288
G1 X135.299 Y135.469 E62.24683
G1 X135.099 Y135.842 E62.26082
G1 X134.935 Y136.233 E62.27483
G1 X134.807 Y136.641 E62.28896
G0 F12000 X133.638 Y136.500
;TYPE:SKIN
G1 F1620 X132.782 Y136.750 E62.31595
G1 X133.528 Y137.250 E62.34260
G1 X132.697 Y137.750 E62.36919
G1 X133.522 Y138.250 E62.39578
G1 X132.748 Y138.750 E62.42342
G1 X133.713 Y139.250 E62.45151
G1 X132.935 Y139.500 E62.47851
G1 F2100 E61.87851
G0 F12000 X132.927 Y136.000
G1 F2100 E62.47851
G1 F1620 X133.871 Y135.750 E62.50652
G1 X133.205 Y135.250 E62.53503
G1 X134.214 Y135.000 E62.56937
G0 F12000 X134.531 Y134.500
G1 F1620 X133.527 Y134.500 E62.60255
G0 F12000 X133.895 Y134.000
G1 F1620 X134.947 Y134.000 E62.63731
G0 F12000 X135.451 Y133.500
G1 F1620 X134.308 Y133.500 E62.67508
G0 F12000 X134.774 Y133.000
G1 F1620 X136.119 Y133.000 E62.71952
G0 F12000 X135.404 Y132.500
G1 F1620 X137.149 Y132.500 E62.77718
G0 F12000 X136.276 Y132.000
G1 F1620 X141.913 Y132.000 E62.96344
G0 F12000 X142.756 Y132.500
G1 F1620 X141.000 Y132.500 E63.02146
G0 F12000 X140.452 Y131.500
G1 F1620 X137.719 Y131.500 E63.11177
G1 F2100 E62.51177
G0 F12000 X142.047 Y133.000
G1 F2100 E63.11177
G1 F1620 X143.446 Y133.000 E63.15799
G0 F12000 X143.872 Y133.500
G1 F1620 X142.731 Y133.500 E63.19570
G0 F12000 X143.244 Y134.000
G1 F1620 X144.279 Y134.000 E63.22989
G0 F12000 X144.649 Y134.500
G1 F1620 X143.644 Y134.500 E63.26310
G0 F12000 X143.963 Y135.000
G1 F1620 X144.983 Y135.250 E63.29371
G1 X144.309 Y135.750 E63.32221
G1 X145.321 Y136.250 E63.35004
G1 X144.587 Y136.750 E63.37815
G1 X145.479 Y137.250 E63.40593
G1 X144.682 Y137.750 E63.43248
G1 X145.468 Y138.250 E63.45889
G1 X144.587 Y138.750 E63.48620
G1 X145.336 Y139.250 E63.51512
G1 X144.310 Y139.750 E63.54303
G1 X144.974 Y140.250 E63.57148
G1 X143.961 Y140.500 E63.60596
G0 F12000 X143.644 Y141.000
G1 F1620 X144.652 Y141.000 E63.63927
G0 F12000 X144.284 Y141.500
G1 F1620 X143.242 Y141.500 E63.67370
G0 F12000 X142.736 Y142.000
G1 F1620 X143.872 Y142.000 E63.71123
G0 F12000 X143.403 Y142.500
G1 F1620 X142.045 Y142.500 E63.75611
G0 F12000 X142.772 Y143.000
G1 F1620 X141.020 Y143.000 E63.81400
G0 F12000 X141.899 Y143.500
G1 F1620 X136.270 Y143.500 E63.99999
G0 F12000 X135.431 Y143.000
G1 F1620 X137.149 Y143.000 E64.05676
G0 F12000 X136.132 Y142.500
G1 F1620 X134.739 Y142.500 E64.10279
G0 F12000 X134.312 Y142.000
G1 F1620 X135.452 Y142.000 E64.14046
G0 F12000 X134.932 Y141.500
G1 F1620 X133.904 Y141.500 E64.17442
G0 F12000 X133.534 Y141.000
G1 F1620 X134.537 Y141.000 E64.20757
G0 F12000 X134.219 Y140.500
G1 F1620 X133.199 Y140.250 E64.23817
G1 X133.967 Y140.000 E64.26486
G1 F2100 E63.66486
G0 F12000 X137.742 Y144.000
G1 F2100 E64.26486
G1 F1620 X140.446 Y144.000 E64.35421
;LAYER:4
M106 S2
G0 F12000 X140.284 Y144.217 Z0.800
;TYPE:WALL-INNER
G1 F1800 X139.709 Y144.296 E64.37338
G1 X138.945 Y144.385 E64.39880
G1 X137.685 Y144.175 E64.44101
G1 X136.669 Y143.926 E64.47557
G1 X135.584 Y143.313 E64.51675
G1 X134.703 Y142.727 E64.55171
G1 X133.882 Y141.763 E64.59355
G1 X133.270 Y140.938 E64.62749
G1 X132.826 Y139.747 E64.66949
G1 X132.545 Y138.797 E64.70223
G1 X132.515 Y137.796 E64.73532
G1 X132.540 Y137.173 E64.75592
G1 X132.656 Y136.245 E64.78682
G1 X133.008 Y135.249 E64.82173
G1 X133.407 Y134.341 E64.85450
G1 X134.031 Y133.549 E64.88781
G1 X134.473 Y133.065 E64.90947
G1 X134.911 Y132.587 E64.93090
G1 X136.034 Y131.926 E64.97395
G1 X136.929 Y131.482 E65.00696
G1 X137.904 Y131.281 E65.03986
G1 X138.569 Y131.192 E65.06203
G1 X139.172 Y131.116 E65.08211
G1 X140.191 Y131.265 E65.11614
G1 X140.825 Y131.404 E65.13759
G1 X141.526 Y131.579 E65.16146
G1 X142.599 Y132.186 E65.20219
G1 X143.479 Y132.772 E65.23713
G1 X144.301 Y133.736 E65.27899
G1 X144.913 Y134.561 E65.31293
G1 X145.355 Y135.746 E65.35472
G1 X145.638 Y136.702 E65.38766
G1 X145.669 Y137.708 E65.42092
G1 X145.648 Y138.273 E65.43960
G1 X145.595 Y139.061 E65.46570
G1 X145.175 Y140.249 E65.50734
G1 X144.776 Y141.159 E65.54017
G1 X144.153 Y141.949 E65.57341
G1 X143.790 Y142.350 E65.59128
G1 X143.224 Y142.940 E65.61830
G1 X142.149 Y143.573 E65.65952
G1 X141.250 Y144.019 E65.69268
G1 X140.284 Y144.217 E65.72526
G0 F12000 X139.810 Y143.127
G1 F1800 X140.353 Y143.027 E65.74351
G1 X141.240 Y142.735 E65.77436
G1 X141.785 Y142.458 E65.79456
G1 X142.248 Y142.163 E65.81270
G1 X142.961 Y141.556 E65.84364
G1 X143.378 Y141.076 E65.86465
G1 X143.888 Y140.291 E65.89559
G1 X144.140 Y139.733 E65.91582
G1 X144.312 Y139.223 E65.93360
G1 X144.467 Y138.488 E65.95842
G1 X144.516 Y137.868 E65.97897
G1 X144.503 Y137.342 E65.99636
G1 X144.439 Y136.825 E66.01357
G1 X144.326 Y136.320 E66.03067
G1 X144.166 Y135.828 E66.04776
G1 X143.959 Y135.352 E66.06492
G1 X143.708 Y134.898 E66.08206
G1 X143.410 Y134.465 E66.09943
G1 X142.977 Y133.960 E66.12141
G1 X142.538 Y133.561 E66.14101
G1 X142.118 Y133.249 E66.15830
G1 X141.650 Y132.965 E66.17638
G1 X140.789 Y132.593 E66.20738
G1 X140.206 Y132.442 E66.22728
G1 X139.747 Y132.363 E66.24266
G1 X139.215 Y132.324 E66.26029
G1 X138.634 Y132.345 E66.27950
G1 X138.113 Y132.414 E66.29687
G1 X137.609 Y132.532 E66.31397
G1 X137.161 Y132.678 E66.32954
G1 X136.629 Y132.916 E66.34880
G1 X136.173 Y133.177 E66.36616
G1 X135.745 Y133.480 E66.38349
G1 X135.353 Y133.819 E66.40061
G1 X135.032 Y134.150 E66.41585
G1 X134.737 Y134.513 E66.43130
G1 X134.448 Y134.942 E66.44839
G1 X134.202 Y135.398 E66.46551
G1 X134.000 Y135.875 E66.48263
G1 X133.845 Y136.369 E66.49974
G1 X133.737 Y136.874 E66.51680
G1 X133.677 Y137.388 E66.53390
G1 X133.667 Y137.919 E66.55145
G1 X133.732 Y138.592 E66.57379
G1 X133.841 Y139.113 E66.59138
G1 X133.997 Y139.613 E66.60868
G1 X134.201 Y140.097 E66.62604
G1 X134.450 Y140.557 E66.64332
G1 X134.743 Y140.992 E66.66065
G1 X135.077 Y141.397 E66.67800
G1 X135.448 Y141.767 E66.69531
G1 X135.853 Y142.100 E66.71264
G1 X136.280 Y142.387 E66.72964
G1 X136.692 Y142.617 E66.74523
G1 X137.223 Y142.841 E66.76427
G1 X137.673 Y142.988 E66.77991
G1 X138.235 Y143.105 E66.79888
G1 X138.698 Y143.162 E66.81430
G1 X139.229 Y143.174 E66.83185
G1 X139.810 Y143.127 E66.85111
G0 F12000 X139.745 Y142.630
G1 F1800 X140.229 Y142.541 E66.86737
G1 X141.048 Y142.272 E66.89585
G1 X141.537 Y142.023 E66.91398
G1 X141.951 Y141.760 E66.93019
G1 X142.608 Y141.200 E66.95871
G1 X142.978 Y140.774 E66.97736
G1 X143.448 Y140.051 E67.00585
G1 X143.674 Y139.550 E67.02401
G1 X143.829 Y139.091 E67.04002
G1 X143.971 Y138.417 E67.06278
G1 X144.016 Y137.855 E67.08141
G1 X144.004 Y137.379 E67.09714
G1 X143.946 Y136.911 E67.11273
G1 X143.843 Y136.452 E67.12827
G1 X143.698 Y136.005 E67.14380
G1 X143.510 Y135.573 E67.15936
G1 X143.282 Y135.162 E67.17489
G1 X143.013 Y134.770 E67.19060
G1 X142.618 Y134.309 E67.21066
G1 X142.220 Y133.948 E67.22842
G1 X141.838 Y133.664 E67.24415
G1 X141.420 Y133.410 E67.26031
