;-- START GCODE --
;Sliced for Type A Machines Series 1
;Sliced at: Wed 31-01-2018 19:31:30
;Basic settings:
;	Layer height: 0.15
;	Walls: 1.5
;	Fill: 0.7
;	Print Speed: 30
;	Support: 0
;	Retraction Speed: 35
;	Retraction Distance: 0.6
;Print time: 34 minutes
;Filament used: 1.145m 3.0g
;Settings based on: MadeSolid PET+
G21        ;metric values
G90        ;absolute positioning
G28     ;move to endstops
G29		;allows for auto-levelling
G1 Z15.0 F12000 ;move the platform down 15mm
G1 X150 Y5 F12000 ;center
M109 S240 ;Heat To temp
G1 X150 Y5 Z0.3 ;move the platform to purge extrusion
G92 E0 ;zero the extruded length
G1 F200 X250 E30 ;extrude 30mm of feed stock
G92 E0 ;zero the extruded length again
G1 X150 Y150  Z25 F12000 ;recenter and begin
G1 F12000

;Layer count: 79
;LAYER:0
M107
G0 F12000 X143.394 Y141.797 Z0.200
G0 X143.396 Y141.920
;TYPE:SKIRT
G1 F1200 X143.394 Y141.797 E0.00542
G1 X143.618 Y141.668 E0.01681
G1 X143.698 Y141.577 E0.02215
G1 X143.753 Y141.590 E0.02464
G1 X147.136 Y139.638 E0.19671
G1 X147.386 Y139.690 E0.20796
G1 X147.468 Y139.413 E0.22069
G1 X149.947 Y138.910 E0.33213
G1 X150.274 Y138.853 E0.34675
G1 X152.264 Y138.560 E0.43537
G1 X152.335 Y138.470 E0.44042
G1 X152.595 Y138.512 E0.45203
G1 X152.783 Y138.484 E0.46040
G1 X152.832 Y138.550 E0.46402
G1 X154.767 Y138.861 E0.55037
G1 X155.064 Y138.913 E0.56365
G1 X157.102 Y139.321 E0.65522
G1 X157.210 Y139.255 E0.66079
G1 X157.440 Y139.388 E0.67250
G1 X157.554 Y139.411 E0.67762
G1 X157.570 Y139.464 E0.68006
G1 X159.823 Y140.770 E0.79479
G1 X161.226 Y141.705 E0.86907
G1 X161.420 Y141.666 E0.87779
G1 X163.192 Y143.732 E0.99771
G1 X164.504 Y145.388 E1.09079
G1 X164.563 Y145.398 E1.09342
G1 X164.613 Y145.526 E1.09948
G1 X164.779 Y145.735 E1.11124
G1 X164.735 Y145.836 E1.11609
G1 X165.449 Y147.649 E1.20194
G1 X166.247 Y149.936 E1.30865
G1 X166.262 Y149.944 E1.30940
G1 X166.263 Y149.981 E1.31103
G1 X166.367 Y150.279 E1.32494
G1 X166.274 Y150.381 E1.33102
G1 X166.327 Y152.358 E1.41815
G1 X166.325 Y152.680 E1.43234
G1 X166.324 Y152.722 E1.43419
G1 X166.538 Y155.077 E1.53837
G1 X166.160 Y155.266 E1.55699
G1 X165.535 Y157.114 E1.64293
G1 X164.712 Y159.277 E1.74489
G1 X164.749 Y159.367 E1.74918
G1 X164.616 Y159.529 E1.75841
G1 X164.553 Y159.694 E1.76620
G1 X164.471 Y159.705 E1.76984
G1 X162.993 Y161.505 E1.87245
G1 X161.604 Y163.080 E1.96497
G1 X161.606 Y163.203 E1.97039
G1 X161.382 Y163.332 E1.98178
G1 X161.302 Y163.423 E1.98712
G1 X161.247 Y163.410 E1.98961
G1 X157.864 Y165.362 E2.16168
G1 X157.614 Y165.310 E2.17293
G1 X157.532 Y165.587 E2.18566
G1 X155.053 Y166.090 E2.29710
G1 X154.726 Y166.147 E2.31172
G1 X152.736 Y166.440 E2.40034
G1 X152.665 Y166.530 E2.40539
G1 X152.405 Y166.488 E2.41700
G1 X152.217 Y166.516 E2.42537
G1 X152.168 Y166.450 E2.42899
G1 X150.233 Y166.139 E2.51534
G1 X149.936 Y166.087 E2.52862
G1 X147.898 Y165.679 E2.62019
G1 X147.790 Y165.745 E2.62576
G1 X147.560 Y165.612 E2.63747
G1 X147.446 Y165.589 E2.64259
G1 X147.430 Y165.536 E2.64503
G1 X145.177 Y164.230 E2.75976
G1 X143.774 Y163.295 E2.83404
G1 X143.580 Y163.334 E2.84276
G1 X141.808 Y161.268 E2.96268
G1 X140.496 Y159.612 E3.05576
G1 X140.437 Y159.602 E3.05839
G1 X140.387 Y159.474 E3.06445
G1 X140.221 Y159.265 E3.07621
G1 X140.265 Y159.164 E3.08106
G1 X139.551 Y157.351 E3.16691
G1 X138.753 Y155.064 E3.27362
G1 X138.738 Y155.056 E3.27437
G1 X138.737 Y155.019 E3.27600
G1 X138.633 Y154.721 E3.28991
G1 X138.726 Y154.619 E3.29599
G1 X138.673 Y152.642 E3.38312
G1 X138.675 Y152.320 E3.39731
G1 X138.676 Y152.278 E3.39916
G1 X138.462 Y149.923 E3.50334
G1 X138.840 Y149.734 E3.52196
G1 X139.465 Y147.886 E3.60790
G1 X140.288 Y145.723 E3.70986
G1 X140.251 Y145.633 E3.71415
G1 X140.384 Y145.471 E3.72339
G1 X140.447 Y145.306 E3.73117
G1 X140.529 Y145.295 E3.73481
G1 X142.007 Y143.495 E3.83742
G1 X143.396 Y141.920 E3.92994
G0 F12000 X143.900 Y142.140
G1 F1200 X143.899 Y142.083 E3.93245
G1 X147.220 Y140.167 E4.10137
G1 X147.736 Y140.274 E4.12459
G1 X147.863 Y139.843 E4.14438
G1 X150.040 Y139.402 E4.24224
G1 X150.353 Y139.346 E4.25625
G1 X152.536 Y139.026 E4.35345
G1 X152.547 Y139.011 E4.35427
G1 X154.684 Y139.354 E4.44963
G1 X154.972 Y139.405 E4.46251
G1 X157.161 Y139.843 E4.56086
G1 X157.168 Y139.865 E4.56188
G1 X157.216 Y139.836 E4.56435
G1 X159.559 Y141.194 E4.68366
G1 X161.121 Y142.236 E4.76639
G1 X161.231 Y142.214 E4.77133
G1 X162.806 Y144.050 E4.87790
G1 X164.202 Y145.811 E4.97691
G1 X164.188 Y145.843 E4.97844
G1 X164.202 Y145.845 E4.97907
G1 X164.980 Y147.823 E5.07271
G1 X165.796 Y150.162 E5.18185
G1 X165.739 Y150.224 E5.18556
G1 X165.770 Y150.241 E5.18712
G1 X165.827 Y152.363 E5.28064
G1 X165.825 Y152.672 E5.29425
G1 X165.823 Y152.739 E5.29721
G1 X166.009 Y154.782 E5.38759
G1 X165.752 Y154.910 E5.40024
G1 X165.064 Y156.945 E5.49488
G1 X164.191 Y159.239 E5.60301
G1 X164.157 Y159.244 E5.60453
G1 X164.172 Y159.281 E5.60629
G1 X162.612 Y161.181 E5.71460
G1 X161.126 Y162.866 E5.81358
G1 X161.100 Y162.860 E5.81475
G1 X161.101 Y162.917 E5.81726
G1 X157.780 Y164.833 E5.98618
G1 X157.264 Y164.726 E6.00940
G1 X157.137 Y165.157 E6.02919
G1 X154.960 Y165.598 E6.12705
G1 X154.647 Y165.654 E6.14106
G1 X152.464 Y165.974 E6.23826
G1 X152.453 Y165.989 E6.23908
G1 X150.316 Y165.646 E6.33444
G1 X150.028 Y165.595 E6.34732
G1 X147.839 Y165.157 E6.44567
G1 X147.832 Y165.135 E6.44669
G1 X147.784 Y165.164 E6.44916
G1 X145.441 Y163.806 E6.56847
G1 X143.879 Y162.764 E6.65120
G1 X143.769 Y162.786 E6.65614
G1 X142.194 Y160.950 E6.76271
G1 X140.798 Y159.189 E6.86172
G1 X140.812 Y159.157 E6.86325
G1 X140.798 Y159.155 E6.86388
G1 X140.020 Y157.177 E6.95752
G1 X139.204 Y154.838 E7.06666
G1 X139.261 Y154.776 E7.07037
G1 X139.230 Y154.759 E7.07193
G1 X139.173 Y152.637 E7.16545
G1 X139.175 Y152.328 E7.17906
G1 X139.177 Y152.261 E7.18202
G1 X138.991 Y150.218 E7.27240
G1 X139.248 Y150.090 E7.28505
G1 X139.936 Y148.055 E7.37969
G1 X140.809 Y145.761 E7.48782
G1 X140.843 Y145.756 E7.48934
G1 X140.828 Y145.719 E7.49110
G1 X142.388 Y143.819 E7.59941
G1 X143.874 Y142.134 E7.69839
G1 X143.900 Y142.140 E7.69956
G1 F2100 E7.09956
G0 F12000 X147.994 Y144.697
;TYPE:WALL-INNER
G1 F2100 E7.69956
G1 F1200 X147.991 Y144.667 E7.70089
G1 X148.228 Y144.883 E7.71502
G1 X148.325 Y145.002 E7.72178
G1 X148.367 Y145.068 E7.72523
G1 X148.613 Y145.619 E7.75181
G1 X148.758 Y146.024 E7.77076
G1 X148.161 Y145.195 E7.81577
G1 X148.116 Y145.107 E7.82013
G1 X147.994 Y144.697 E7.83897
G1 F2100 E7.23897
G0 F12000 X148.961 Y146.306
G1 F2100 E7.83897
G1 F1200 X150.249 Y145.791 E7.90009
G1 X151.292 Y145.468 E7.94819
G1 X152.677 Y145.425 E8.00924
G1 X153.772 Y145.480 E8.05754
G1 X153.773 Y145.470 E8.05798
G1 X155.083 Y145.911 E8.11888
G1 X156.094 Y146.341 E8.16728
G1 X156.100 Y146.327 E8.16795
G1 X157.177 Y147.191 E8.22878
G1 X157.987 Y147.939 E8.27736
G1 X158.710 Y149.107 E8.33788
G1 X159.181 Y150.103 E8.38642
G1 X159.225 Y150.082 E8.38857
G1 X159.496 Y151.437 E8.44944
G1 X159.598 Y152.537 E8.49812
G1 X159.646 Y152.532 E8.50024
G1 X159.438 Y153.895 E8.56099
G1 X159.179 Y154.966 E8.60953
G1 X159.203 Y154.972 E8.61062
G1 X158.535 Y156.196 E8.67205
G1 X157.942 Y157.110 E8.72005
G1 X156.913 Y158.032 E8.78093
G1 X156.039 Y158.694 E8.82923
G1 X154.751 Y159.209 E8.89034
G1 X153.708 Y159.532 E8.93845
G1 X152.323 Y159.575 E8.99949
G1 X151.228 Y159.520 E9.04780
G1 X151.227 Y159.530 E9.04824
G1 X149.917 Y159.089 E9.10914
G1 X148.906 Y158.659 E9.15754
G1 X148.900 Y158.673 E9.15821
G1 X147.823 Y157.809 E9.21904
G1 X147.013 Y157.061 E9.26762
G1 X146.287 Y155.888 E9.32839
G1 X145.787 Y154.912 E9.37671
G1 X145.775 Y154.918 E9.37730
G1 X145.503 Y153.560 E9.43831
G1 X145.366 Y152.467 E9.48684
G1 X145.354 Y152.468 E9.48738
G1 X145.562 Y151.105 E9.54812
G1 X145.804 Y150.030 E9.59667
G1 X146.465 Y148.804 E9.65803
G1 X147.058 Y147.890 E9.70603
G1 X148.087 Y146.968 E9.76690
G1 X148.961 Y146.306 E9.81521
G0 F12000 X149.478 Y146.915
G1 F1200 X149.027 Y147.184 E9.83834
G1 X148.588 Y147.497 E9.86209
G1 X147.882 Y148.144 E9.90428
G1 X147.491 Y148.597 E9.93065
G1 X147.184 Y149.027 E9.95393
G1 X146.907 Y149.490 E9.97770
G1 X146.521 Y150.366 E10.01987
G1 X146.341 Y150.953 E10.04692
G1 X146.181 Y151.898 E10.08915
G1 X146.149 Y152.510 E10.11615
G1 X146.225 Y153.467 E10.15844
G1 X146.343 Y154.055 E10.18486
G1 X146.494 Y154.561 E10.20813
G1 X146.684 Y155.050 E10.23124
G1 X146.915 Y155.522 E10.25439
G1 X147.184 Y155.973 E10.27753
G1 X147.497 Y156.412 E10.30128
G1 X148.144 Y157.118 E10.34347
G1 X148.597 Y157.509 E10.36983
G1 X149.027 Y157.816 E10.39311
G1 X149.490 Y158.093 E10.41688
G1 X150.366 Y158.479 E10.45905
G1 X150.953 Y158.659 E10.48610
G1 X151.898 Y158.819 E10.52833
G1 X152.510 Y158.851 E10.55533
G1 X153.467 Y158.775 E10.59763
G1 X154.055 Y158.657 E10.62405
G1 X154.561 Y158.506 E10.64731
G1 X155.050 Y158.316 E10.67042
G1 X155.522 Y158.085 E10.69358
G1 X155.973 Y157.816 E10.71671
G1 X156.412 Y157.503 E10.74046
G1 X157.118 Y156.856 E10.78265
G1 X157.509 Y156.403 E10.80902
G1 X157.816 Y155.973 E10.83230
G1 X158.093 Y155.510 E10.85607
G1 X158.479 Y154.634 E10.89824
G1 X158.659 Y154.047 E10.92529
G1 X158.819 Y153.102 E10.96752
G1 X158.851 Y152.490 E10.99452
G1 X158.775 Y151.533 E11.03681
G1 X158.657 Y150.945 E11.06323
G1 X158.506 Y150.439 E11.08650
G1 X158.316 Y149.950 E11.10961
G1 X158.085 Y149.478 E11.13276
G1 X157.816 Y149.027 E11.15590
G1 X157.503 Y148.588 E11.17965
G1 X156.856 Y147.882 E11.22184
G1 X156.403 Y147.491 E11.24820
G1 X155.973 Y147.184 E11.27148
G1 X155.510 Y146.907 E11.29525
G1 X154.634 Y146.521 E11.33743
G1 X154.047 Y146.341 E11.36448
G1 X153.102 Y146.181 E11.40670
G1 X152.490 Y146.149 E11.43370
G1 X151.533 Y146.225 E11.47600
G1 X150.945 Y146.343 E11.50242
G1 X150.439 Y146.494 E11.52568
G1 X149.950 Y146.684 E11.54880
G1 X149.478 Y146.915 E11.57195
G1 F2100 E10.97195
G0 F12000 X146.478 Y147.347
G1 F2100 E11.57195
G1 F1200 X146.693 Y147.642 E11.58803
G1 X145.938 Y147.129 E11.62824
G1 X145.846 Y147.045 E11.63373
G1 X145.681 Y146.837 E11.64543
G1 X145.592 Y146.677 E11.65350
G1 X145.730 Y146.729 E11.65999
G1 X146.012 Y146.884 E11.67417
G1 X146.478 Y147.347 E11.70311
G1 F2100 E11.10311
G0 F12000 X145.080 Y149.718
G1 F2100 E11.70311
G1 F1200 X145.391 Y149.925 E11.71957
G1 X144.496 Y149.697 E11.76026
G1 X144.366 Y149.644 E11.76645
G1 X144.290 Y149.601 E11.77029
G1 X144.002 Y149.389 E11.78605
G1 X144.484 Y149.441 E11.80741
G1 X144.548 Y149.462 E11.81037
G1 X145.080 Y149.718 E11.83638
G1 F2100 E11.23638
G0 F12000 X144.575 Y152.423
G1 F2100 E11.83638
G1 F1200 X144.950 Y152.509 E11.85333
G1 X144.002 Y152.605 E11.89531
G1 X143.905 Y152.600 E11.89959
G1 X143.618 Y152.540 E11.91251
G1 X143.454 Y152.487 E11.92010
G1 X143.629 Y152.426 E11.92827
G1 X143.906 Y152.368 E11.94074
G1 X143.984 Y152.364 E11.94418
G1 X144.575 Y152.423 E11.97034
G1 F2100 E11.37034
G0 F12000 X145.010 Y155.141
G1 F2100 E11.97034
G1 F1200 X145.362 Y155.116 E11.98589
G1 X144.569 Y155.497 E12.02465
G1 X144.434 Y155.540 E12.03089
G1 X144.176 Y155.577 E12.04238
G1 X144.025 Y155.583 E12.04903
G1 X143.999 Y155.582 E12.05018
G1 X144.104 Y155.491 E12.05630
G1 X144.382 Y155.313 E12.07085
G1 X144.467 Y155.278 E12.07490
G1 X145.010 Y155.141 E12.09957
G1 F2100 E11.49957
G0 F12000 X146.373 Y157.540
G1 F2100 E12.09957
G1 F1200 X146.690 Y157.394 E12.11494
G1 X146.073 Y158.028 E12.15392
G1 X145.861 Y158.170 E12.16516
G1 X145.570 Y158.300 E12.17920
G1 X145.741 Y158.031 E12.19325
G1 X145.900 Y157.861 E12.20350
G1 X146.373 Y157.540 E12.22869
G1 F2100 E11.62869
G0 F12000 X148.490 Y159.299
G1 F2100 E12.22869
G1 F1200 X148.775 Y158.952 E12.24847
G1 X148.350 Y159.898 E12.29416
G1 X148.289 Y159.993 E12.29913
G1 X147.965 Y160.327 E12.31963
G1 X147.999 Y160.154 E12.32740
G1 X148.097 Y159.862 E12.34097
G1 X148.140 Y159.784 E12.34490
G1 X148.490 Y159.299 E12.37125
G1 F2100 E11.77125
G0 F12000 X151.052 Y160.279
G1 F2100 E12.37125
G1 F1200 X151.201 Y159.891 E12.38956
G1 X151.130 Y160.873 E12.43293
G1 X151.105 Y160.990 E12.43821
G1 X151.005 Y161.240 E12.45007
G1 X150.913 Y161.394 E12.45797
G1 X150.887 Y161.231 E12.46524
G1 X150.878 Y160.946 E12.47781
G1 X150.895 Y160.830 E12.48297
G1 X151.052 Y160.279 E12.50821
G1 F2100 E11.90821
G0 F12000 X153.799 Y160.297
G1 F2100 E12.50821
G1 F1200 X153.799 Y159.855 E12.52769
G1 X154.080 Y160.851 E12.57328
G1 X154.093 Y161.045 E12.58184
G1 X154.049 Y161.385 E12.59695
G1 X153.908 Y161.116 E12.61033
G1 X153.841 Y160.895 E12.62050
G1 X153.799 Y160.297 E12.64691
G1 F2100 E12.04691
G0 F12000 X156.385 Y159.375
G1 F2100 E12.64691
G1 F1200 X156.242 Y158.976 E12.66559
G1 X156.838 Y159.803 E12.71050
G1 X156.884 Y159.893 E12.71495
G1 X157.006 Y160.303 E12.73380
G1 X157.009 Y160.333 E12.73513
G1 X156.772 Y160.117 E12.74925
G1 X156.675 Y159.998 E12.75602
G1 X156.633 Y159.932 E12.75946
G1 X156.385 Y159.375 E12.78633
G1 F2100 E12.18633
G0 F12000 X158.522 Y157.653
G1 F2100 E12.78633
G1 F1200 X158.307 Y157.358 E12.80241
G1 X159.062 Y157.871 E12.84262
G1 X159.154 Y157.955 E12.84811
G1 X159.319 Y158.163 E12.85981
G1 X159.408 Y158.323 E12.86787
G1 X159.270 Y158.271 E12.87437
G1 X158.988 Y158.116 E12.88855
G1 X158.522 Y157.653 E12.91749
G1 F2100 E12.31749
G0 F12000 X159.920 Y155.282
G1 F2100 E12.91749
G1 F1200 X159.609 Y155.075 E12.93395
G1 X160.504 Y155.303 E12.97464
G1 X160.634 Y155.356 E12.98082
G1 X160.710 Y155.399 E12.98467
G1 X160.998 Y155.611 E13.00043
G1 X160.516 Y155.559 E13.02179
G1 X160.452 Y155.538 E13.02475
G1 X159.920 Y155.282 E13.05076
G1 F2100 E12.45076
G0 F12000 X160.425 Y152.577
G1 F2100 E13.05076
G1 F1200 X160.051 Y152.491 E13.06767
G1 X160.998 Y152.395 E13.10961
G1 X161.095 Y152.400 E13.11389
G1 X161.382 Y152.460 E13.12680
G1 X161.546 Y152.513 E13.13440
G1 X161.371 Y152.574 E13.14256
G1 X161.094 Y152.632 E13.15503
G1 X161.016 Y152.636 E13.15847
G1 X160.425 Y152.577 E13.18464
G1 F2100 E12.58464
G0 F12000 X159.990 Y149.859
G1 F2100 E13.18464
G1 F1200 X159.638 Y149.884 E13.20018
G1 X160.431 Y149.503 E13.23894
G1 X160.566 Y149.460 E13.24519
G1 X160.824 Y149.423 E13.25667
G1 X160.975 Y149.417 E13.26333
G1 X161.001 Y149.418 E13.26447
G1 X160.896 Y149.509 E13.27060
G1 X160.618 Y149.687 E13.28514
G1 X160.533 Y149.722 E13.28919
G1 X159.990 Y149.859 E13.31386
G1 F2100 E12.71386
G0 F12000 X158.627 Y147.460
G1 F2100 E13.31386
G1 F1200 X158.310 Y147.606 E13.32924
G1 X158.927 Y146.972 E13.36821
G1 X159.139 Y146.830 E13.37945
G1 X159.430 Y146.700 E13.39350
G1 X159.259 Y146.969 E13.40754
G1 X159.100 Y147.139 E13.41779
G1 X158.627 Y147.460 E13.44298
G1 F2100 E12.84298
G0 F12000 X156.510 Y145.701
G1 F2100 E13.44298
G1 F1200 X156.225 Y146.048 E13.46276
G1 X156.650 Y145.102 E13.50845
G1 X156.711 Y145.007 E13.51343
G1 X157.035 Y144.673 E13.53393
G1 X157.001 Y144.846 E13.54169
G1 X156.903 Y145.138 E13.55526
G1 X156.860 Y145.216 E13.55919
G1 X156.510 Y145.701 E13.58554
G1 F2100 E12.98554
G0 F12000 X153.948 Y144.721
G1 F2100 E13.58554
G1 F1200 X153.799 Y145.109 E13.60385
G1 X153.870 Y144.127 E13.64723
G1 X153.895 Y144.010 E13.65250
G1 X153.995 Y143.760 E13.66436
G1 X154.087 Y143.606 E13.67226
G1 X154.113 Y143.769 E13.67954
G1 X154.122 Y144.051 E13.69197
G1 X154.105 Y144.170 E13.69726
G1 X153.948 Y144.721 E13.72250
G1 F2100 E13.12250
G0 F12000 X151.201 Y144.703
G1 F2100 E13.72250
G1 F1200 X151.201 Y145.145 E13.74198
G1 X150.920 Y144.149 E13.78757
G1 X150.907 Y143.950 E13.79636
G1 X150.951 Y143.615 E13.81124
G1 X151.092 Y143.884 E13.82462
G1 X151.158 Y144.102 E13.83466
G1 X151.201 Y144.703 E13.86120
G0 F12000 X150.679 Y145.135
;TYPE:WALL-OUTER
G1 F1200 X150.427 Y144.242 E13.90208
G1 X150.408 Y144.074 E13.90953
G1 X150.407 Y143.917 E13.91645
G1 X150.482 Y143.341 E13.94204
G1 X150.625 Y142.854 E13.96440
G1 X150.998 Y142.789 E13.98108
G1 X151.287 Y143.178 E14.00243
G1 X151.550 Y143.679 E14.02736
G1 X151.623 Y143.886 E14.03703
G1 X151.655 Y144.035 E14.04374
G1 X151.701 Y144.678 E14.07215
G1 X151.701 Y144.950 E14.08413
G1 X152.677 Y144.924 E14.12714
G1 X153.309 Y144.956 E14.15502
G1 X153.374 Y144.057 E14.19473
G1 X153.415 Y143.866 E14.20334
G1 X153.546 Y143.538 E14.21890
G1 X153.842 Y143.041 E14.24439
G1 X154.032 Y142.794 E14.25811
G1 X154.409 Y142.861 E14.27498
G1 X154.548 Y143.328 E14.29645
G1 X154.613 Y143.729 E14.31435
G1 X154.623 Y144.082 E14.32991
G1 X154.596 Y144.272 E14.33836
G1 X154.423 Y144.879 E14.36617
G1 X154.327 Y145.129 E14.37797
G1 X155.262 Y145.444 E14.42143
G1 X155.839 Y145.689 E14.44905
G1 X156.208 Y144.866 E14.48879
G1 X156.313 Y144.702 E14.49737
G1 X156.556 Y144.429 E14.51347
G1 X156.692 Y144.305 E14.52158
G1 X157.184 Y143.946 E14.54841
G1 X157.254 Y143.903 E14.55203
G1 X157.591 Y144.098 E14.56918
G1 X157.562 Y144.584 E14.59063
G1 X157.486 Y144.976 E14.60823
G1 X157.363 Y145.338 E14.62507
G1 X157.284 Y145.483 E14.63234
G1 X156.904 Y146.009 E14.66093
G1 X156.745 Y146.203 E14.67198
G1 X157.500 Y146.809 E14.71464
G1 X157.968 Y147.241 E14.74270
G1 X158.603 Y146.587 E14.78286
G1 X158.897 Y146.390 E14.79845
G1 X159.249 Y146.231 E14.81546
G1 X159.826 Y146.064 E14.84193
G1 X159.908 Y146.048 E14.84561
G1 X160.159 Y146.344 E14.86271
G1 X159.969 Y146.783 E14.88378
G1 X159.661 Y147.270 E14.90917
G1 X159.525 Y147.428 E14.91835
G1 X159.407 Y147.535 E14.92537
G1 X158.876 Y147.895 E14.95364
G1 X158.627 Y148.011 E14.96574
G1 X159.150 Y148.869 E15.01001
G1 X159.425 Y149.432 E15.03761
G1 X160.245 Y149.038 E15.07769
G1 X160.607 Y148.944 E15.09417
G1 X160.778 Y148.925 E15.10175
G1 X160.985 Y148.917 E15.11088
G1 X161.165 Y148.922 E15.11881
G1 X161.673 Y148.978 E15.14133
G1 X161.802 Y149.339 E15.15822
G1 X161.596 Y149.564 E15.17166
G1 X161.197 Y149.910 E15.19492
G1 X160.846 Y150.134 E15.21327
G1 X160.689 Y150.198 E15.22074
G1 X160.069 Y150.354 E15.24890
G1 X159.793 Y150.374 E15.26109
G1 X159.990 Y151.355 E15.30518
G1 X160.057 Y151.988 E15.33322
G1 X160.984 Y151.894 E15.37427
G1 X161.160 Y151.903 E15.38204
G1 X161.518 Y151.978 E15.39815
G1 X161.857 Y152.097 E15.41398
G1 X162.325 Y152.320 E15.43682
G1 X162.327 Y152.391 E15.43995
G1 X162.323 Y152.708 E15.45391
G1 X161.891 Y152.924 E15.47519
G1 X161.508 Y153.056 E15.49304
G1 X161.159 Y153.129 E15.50875
G1 X161.006 Y153.137 E15.51550
G1 X160.339 Y153.071 E15.54503
G1 X160.079 Y153.011 E15.55678
G1 X159.930 Y153.985 E15.60020
G1 X159.785 Y154.604 E15.62820
G1 X160.659 Y154.826 E15.66793
G1 X160.854 Y154.905 E15.67720
G1 X161.300 Y155.207 E15.70093
G1 X161.739 Y155.631 E15.72782
G1 X161.793 Y155.693 E15.73144
G1 X161.657 Y156.057 E15.74856
G1 X161.382 Y156.096 E15.76080
G1 X160.991 Y156.113 E15.77804
G1 X160.413 Y156.050 E15.80366
G1 X160.264 Y156.003 E15.81054
G1 X159.676 Y155.720 E15.83929
G1 X159.447 Y155.568 E15.85140
G1 X158.967 Y156.448 E15.89556
G1 X158.628 Y156.971 E15.92302
G1 X159.374 Y157.479 E15.96278
G1 X159.521 Y157.613 E15.97155
G1 X159.739 Y157.889 E15.98704
G1 X160.019 Y158.390 E16.01233
G1 X160.138 Y158.679 E16.02610
G1 X159.892 Y158.974 E16.04302
G1 X159.422 Y158.862 E16.06431
G1 X159.050 Y158.720 E16.08185
G1 X158.712 Y158.534 E16.09885
G1 X158.572 Y158.423 E16.10672
G1 X158.139 Y157.978 E16.13407
G1 X157.979 Y157.758 E16.14606
G1 X157.230 Y158.420 E16.19010
G1 X156.730 Y158.798 E16.21771
G1 X157.261 Y159.534 E16.25770
G1 X157.346 Y159.697 E16.26580
G1 X157.460 Y160.044 E16.28189
G1 X157.500 Y160.223 E16.28997
G1 X157.566 Y160.836 E16.31713
G1 X157.568 Y160.914 E16.32057
G1 X157.229 Y161.110 E16.33782
G1 X156.828 Y160.845 E16.35900
G1 X156.409 Y160.464 E16.38395
G1 X156.268 Y160.292 E16.39374
G1 X156.190 Y160.167 E16.40024
G1 X155.922 Y159.567 E16.42919
G1 X155.835 Y159.321 E16.44068
G1 X154.920 Y159.679 E16.48397
G1 X154.321 Y159.865 E16.51160
G1 X154.572 Y160.755 E16.55234
G1 X154.592 Y160.925 E16.55988
G1 X154.593 Y161.083 E16.56685
G1 X154.518 Y161.659 E16.59244
G1 X154.375 Y162.146 E16.61480
G1 X154.002 Y162.211 E16.63148
G1 X153.713 Y161.822 E16.65283
G1 X153.450 Y161.321 E16.67776
G1 X153.376 Y161.113 E16.68748
G1 X153.345 Y160.965 E16.69415
G1 X153.299 Y160.322 E16.72255
G1 X153.299 Y160.050 E16.73453
G1 X152.323 Y160.076 E16.77755
G1 X151.691 Y160.044 E16.80542
G1 X151.626 Y160.943 E16.84514
G1 X151.586 Y161.132 E16.85365
G1 X151.454 Y161.462 E16.86931
G1 X151.158 Y161.959 E16.89479
G1 X150.968 Y162.206 E16.90852
G1 X150.591 Y162.139 E16.92539
G1 X150.452 Y161.672 E16.94686
G1 X150.387 Y161.271 E16.96475
G1 X150.377 Y160.918 E16.98031
G1 X150.405 Y160.726 E16.98886
G1 X150.577 Y160.120 E17.01661
G1 X150.673 Y159.871 E17.02837
G1 X149.738 Y159.556 E17.07184
G1 X149.161 Y159.311 E17.09946
G1 X148.792 Y160.134 E17.13919
G1 X148.687 Y160.298 E17.14777
G1 X148.444 Y160.571 E17.16387
G1 X148.308 Y160.695 E17.17198
G1 X147.816 Y161.054 E17.19881
G1 X147.746 Y161.097 E17.20243
G1 X147.409 Y160.902 E17.21959
G1 X147.438 Y160.416 E17.24104
G1 X147.514 Y160.024 E17.25863
G1 X147.637 Y159.662 E17.27547
G1 X147.716 Y159.517 E17.28275
G1 X148.096 Y158.991 E17.31134
G1 X148.255 Y158.797 E17.32239
G1 X147.500 Y158.191 E17.36504
G1 X147.032 Y157.759 E17.39310
G1 X146.397 Y158.413 E17.43326
G1 X146.103 Y158.610 E17.44885
G1 X145.751 Y158.769 E17.46587
G1 X145.174 Y158.936 E17.49233
G1 X145.092 Y158.952 E17.49601
G1 X144.841 Y158.656 E17.51311
G1 X145.031 Y158.217 E17.53419
G1 X145.339 Y157.730 E17.55957
G1 X145.475 Y157.572 E17.56876
G1 X145.593 Y157.465 E17.57577
G1 X146.124 Y157.105 E17.60404
G1 X146.373 Y156.989 E17.61614
G1 X145.850 Y156.131 E17.66041
G1 X145.564 Y155.573 E17.68803
G1 X144.755 Y155.962 E17.72758
G1 X144.393 Y156.056 E17.74406
G1 X144.222 Y156.075 E17.75164
G1 X144.015 Y156.083 E17.76077
G1 X143.835 Y156.078 E17.76870
G1 X143.327 Y156.022 E17.79122
G1 X143.198 Y155.661 E17.80811
G1 X143.404 Y155.436 E17.82155
G1 X143.803 Y155.090 E17.84481
G1 X144.154 Y154.866 E17.86316
G1 X144.311 Y154.802 E17.87063
G1 X144.931 Y154.646 E17.89879
G1 X145.207 Y154.626 E17.91099
G1 X145.009 Y153.638 E17.95538
G1 X144.931 Y153.014 E17.98308
G1 X144.016 Y153.106 E18.02360
G1 X143.840 Y153.097 E18.03136
G1 X143.482 Y153.022 E18.04748
G1 X143.143 Y152.903 E18.06331
G1 X142.675 Y152.680 E18.08615
G1 X142.673 Y152.609 E18.08928
G1 X142.677 Y152.292 E18.10324
G1 X143.109 Y152.076 E18.12452
G1 X143.492 Y151.944 E18.14237
G1 X143.841 Y151.871 E18.15808
G1 X143.994 Y151.863 E18.16483
G1 X144.661 Y151.929 E18.19436
G1 X144.921 Y151.989 E18.20611
G1 X145.070 Y151.015 E18.24952
G1 X145.209 Y150.395 E18.27752
G1 X144.341 Y150.174 E18.31698
G1 X144.146 Y150.095 E18.32625
G1 X143.700 Y149.793 E18.34998
G1 X143.261 Y149.369 E18.37687
G1 X143.207 Y149.307 E18.38049
G1 X143.343 Y148.943 E18.39761
G1 X143.618 Y148.904 E18.40985
G1 X144.009 Y148.887 E18.42709
G1 X144.587 Y148.950 E18.45270
G1 X144.736 Y148.997 E18.45959
G1 X145.324 Y149.280 E18.48834
G1 X145.553 Y149.432 E18.50045
G1 X146.035 Y148.548 E18.54480
G1 X146.372 Y148.029 E18.57207
G1 X145.626 Y147.521 E18.61183
G1 X145.479 Y147.387 E18.62059
G1 X145.261 Y147.111 E18.63609
G1 X144.981 Y146.610 E18.66137
G1 X144.862 Y146.321 E18.67514
G1 X145.108 Y146.026 E18.69207
G1 X145.578 Y146.138 E18.71335
G1 X145.950 Y146.280 E18.73090
G1 X146.288 Y146.466 E18.74789
G1 X146.428 Y146.577 E18.75576
G1 X146.861 Y147.022 E18.78312
G1 X147.021 Y147.242 E18.79510
G1 X147.772 Y146.579 E18.83924
G1 X148.270 Y146.202 E18.86676
G1 X147.733 Y145.457 E18.90722
G1 X147.654 Y145.303 E18.91484
G1 X147.538 Y144.949 E18.93125
G1 X147.500 Y144.777 E18.93902
G1 X147.434 Y144.162 E18.96627
G1 X147.432 Y144.085 E18.96966
G1 X147.771 Y143.890 E18.98689
G1 X148.172 Y144.155 E19.00807
G1 X148.591 Y144.536 E19.03302
G1 X148.732 Y144.708 E19.04281
G1 X148.810 Y144.833 E19.04931
G1 X149.078 Y145.433 E19.07826
G1 X149.165 Y145.679 E19.08975
G1 X150.080 Y145.321 E19.13304
G1 X150.679 Y145.135 E19.16067
G1 F2100 E18.56067
G0 F12000 X151.066 Y146.829
G1 F2100 E19.16067
G1 F1200 X150.601 Y146.967 E19.18204
G1 X150.151 Y147.143 E19.20333
G1 X149.716 Y147.355 E19.22465
G1 X149.301 Y147.603 E19.24595
G1 X148.903 Y147.886 E19.26746
G1 X148.241 Y148.493 E19.30703
G1 X147.884 Y148.906 E19.33109
G1 X147.603 Y149.301 E19.35244
G1 X147.352 Y149.720 E19.37396
G1 X146.990 Y150.541 E19.41349
G1 X146.828 Y151.068 E19.43778
G1 X146.679 Y151.953 E19.47732
G1 X146.650 Y152.503 E19.50159
G1 X146.721 Y153.398 E19.54114
G1 X146.829 Y153.934 E19.56523
G1 X146.967 Y154.399 E19.58660
G1 X147.143 Y154.849 E19.60789
G1 X147.355 Y155.284 E19.62921
G1 X147.603 Y155.699 E19.65051
G1 X147.886 Y156.097 E19.67202
G1 X148.493 Y156.759 E19.71159
G1 X148.906 Y157.116 E19.73564
G1 X149.301 Y157.397 E19.75700
G1 X149.720 Y157.648 E19.77852
G1 X150.541 Y158.010 E19.81805
G1 X151.068 Y158.172 E19.84234
G1 X151.953 Y158.321 E19.88188
G1 X152.503 Y158.350 E19.90614
G1 X153.398 Y158.279 E19.94570
G1 X153.934 Y158.171 E19.96979
G1 X154.399 Y158.033 E19.99115
G1 X154.849 Y157.857 E20.01244
G1 X155.284 Y157.645 E20.03376
G1 X155.699 Y157.397 E20.05506
G1 X156.097 Y157.114 E20.07658
G1 X156.759 Y156.507 E20.11615
G1 X157.116 Y156.094 E20.14020
G1 X157.397 Y155.699 E20.16155
G1 X157.648 Y155.280 E20.18307
G1 X158.010 Y154.459 E20.22260
G1 X158.172 Y153.932 E20.24689
G1 X158.321 Y153.047 E20.28643
G1 X158.350 Y152.497 E20.31070
G1 X158.279 Y151.602 E20.35025
G1 X158.171 Y151.066 E20.37434
G1 X158.033 Y150.601 E20.39571
G1 X157.857 Y150.151 E20.41700
G1 X157.645 Y149.716 E20.43832
G1 X157.397 Y149.301 E20.45962
G1 X157.114 Y148.903 E20.48113
G1 X156.507 Y148.241 E20.52070
G1 X156.094 Y147.884 E20.54475
G1 X155.699 Y147.603 E20.56611
G1 X155.280 Y147.352 E20.58763
G1 X154.459 Y146.990 E20.62716
G1 X153.932 Y146.828 E20.65145
G1 X153.047 Y146.679 E20.69099
G1 X152.497 Y146.650 E20.71525
G1 X151.602 Y146.721 E20.75481
G1 X151.066 Y146.829 E20.77890
G0 F12000 X151.000 Y146.154
;TYPE:SKIN
G1 F1200 X151.250 Y145.688 E20.79712
G1 X151.750 Y146.033 E20.81553
G1 X152.250 Y145.612 E20.83281
G1 X152.750 Y145.986 E20.84898
G1 X153.250 Y145.629 E20.86582
G1 X153.750 Y146.113 E20.88471
G1 X154.250 Y145.816 E20.90336
G1 X154.750 Y146.394 E20.92080
G1 X155.250 Y146.174 E20.93938
G1 X155.750 Y146.601 E20.95838
G1 X156.250 Y146.934 E20.98061
G1 X156.750 Y147.309 E21.00143
G1 X157.250 Y147.754 E21.02367
G1 X157.750 Y148.310 E21.04989
G1 X158.250 Y149.047 E21.08065
G1 X158.500 Y149.941 E21.12155
G0 F12000 X159.000 Y150.130
G1 F1200 X159.000 Y152.149 E21.21050
G0 F12000 X159.000 Y152.990
G1 F1200 X159.000 Y154.964 E21.29747
G0 F12000 X158.500 Y155.019
G1 F1200 X158.250 Y155.950 E21.33603
G1 X157.750 Y156.690 E21.36656
G1 X157.250 Y157.236 E21.39253
G1 X156.750 Y157.687 E21.41531
G1 X156.250 Y158.064 E21.43600
G1 X155.750 Y158.397 E21.45807
G1 X155.250 Y158.621 E21.47705
G1 X154.750 Y159.012 E21.49461
G1 X154.250 Y158.776 E21.51215
G1 X153.750 Y159.311 E21.53034
G1 X153.250 Y158.967 E21.54874
G1 X152.750 Y159.387 E21.56600
G1 X152.250 Y159.013 E21.58217
G1 X151.750 Y159.370 E21.59901
G1 X151.250 Y158.887 E21.61788
G1 X150.750 Y159.184 E21.63653
G1 X150.250 Y158.606 E21.65397
G1 X149.750 Y158.826 E21.67255
G1 X149.250 Y158.398 E21.69157
G1 X148.750 Y158.066 E21.71378
G1 X148.250 Y157.690 E21.73462
G1 X147.750 Y157.246 E21.75683
G1 X147.250 Y156.690 E21.78305
G1 X146.750 Y155.952 E21.81377
G1 X146.500 Y155.059 E21.85462
G0 F12000 X146.000 Y154.942
G1 F1200 X146.000 Y152.849 E21.94683
G0 F12000 X146.000 Y152.010
G1 F1200 X146.000 Y150.033 E22.03393
G0 F12000 X146.500 Y149.980
G1 F1200 X146.750 Y149.050 E22.07237
G1 X147.250 Y148.310 E22.10290
G1 X147.750 Y147.764 E22.12887
G1 X148.250 Y147.312 E22.15167
G1 X148.750 Y146.935 E22.17237
G1 X149.250 Y146.603 E22.19442
G1 X149.750 Y146.378 E22.21340
G1 X150.250 Y145.987 E22.23097
G1 X150.500 Y146.294 E22.24841
;LAYER:1
G0 F12000 X150.432 Y146.495 Z0.350
;TYPE:WALL-INNER
G1 F1320 X149.614 Y146.847 E22.27783
G1 X149.033 Y147.180 E22.29996
G1 X148.600 Y147.489 E22.31754
G1 X148.200 Y147.828 E22.33486
G1 X147.828 Y148.200 E22.35225
G1 X147.489 Y148.600 E22.36957
G1 X147.176 Y149.038 E22.38736
G1 X146.750 Y149.812 E22.41655
G1 X146.496 Y150.432 E22.43869
G1 X146.344 Y150.942 E22.45628
G1 X146.237 Y151.456 E22.47362
G1 X146.172 Y151.976 E22.49094
G1 X146.150 Y152.500 E22.50827
G1 X146.172 Y153.036 E22.52600
G1 X146.311 Y153.909 E22.55520
G1 X146.495 Y154.568 E22.57781
G1 X146.847 Y155.386 E22.60724
G1 X147.180 Y155.967 E22.62936
G1 X147.489 Y156.400 E22.64694
G1 X147.828 Y156.800 E22.66427
G1 X148.200 Y157.172 E22.68165
G1 X148.600 Y157.511 E22.69898
G1 X149.038 Y157.824 E22.71676
G1 X149.812 Y158.250 E22.74596
G1 X150.432 Y158.504 E22.76810
G1 X150.942 Y158.656 E22.78568
G1 X151.456 Y158.763 E22.80303
G1 X151.976 Y158.828 E22.82034
G1 X152.500 Y158.850 E22.83767
G1 X153.036 Y158.828 E22.85540
G1 X153.909 Y158.689 E22.88461
G1 X154.568 Y158.505 E22.90722
G1 X155.386 Y158.153 E22.93664
G1 X155.967 Y157.820 E22.95877
G1 X156.400 Y157.511 E22.97635
G1 X156.800 Y157.172 E22.99367
G1 X157.172 Y156.800 E23.01105
G1 X157.511 Y156.400 E23.02838
G1 X157.824 Y155.962 E23.04617
G1 X158.250 Y155.188 E23.07536
G1 X158.504 Y154.568 E23.09750
G1 X158.656 Y154.058 E23.11508
G1 X158.763 Y153.544 E23.13243
G1 X158.828 Y153.024 E23.14975
G1 X158.850 Y152.500 E23.16708
G1 X158.828 Y151.964 E23.18480
G1 X158.689 Y151.091 E23.21401
G1 X158.505 Y150.432 E23.23662
G1 X158.153 Y149.614 E23.26604
G1 X157.820 Y149.033 E23.28817
G1 X157.511 Y148.600 E23.30575
G1 X157.172 Y148.200 E23.32307
G1 X156.800 Y147.828 E23.34046
G1 X156.400 Y147.489 E23.35778
G1 X155.962 Y147.176 E23.37557
G1 X155.188 Y146.750 E23.40476
G1 X154.568 Y146.496 E23.42690
G1 X154.058 Y146.344 E23.44449
G1 X153.544 Y146.237 E23.46183
G1 X153.024 Y146.172 E23.47915
G1 X152.500 Y146.150 E23.49648
G1 X151.964 Y146.172 E23.51421
G1 X151.091 Y146.311 E23.54342
G1 X150.432 Y146.495 E23.56602
G0 F12000 X150.238 Y145.796
G1 F1320 X151.309 Y145.465 E23.60306
G1 X152.674 Y145.425 E23.64819
G1 X153.788 Y145.481 E23.68504
G1 X155.088 Y145.913 E23.73031
G1 X156.109 Y146.347 E23.76696
G1 X156.113 Y146.337 E23.76732
G1 X157.174 Y147.188 E23.81226
G1 X157.998 Y147.952 E23.84939
G1 X158.710 Y149.108 E23.89425
G1 X159.193 Y150.118 E23.93125
G1 X159.228 Y150.101 E23.93253
G1 X159.495 Y151.433 E23.97742
G1 X159.593 Y152.553 E24.01457
G1 X159.644 Y152.548 E24.01626
G1 X159.438 Y153.894 E24.06125
G1 X159.189 Y154.986 E24.09826
G1 X158.537 Y156.193 E24.14359
G1 X157.934 Y157.122 E24.18019
G1 X156.920 Y158.026 E24.22508
G1 X156.027 Y158.701 E24.26206
G1 X154.762 Y159.204 E24.30705
G1 X153.691 Y159.535 E24.34409
G1 X152.326 Y159.575 E24.38921
G1 X151.212 Y159.519 E24.42606
G1 X149.912 Y159.087 E24.47133
G1 X148.891 Y158.653 E24.50799
G1 X148.887 Y158.663 E24.50834
G1 X147.826 Y157.812 E24.55328
G1 X147.002 Y157.048 E24.59041
G1 X146.290 Y155.892 E24.63527
G1 X145.778 Y154.896 E24.67228
G1 X145.504 Y153.563 E24.71725
G1 X145.366 Y152.451 E24.75427
G1 X145.356 Y152.452 E24.75460
G1 X145.562 Y151.106 E24.79960
G1 X145.811 Y150.014 E24.83660
G1 X146.463 Y148.807 E24.88193
G1 X147.066 Y147.878 E24.91853
G1 X148.082 Y146.972 E24.96351
G1 X148.973 Y146.299 E25.00041
G1 X150.238 Y145.796 E25.04539
G0 F12000 X151.218 Y144.685
G1 F1320 X151.218 Y145.142 E25.06049
G1 X150.948 Y144.181 E25.09347
G1 X150.927 Y144.044 E25.09805
G1 X150.926 Y143.929 E25.10185
G1 X150.961 Y143.592 E25.11305
G1 X151.053 Y143.750 E25.11909
G1 X151.162 Y144.037 E25.12923
G1 X151.176 Y144.100 E25.13136
G1 X151.218 Y144.685 E25.15074
G1 F2100 E24.55074
G0 F12000 X153.969 Y144.714
G1 F2100 E25.15074
G1 F1320 X153.815 Y145.121 E25.16512
G1 X153.887 Y144.146 E25.19743
G1 X153.909 Y144.037 E25.20110
G1 X154.019 Y143.755 E25.21110
G1 X154.109 Y143.603 E25.21694
G1 X154.141 Y143.882 E25.22622
G1 X154.143 Y144.034 E25.23124
G1 X154.126 Y144.163 E25.23554
G1 X153.969 Y144.714 E25.25447
G1 F2100 E24.65447
G0 F12000 X156.541 Y145.689
G1 F2100 E25.25447
G1 F1320 X156.261 Y146.011 E25.26857
G1 X156.664 Y145.119 E25.30091
G1 X156.797 Y144.929 E25.30858
G1 X157.043 Y144.703 E25.31962
G1 X157.013 Y144.872 E25.32529
G1 X156.919 Y145.146 E25.33486
G1 X156.541 Y145.689 E25.35672
G1 F2100 E24.75672
G0 F12000 X158.632 Y147.478
G1 F2100 E25.35672
G1 F1320 X158.235 Y147.708 E25.37188
G1 X158.929 Y146.995 E25.40476
G1 X159.048 Y146.904 E25.40971
G1 X159.278 Y146.781 E25.41833
G1 X159.437 Y146.726 E25.42389
G1 X159.350 Y146.878 E25.42967
G1 X159.160 Y147.110 E25.43958
G1 X159.108 Y147.157 E25.44190
G1 X158.632 Y147.478 E25.46087
G1 F2100 E24.86087
G0 F12000 X160.425 Y149.526
G1 F2100 E25.46087
G1 F1320 X160.538 Y149.488 E25.46481
G1 X160.846 Y149.442 E25.47510
G1 X161.012 Y149.437 E25.48058
G1 X160.953 Y149.489 E25.48318
G1 X160.604 Y149.711 E25.49685
G1 X159.971 Y149.881 E25.51851
G1 X159.542 Y149.950 E25.53286
G1 X160.425 Y149.526 E25.56523
G1 F2100 E24.96523
G0 F12000 X160.993 Y152.413
G1 F2100 E25.56523
G1 F1320 X161.104 Y152.420 E25.56891
G1 X161.369 Y152.476 E25.57786
G1 X161.525 Y152.536 E25.58338
G1 X161.244 Y152.626 E25.59313
G1 X161.072 Y152.653 E25.59888
G1 X161.051 Y152.654 E25.59958
G1 X160.416 Y152.593 E25.62065
G1 X160.019 Y152.510 E25.63406
G1 X160.993 Y152.413 E25.66640
G1 F2100 E25.06640
G0 F12000 X160.478 Y155.315
G1 F2100 E25.66640
G1 F1320 X160.626 Y155.376 E25.67169
G1 X160.853 Y155.517 E25.68052
G1 X160.989 Y155.630 E25.68636
G1 X160.628 Y155.600 E25.69833
G1 X160.418 Y155.543 E25.70552
G1 X159.897 Y155.290 E25.72466
G1 X159.487 Y155.062 E25.74016
G1 X160.478 Y155.315 E25.77395
G1 F2100 E25.17395
G0 F12000 X159.034 Y157.873
G1 F2100 E25.77395
G1 F1320 X159.147 Y157.976 E25.77901
G1 X159.313 Y158.188 E25.78790
G1 X159.392 Y158.329 E25.79324
G1 X159.220 Y158.267 E25.79928
G1 X159.011 Y158.155 E25.80712
G1 X158.887 Y158.055 E25.81238
G1 X158.508 Y157.665 E25.83035
G1 X158.222 Y157.318 E25.84521
G1 X159.034 Y157.873 E25.87771
G1 F2100 E25.27771
G0 F12000 X156.799 Y159.780
G1 F2100 E25.87771
G1 F1320 X156.878 Y159.930 E25.88331
G1 X156.955 Y160.167 E25.89155
G1 X156.983 Y160.335 E25.89717
G1 X156.845 Y160.220 E25.90311
G1 X156.674 Y160.030 E25.91155
G1 X156.614 Y159.935 E25.91527
G1 X156.379 Y159.409 E25.93430
G1 X156.236 Y158.994 E25.94881
G1 X156.799 Y159.780 E25.98075
G1 F2100 E25.38075
G0 F12000 X154.052 Y160.819
G1 F2100 E25.98075
G1 F1320 X154.073 Y160.954 E25.98527
G1 X154.074 Y161.071 E25.98913
G1 X154.039 Y161.408 E26.00033
G1 X153.947 Y161.250 E26.00637
G1 X153.838 Y160.963 E26.01652
G1 X153.823 Y160.893 E26.01888
G1 X153.782 Y160.314 E26.03806
G1 X153.782 Y159.858 E26.05313
G1 X154.052 Y160.819 E26.08611
G1 F2100 E25.48611
G0 F12000 X151.114 Y160.849
G1 F2100 E26.08611
G1 F1320 X151.091 Y160.963 E26.08995
G1 X150.981 Y161.245 E26.09996
G1 X150.891 Y161.397 E26.10579
G1 X150.859 Y161.118 E26.11507
G1 X150.857 Y160.966 E26.12009
G1 X150.874 Y160.837 E26.12439
G1 X151.032 Y160.284 E26.14340
G1 X151.185 Y159.879 E26.15770
G1 X151.114 Y160.849 E26.18984
G1 F2100 E25.58984
G0 F12000 X148.336 Y159.881
G1 F2100 E26.18984
G1 F1320 X148.274 Y159.985 E26.19384
G1 X148.203 Y160.071 E26.19753
G1 X147.957 Y160.297 E26.20856
G1 X147.987 Y160.128 E26.21424
G1 X148.081 Y159.854 E26.22381
G1 X148.459 Y159.311 E26.24567
G1 X148.739 Y158.989 E26.25977
G1 X148.336 Y159.881 E26.29211
G1 F2100 E25.69211
G0 F12000 X146.071 Y158.005
G1 F2100 E26.29211
G1 F1320 X145.952 Y158.096 E26.29706
G1 X145.722 Y158.219 E26.30568
G1 X145.563 Y158.274 E26.31124
G1 X145.650 Y158.122 E26.31702
G1 X145.840 Y157.890 E26.32693
G1 X145.892 Y157.843 E26.32925
G1 X146.368 Y157.522 E26.34822
G1 X146.765 Y157.292 E26.36338
G1 X146.071 Y158.005 E26.39626
G1 F2100 E25.79626
G0 F12000 X144.575 Y155.474
G1 F2100 E26.39626
G1 F1320 X144.462 Y155.512 E26.40020
G1 X144.154 Y155.558 E26.41049
G1 X143.988 Y155.563 E26.41597
G1 X144.047 Y155.511 E26.41857
G1 X144.396 Y155.289 E26.43224
G1 X145.029 Y155.119 E26.45390
G1 X145.458 Y155.050 E26.46825
G1 X144.575 Y155.474 E26.50062
G1 F2100 E25.90062
G0 F12000 X144.007 Y152.587
G1 F2100 E26.50062
G1 F1320 X143.896 Y152.580 E26.50430
G1 X143.631 Y152.524 E26.51325
G1 X143.475 Y152.464 E26.51877
G1 X143.756 Y152.374 E26.52852
G1 X143.928 Y152.347 E26.53427
G1 X143.949 Y152.346 E26.53497
G1 X144.584 Y152.407 E26.55604
G1 X144.981 Y152.490 E26.56945
G1 X144.007 Y152.587 E26.60179
G1 F2100 E26.00179
G0 F12000 X144.522 Y149.685
G1 F2100 E26.60179
G1 F1320 X144.374 Y149.624 E26.60708
G1 X144.147 Y149.483 E26.61591
G1 X144.011 Y149.370 E26.62175
G1 X144.372 Y149.400 E26.63372
G1 X144.582 Y149.457 E26.64091
G1 X145.103 Y149.710 E26.66005
G1 X145.513 Y149.938 E26.67555
G1 X144.522 Y149.685 E26.70934
G1 F2100 E26.10934
G0 F12000 X145.964 Y147.125
G1 F2100 E26.70934
G1 F1320 X145.853 Y147.024 E26.71430
G1 X145.687 Y146.812 E26.72320
G1 X145.608 Y146.671 E26.72854
G1 X145.780 Y146.733 E26.73458
G1 X145.989 Y146.845 E26.74242
G1 X146.113 Y146.945 E26.74768
G1 X146.492 Y147.335 E26.76565
G1 X146.778 Y147.682 E26.78051
G1 X145.964 Y147.125 E26.81310
G1 F2100 E26.21310
G0 F12000 X148.201 Y145.220
G1 F2100 E26.81310
G1 F1320 X148.122 Y145.070 E26.81870
G1 X148.045 Y144.833 E26.82693
G1 X148.017 Y144.665 E26.83256
G1 X148.153 Y144.778 E26.83840
G1 X148.324 Y144.968 E26.84685
G1 X148.386 Y145.065 E26.85065
G1 X148.621 Y145.591 E26.86969
G1 X148.764 Y146.006 E26.88419
G1 X148.201 Y145.220 E26.91614
G0 F12000 X147.773 Y145.482
;TYPE:WALL-OUTER
G1 F1320 X147.661 Y145.270 E26.92406
G1 X147.557 Y144.948 E26.93524
G1 X147.471 Y144.417 E26.95302
G1 X147.456 Y144.072 E26.96443
G1 X147.791 Y143.879 E26.97720
G1 X148.074 Y144.060 E26.98830
G1 X148.504 Y144.420 E27.00683
G1 X148.721 Y144.661 E27.01755
G1 X148.829 Y144.830 E27.02418
G1 X149.087 Y145.410 E27.04515
G1 X149.177 Y145.672 E27.05431
G1 X150.076 Y145.323 E27.08617
G1 X150.696 Y145.131 E27.10762
G1 X150.456 Y144.278 E27.13690
G1 X150.428 Y144.091 E27.14314
G1 X150.425 Y143.912 E27.14906
G1 X150.465 Y143.517 E27.16218
G1 X150.606 Y142.946 E27.18161
G1 X150.639 Y142.851 E27.18494
G1 X151.021 Y142.787 E27.19773
G1 X151.230 Y143.061 E27.20912
G1 X151.507 Y143.537 E27.22732
G1 X151.644 Y143.895 E27.23998
G1 X151.673 Y144.037 E27.24477
G1 X151.718 Y144.661 E27.26544
G1 X151.718 Y144.948 E27.27493
G1 X152.673 Y144.924 E27.30649
G1 X153.325 Y144.957 E27.32807
G1 X153.390 Y144.079 E27.35716
G1 X153.428 Y143.893 E27.36343
G1 X153.566 Y143.539 E27.37598
G1 X153.845 Y143.071 E27.39399
G1 X154.052 Y142.801 E27.40523
G1 X154.433 Y142.869 E27.41802
G1 X154.601 Y143.499 E27.43956
G1 X154.641 Y143.845 E27.45107
G1 X154.643 Y144.062 E27.45824
G1 X154.617 Y144.265 E27.46500
G1 X154.447 Y144.862 E27.48551
G1 X154.344 Y145.134 E27.49512
G1 X155.258 Y145.442 E27.52699
G1 X155.854 Y145.696 E27.54840
G1 X156.217 Y144.892 E27.57755
G1 X156.321 Y144.720 E27.58419
G1 X156.427 Y144.590 E27.58973
G1 X156.840 Y144.210 E27.60828
G1 X157.279 Y143.916 E27.62573
G1 X157.611 Y144.107 E27.63839
G1 X157.594 Y144.454 E27.64987
G1 X157.499 Y144.997 E27.66808
G1 X157.376 Y145.354 E27.68056
G1 X157.285 Y145.511 E27.68656
G1 X156.936 Y145.996 E27.70630
G1 X156.752 Y146.208 E27.71558
G1 X157.503 Y146.811 E27.74740
G1 X157.980 Y147.253 E27.76889
G1 X158.592 Y146.623 E27.79791
G1 X158.775 Y146.483 E27.80552
G1 X159.079 Y146.321 E27.81691
G1 X159.587 Y146.143 E27.83469
G1 X159.926 Y146.068 E27.84616
G1 X160.173 Y146.364 E27.85890
G1 X160.042 Y146.676 E27.87008
G1 X159.765 Y147.159 E27.88848
G1 X159.522 Y147.458 E27.90121
G1 X159.418 Y147.551 E27.90582
G1 X158.897 Y147.903 E27.92660
G1 X158.650 Y148.046 E27.93603
G1 X159.152 Y148.874 E27.96802
G1 X159.434 Y149.447 E27.98913
G1 X160.234 Y149.063 E28.01845
G1 X160.421 Y148.999 E28.02498
G1 X160.797 Y148.943 E28.03754
G1 X160.995 Y148.936 E28.04409
G1 X161.173 Y148.940 E28.04997
G1 X161.678 Y148.997 E28.06676
G1 X161.810 Y149.357 E28.07943
G1 X161.574 Y149.612 E28.09091
G1 X161.252 Y149.891 E28.10499
G1 X160.825 Y150.163 E28.12172
G1 X160.655 Y150.224 E28.12769
G1 X160.084 Y150.369 E28.14715
G1 X159.801 Y150.415 E28.15663
G1 X159.989 Y151.352 E28.18820
G1 X160.056 Y152.004 E28.20986
G1 X160.987 Y151.912 E28.24077
G1 X161.171 Y151.923 E28.24686
G1 X161.510 Y151.995 E28.25832
G1 X162.016 Y152.188 E28.27621
G1 X162.325 Y152.348 E28.28771
G1 X162.327 Y152.400 E28.28943
G1 X162.325 Y152.642 E28.29742
G1 X162.323 Y152.730 E28.30033
G1 X162.020 Y152.886 E28.31159
G1 X161.489 Y153.081 E28.33029
G1 X161.127 Y153.151 E28.34247
G1 X161.035 Y153.155 E28.34551
G1 X160.350 Y153.089 E28.36825
G1 X160.076 Y153.033 E28.37749
G1 X159.931 Y153.980 E28.40915
G1 X159.785 Y154.622 E28.43090
G1 X160.637 Y154.839 E28.45995
G1 X160.854 Y154.928 E28.46770
G1 X161.140 Y155.106 E28.47883
G1 X161.438 Y155.352 E28.49160
G1 X161.781 Y155.713 E28.50806
G1 X161.648 Y156.077 E28.52086
G1 X161.312 Y156.119 E28.53205
G1 X160.996 Y156.132 E28.54250
G1 X160.538 Y156.094 E28.55769
G1 X160.242 Y156.014 E28.56782
G1 X159.674 Y155.738 E28.58868
G1 X159.429 Y155.602 E28.59794
G1 X158.969 Y156.445 E28.62967
G1 X158.619 Y156.985 E28.65094
G1 X159.345 Y157.480 E28.67997
G1 X159.515 Y157.636 E28.68760
G1 X159.729 Y157.908 E28.69903
G1 X159.986 Y158.366 E28.71638
G1 X160.123 Y158.696 E28.72819
G1 X159.876 Y158.991 E28.74090
G1 X159.539 Y158.914 E28.75233
G1 X159.017 Y158.726 E28.77066
G1 X158.738 Y158.576 E28.78113
G1 X158.545 Y158.421 E28.78931
G1 X158.136 Y157.999 E28.80872
G1 X157.955 Y157.781 E28.81809
G1 X157.241 Y158.410 E28.84953
G1 X156.717 Y158.806 E28.87123
G1 X157.227 Y159.518 E28.90017
G1 X157.339 Y159.730 E28.90809
G1 X157.442 Y160.049 E28.91917
G1 X157.529 Y160.581 E28.93698
G1 X157.544 Y160.928 E28.94846
G1 X157.209 Y161.121 E28.96123
G1 X156.926 Y160.940 E28.97233
G1 X156.496 Y160.580 E28.99086
G1 X156.278 Y160.337 E29.00165
G1 X156.171 Y160.170 E29.00820
G1 X155.913 Y159.590 E29.02918
G1 X155.823 Y159.328 E29.03833
G1 X154.924 Y159.677 E29.07020
G1 X154.304 Y159.869 E29.09164
G1 X154.543 Y160.719 E29.12082
G1 X154.572 Y160.906 E29.12707
G1 X154.575 Y161.086 E29.13302
G1 X154.535 Y161.481 E29.14614
G1 X154.394 Y162.054 E29.16564
G1 X154.361 Y162.149 E29.16896
G1 X153.979 Y162.213 E29.18176
G1 X153.770 Y161.939 E29.19314
G1 X153.493 Y161.463 E29.21134
G1 X153.355 Y161.101 E29.22414
G1 X153.327 Y160.963 E29.22880
G1 X153.282 Y160.339 E29.24947
G1 X153.282 Y160.052 E29.25895
G1 X152.327 Y160.076 E29.29052
G1 X151.675 Y160.043 E29.31209
G1 X151.610 Y160.919 E29.34111
G1 X151.573 Y161.105 E29.34738
G1 X151.434 Y161.461 E29.36001
G1 X151.156 Y161.928 E29.37796
G1 X150.948 Y162.199 E29.38925
G1 X150.567 Y162.131 E29.40204
G1 X150.398 Y161.497 E29.42372
G1 X150.359 Y161.151 E29.43523
G1 X150.357 Y160.936 E29.44233
G1 X150.383 Y160.735 E29.44903
G1 X150.553 Y160.138 E29.46954
G1 X150.656 Y159.866 E29.47915
G1 X149.742 Y159.558 E29.51102
G1 X149.146 Y159.304 E29.53243
G1 X148.783 Y160.108 E29.56157
G1 X148.679 Y160.280 E29.56822
G1 X148.573 Y160.410 E29.57376
G1 X148.160 Y160.790 E29.59230
G1 X147.721 Y161.084 E29.60976
G1 X147.389 Y160.893 E29.62242
G1 X147.406 Y160.546 E29.63390
G1 X147.501 Y160.003 E29.65211
G1 X147.624 Y159.646 E29.66459
G1 X147.715 Y159.489 E29.67058
G1 X148.064 Y159.004 E29.69033
G1 X148.248 Y158.792 E29.69960
G1 X147.497 Y158.189 E29.73143
G1 X147.020 Y157.747 E29.75291
G1 X146.408 Y158.377 E29.78194
G1 X146.225 Y158.517 E29.78955
G1 X145.921 Y158.679 E29.80093
G1 X145.413 Y158.857 E29.81872
G1 X145.074 Y158.932 E29.83019
G1 X144.827 Y158.636 E29.84293
G1 X144.958 Y158.324 E29.85411
G1 X145.235 Y157.841 E29.87251
G1 X145.478 Y157.542 E29.88524
G1 X145.582 Y157.449 E29.88985
G1 X146.103 Y157.097 E29.91062
G1 X146.350 Y156.954 E29.92006
G1 X145.848 Y156.126 E29.95205
G1 X145.556 Y155.557 E29.97318
G1 X144.766 Y155.937 E30.00215
G1 X144.579 Y156.001 E30.00868
G1 X144.203 Y156.057 E30.02124
G1 X144.005 Y156.064 E30.02779
G1 X143.827 Y156.060 E30.03367
G1 X143.322 Y156.003 E30.05046
G1 X143.190 Y155.643 E30.06313
G1 X143.426 Y155.388 E30.07461
G1 X143.748 Y155.109 E30.08869
G1 X144.175 Y154.837 E30.10542
G1 X144.345 Y154.776 E30.11139
G1 X144.916 Y154.631 E30.13085
G1 X145.199 Y154.585 E30.14033
G1 X145.010 Y153.641 E30.17214
G1 X144.930 Y152.997 E30.19358
G1 X144.013 Y153.088 E30.22403
G1 X143.829 Y153.077 E30.23012
G1 X143.490 Y153.005 E30.24157
G1 X142.984 Y152.812 E30.25947
G1 X142.675 Y152.652 E30.27096
G1 X142.673 Y152.600 E30.27268
G1 X142.675 Y152.358 E30.28068
G1 X142.677 Y152.270 E30.28359
G1 X142.982 Y152.113 E30.29492
G1 X143.511 Y151.919 E30.31354
G1 X143.873 Y151.849 E30.32572
G1 X143.965 Y151.845 E30.32877
G1 X144.650 Y151.911 E30.35151
G1 X144.924 Y151.967 E30.36075
G1 X145.069 Y151.020 E30.39240
G1 X145.215 Y150.378 E30.41416
G1 X144.363 Y150.161 E30.44321
G1 X144.146 Y150.072 E30.45096
G1 X143.860 Y149.894 E30.46209
G1 X143.561 Y149.647 E30.47490
G1 X143.219 Y149.287 E30.49131
G1 X143.352 Y148.923 E30.50412
G1 X143.688 Y148.881 E30.51531
G1 X144.004 Y148.868 E30.52576
G1 X144.462 Y148.906 E30.54094
G1 X144.758 Y148.986 E30.55107
G1 X145.324 Y149.261 E30.57187
G1 X145.571 Y149.398 E30.58120
G1 X146.033 Y148.551 E30.61308
G1 X146.381 Y148.015 E30.63419
G1 X145.655 Y147.520 E30.66323
G1 X145.485 Y147.364 E30.67085
G1 X145.271 Y147.092 E30.68229
G1 X145.012 Y146.629 E30.69982
G1 X144.877 Y146.304 E30.71145
G1 X145.124 Y146.009 E30.72416
G1 X145.461 Y146.086 E30.73558
G1 X145.983 Y146.274 E30.75392
G1 X146.262 Y146.424 E30.76438
G1 X146.455 Y146.579 E30.77256
G1 X146.864 Y147.001 E30.79198
G1 X147.045 Y147.219 E30.80134
G1 X147.759 Y146.590 E30.83278
G1 X148.283 Y146.194 E30.85449
G1 X147.773 Y145.482 E30.88342
G1 F2100 E30.28342
G0 F12000 X149.303 Y147.601
G1 F2100 E30.88342
G1 F1320 X148.907 Y147.884 E30.89951
G1 X148.539 Y148.196 E30.91545
G1 X148.196 Y148.539 E30.93148
G1 X147.884 Y148.907 E30.94742
G1 X147.600 Y149.305 E30.96358
G1 X147.202 Y150.028 E30.99085
G1 X146.968 Y150.599 E31.01124
G1 X146.829 Y151.065 E31.02730
G1 X146.730 Y151.538 E31.04327
G1 X146.671 Y152.017 E31.05922
G1 X146.651 Y152.500 E31.07519
G1 X146.671 Y152.987 E31.09130
G1 X146.800 Y153.802 E31.11856
G1 X146.968 Y154.401 E31.13912
G1 X147.295 Y155.162 E31.16649
G1 X147.601 Y155.697 E31.18685
G1 X147.884 Y156.093 E31.20293
G1 X148.196 Y156.461 E31.21888
G1 X148.539 Y156.804 E31.23490
G1 X148.907 Y157.116 E31.25085
G1 X149.305 Y157.400 E31.26700
G1 X150.028 Y157.798 E31.29427
G1 X150.599 Y158.032 E31.31466
G1 X151.065 Y158.171 E31.33073
G1 X151.538 Y158.270 E31.34670
G1 X152.017 Y158.329 E31.36265
G1 X152.500 Y158.349 E31.37862
G1 X152.987 Y158.329 E31.39472
G1 X153.802 Y158.200 E31.42199
G1 X154.401 Y158.032 E31.44254
G1 X155.162 Y157.705 E31.46991
G1 X155.697 Y157.399 E31.49028
G1 X156.093 Y157.116 E31.50636
G1 X156.461 Y156.804 E31.52230
G1 X156.804 Y156.461 E31.53833
G1 X157.116 Y156.093 E31.55427
G1 X157.400 Y155.695 E31.57043
G1 X157.798 Y154.972 E31.59770
G1 X158.032 Y154.401 E31.61809
G1 X158.171 Y153.935 E31.63416
G1 X158.270 Y153.462 E31.65012
G1 X158.329 Y152.983 E31.66607
G1 X158.349 Y152.500 E31.68205
G1 X158.329 Y152.013 E31.69815
G1 X158.200 Y151.198 E31.72542
G1 X158.032 Y150.599 E31.74597
G1 X157.705 Y149.838 E31.77334
G1 X157.399 Y149.303 E31.79371
G1 X157.116 Y148.907 E31.80979
G1 X156.804 Y148.539 E31.82573
G1 X156.461 Y148.196 E31.84176
G1 X156.093 Y147.884 E31.85770
G1 X155.695 Y147.600 E31.87386
G1 X154.972 Y147.202 E31.90113
G1 X154.401 Y146.968 E31.92152
G1 X153.935 Y146.829 E31.93758
G1 X153.462 Y146.730 E31.95355
G1 X152.983 Y146.671 E31.96950
G1 X152.500 Y146.651 E31.98547
G1 X152.013 Y146.671 E32.00158
G1 X151.198 Y146.800 E32.02884
G1 X150.599 Y146.968 E32.04940
G1 X149.838 Y147.295 E32.07677
G1 X149.303 Y147.601 E32.09713
G0 F12000 X148.991 Y147.000
;TYPE:SKIN
G1 F1320 X148.323 Y147.250 E32.11891
G1 X147.765 Y147.750 E32.13748
G1 X147.269 Y148.250 E32.15674
G1 X146.933 Y148.750 E32.17235
G1 X146.638 Y149.250 E32.18689
G1 X146.384 Y149.750 E32.20123
G1 X145.947 Y150.250 E32.21659
G1 X146.221 Y150.750 E32.23019
G1 X145.721 Y151.250 E32.24291
G1 X146.024 Y151.750 E32.25531
G1 X145.574 Y152.250 E32.26833
G1 X145.984 Y152.750 E32.28243
G1 X145.640 Y153.250 E32.29519
G1 X146.111 Y153.750 E32.30826
G1 X145.823 Y154.250 E32.32088
G1 X146.392 Y154.750 E32.33475
G1 X146.155 Y155.250 E32.35007
G1 X146.636 Y155.750 E32.36415
G1 X146.933 Y156.250 E32.37852
G1 X147.276 Y156.750 E32.39423
G1 X147.764 Y157.250 E32.41320
G1 X148.328 Y157.750 E32.43203
G1 X148.988 Y158.250 E32.45376
G1 X149.962 Y158.500 E32.48698
G0 F12000 X150.206 Y159.000
G1 F1320 X151.949 Y159.000 E32.54458
G0 F12000 X153.060 Y159.000
G1 F1320 X154.800 Y159.000 E32.60207
G0 F12000 X155.018 Y158.500
G1 F1320 X156.002 Y158.250 E32.63454
G1 X156.672 Y157.750 E32.65631
G1 X157.230 Y157.250 E32.67488
G1 X157.727 Y156.750 E32.69417
G1 X158.064 Y156.250 E32.70983
G1 X158.359 Y155.750 E32.72437
G1 X158.613 Y155.250 E32.73867
G1 X159.049 Y154.750 E32.75397
G1 X158.776 Y154.250 E32.76760
G1 X159.276 Y153.750 E32.78031
G1 X158.974 Y153.250 E32.79270
G1 X159.405 Y152.750 E32.80570
G1 X159.013 Y152.250 E32.81855
G1 X159.346 Y151.750 E32.83066
G1 X158.887 Y151.250 E32.84367
G1 X159.179 Y150.750 E32.85633
G1 X158.606 Y150.250 E32.87030
G1 X158.822 Y149.750 E32.88463
G1 X158.363 Y149.250 E32.89831
G1 X158.066 Y148.750 E32.91272
G1 X157.723 Y148.250 E32.92847
G1 X157.236 Y147.750 E32.94743
G1 X156.672 Y147.250 E32.96630
G1 X156.014 Y146.750 E32.98799
G1 X155.041 Y146.500 E33.02118
G0 F12000 X154.798 Y146.000
G1 F1320 X153.065 Y146.000 E33.07844
G0 F12000 X151.926 Y146.000
G1 F1320 X150.193 Y146.000 E33.13571
G0 F12000 X149.976 Y146.500
G1 F1320 X148.995 Y146.500 E33.16812
;LAYER:2
G0 F12000 X148.988 Y146.290 Z0.500
;TYPE:WALL-INNER
G1 F1500 X150.236 Y145.797 E33.21246
G1 X151.324 Y145.460 E33.25009
G1 X152.667 Y145.425 E33.29449
G1 X153.804 Y145.485 E33.33211
G1 X155.076 Y145.909 E33.37641
G1 X156.091 Y146.341 E33.41286
G1 X156.918 Y146.973 E33.44725
G1 X157.436 Y147.429 E33.47006
G1 X157.989 Y147.983 E33.49592
G1 X158.012 Y147.959 E33.49702
G1 X158.712 Y149.111 E33.54156
G1 X159.226 Y150.118 E33.57892
G1 X159.496 Y151.432 E33.62324
G1 X159.612 Y152.568 E33.66097
G1 X159.643 Y152.565 E33.66200
G1 X159.438 Y153.892 E33.70637
G1 X159.163 Y154.995 E33.74393
G1 X159.189 Y155.002 E33.74482
G1 X158.549 Y156.173 E33.78892
G1 X157.941 Y157.109 E33.82580
G1 X157.951 Y157.117 E33.82622
G1 X156.923 Y158.025 E33.87154
G1 X156.012 Y158.710 E33.90920
G1 X154.764 Y159.203 E33.95354
G1 X153.676 Y159.540 E33.99118
G1 X152.333 Y159.575 E34.03557
G1 X151.196 Y159.515 E34.07319
G1 X149.924 Y159.091 E34.11749
G1 X148.909 Y158.659 E34.15394
G1 X148.082 Y158.027 E34.18833
G1 X147.560 Y157.567 E34.21132
G1 X147.011 Y157.017 E34.23700
G1 X146.988 Y157.041 E34.23810
G1 X146.288 Y155.889 E34.28264
G1 X145.774 Y154.882 E34.32000
G1 X145.504 Y153.566 E34.36439
G1 X145.365 Y152.435 E34.40204
G1 X145.563 Y151.105 E34.44647
G1 X145.813 Y149.999 E34.48394
G1 X146.451 Y148.827 E34.52803
G1 X147.059 Y147.891 E34.56491
G1 X147.049 Y147.883 E34.56533
G1 X148.077 Y146.975 E34.61066
G1 X148.988 Y146.290 E34.64832
G0 F12000 X148.630 Y145.567
G1 F1500 X148.794 Y146.018 E34.66417
G1 X148.228 Y145.229 E34.69626
G1 X148.139 Y145.057 E34.70266
G1 X148.028 Y144.649 E34.71663
G1 X148.169 Y144.768 E34.72273
G1 X148.369 Y145.001 E34.73287
G1 X148.630 Y145.567 E34.75347
G1 F2100 E34.15347
G0 F12000 X149.477 Y146.915
G1 F2100 E34.75347
G1 F1500 X149.027 Y147.184 E34.77079
G1 X148.591 Y147.495 E34.78849
G1 X147.987 Y148.038 E34.81532
G1 X147.494 Y148.592 E34.83983
G1 X147.184 Y149.027 E34.85748
G1 X146.915 Y149.478 E34.87483
G1 X146.679 Y149.960 E34.89256
G1 X146.409 Y150.725 E34.91937
G1 X146.238 Y151.446 E34.94385
G1 X146.172 Y151.976 E34.96150
G1 X146.150 Y152.511 E34.97919
G1 X146.207 Y153.320 E35.00599
G1 X146.342 Y154.050 E35.03052
G1 X146.497 Y154.572 E35.04851
G1 X146.806 Y155.300 E35.07465
G1 X146.915 Y155.523 E35.08285
G1 X147.184 Y155.973 E35.10017
G1 X147.495 Y156.409 E35.11787
G1 X148.038 Y157.013 E35.14470
G1 X148.592 Y157.506 E35.16921
G1 X149.027 Y157.816 E35.18686
G1 X149.478 Y158.085 E35.20421
G1 X149.960 Y158.321 E35.22194
G1 X150.725 Y158.591 E35.24875
G1 X151.446 Y158.762 E35.27323
G1 X151.976 Y158.828 E35.29088
G1 X152.511 Y158.850 E35.30857
G1 X153.320 Y158.793 E35.33537
G1 X154.050 Y158.658 E35.35990
G1 X154.572 Y158.503 E35.37789
G1 X155.300 Y158.194 E35.40403
G1 X155.523 Y158.085 E35.41223
G1 X155.973 Y157.816 E35.42955
G1 X156.409 Y157.505 E35.44725
G1 X157.013 Y156.962 E35.47408
G1 X157.506 Y156.408 E35.49859
G1 X157.816 Y155.973 E35.51624
G1 X158.085 Y155.522 E35.53359
G1 X158.321 Y155.040 E35.55132
G1 X158.591 Y154.275 E35.57813
G1 X158.762 Y153.554 E35.60261
G1 X158.828 Y153.024 E35.62026
G1 X158.850 Y152.489 E35.63795
G1 X158.793 Y151.680 E35.66475
G1 X158.658 Y150.950 E35.68928
G1 X158.503 Y150.428 E35.70727
G1 X158.194 Y149.700 E35.73341
G1 X158.085 Y149.477 E35.74161
G1 X157.816 Y149.027 E35.75893
G1 X157.505 Y148.591 E35.77663
G1 X156.962 Y147.987 E35.80346
G1 X156.408 Y147.494 E35.82797
G1 X155.973 Y147.184 E35.84562
G1 X155.522 Y146.915 E35.86297
G1 X155.040 Y146.679 E35.88070
G1 X154.275 Y146.409 E35.90751
G1 X153.554 Y146.238 E35.93199
G1 X153.024 Y146.172 E35.94964
G1 X152.489 Y146.150 E35.96733
G1 X151.680 Y146.207 E35.99413
G1 X150.950 Y146.342 E36.01866
G1 X150.428 Y146.497 E36.03665
G1 X149.700 Y146.806 E36.06279
G1 X149.477 Y146.915 E36.07099
G1 F2100 E35.47099
G0 F12000 X151.234 Y144.660
G1 F2100 E36.07099
G1 F1500 X151.245 Y145.178 E36.08811
G1 X150.970 Y144.195 E36.12184
G1 X150.946 Y144.046 E36.12682
G1 X150.945 Y143.941 E36.13029
G1 X150.988 Y143.601 E36.14162
G1 X151.072 Y143.745 E36.14712
G1 X151.195 Y144.098 E36.15948
G1 X151.234 Y144.660 E36.17809
G1 F2100 E35.57809
G0 F12000 X153.986 Y144.717
G1 F2100 E36.17809
G1 F1500 X153.826 Y145.185 E36.19443
G1 X153.905 Y144.139 E36.22909
G1 X153.967 Y143.917 E36.23671
G1 X154.120 Y143.608 E36.24810
G1 X154.154 Y143.801 E36.25458
G1 X154.160 Y144.036 E36.26235
G1 X154.145 Y144.165 E36.26664
G1 X153.986 Y144.717 E36.28562
G1 F2100 E35.68562
G0 F12000 X156.564 Y145.687
G1 F2100 E36.28562
G1 F1500 X156.247 Y146.078 E36.30225
G1 X156.665 Y145.158 E36.33564
G1 X156.762 Y145.004 E36.34166
G1 X157.063 Y144.702 E36.35574
G1 X157.028 Y144.892 E36.36213
G1 X156.958 Y145.109 E36.36966
G1 X156.893 Y145.234 E36.37432
G1 X156.564 Y145.687 E36.39282
G1 F2100 E35.79282
G0 F12000 X158.650 Y147.488
G1 F2100 E36.39282
G1 F1500 X158.245 Y147.721 E36.40826
G1 X158.921 Y147.029 E36.44022
G1 X159.079 Y146.907 E36.44682
G1 X159.292 Y146.795 E36.45477
G1 X159.460 Y146.736 E36.46065
G1 X159.244 Y147.046 E36.47314
G1 X159.108 Y147.179 E36.47942
G1 X158.650 Y147.488 E36.49768
G1 F2100 E35.89768
G0 F12000 X159.990 Y149.894
G1 F2100 E36.49768
G1 F1500 X159.496 Y149.989 E36.51430
G1 X160.408 Y149.554 E36.54769
G1 X160.598 Y149.494 E36.55427
G1 X160.845 Y149.460 E36.56251
G1 X161.007 Y149.455 E36.56786
G1 X160.860 Y149.583 E36.57430
G1 X160.666 Y149.705 E36.58188
G1 X160.539 Y149.757 E36.58641
G1 X159.990 Y149.894 E36.60511
G1 F2100 E36.00511
G0 F12000 X160.423 Y152.612
G1 F2100 E36.60511
G1 F1500 X159.975 Y152.532 E36.62015
G1 X160.978 Y152.432 E36.65345
G1 X161.218 Y152.457 E36.66142
G1 X161.364 Y152.493 E36.66639
G1 X161.533 Y152.552 E36.67231
G1 X161.352 Y152.618 E36.67867
G1 X161.128 Y152.665 E36.68624
G1 X160.992 Y152.672 E36.69074
G1 X160.423 Y152.612 E36.70964
G1 F2100 E36.10964
G0 F12000 X159.909 Y155.316
G1 F2100 E36.70964
G1 F1500 X159.484 Y155.077 E36.72575
G1 X160.499 Y155.338 E36.76038
G1 X160.685 Y155.428 E36.76721
G1 X160.972 Y155.647 E36.77914
G1 X160.673 Y155.627 E36.78904
G1 X160.421 Y155.565 E36.79762
G1 X159.909 Y155.316 E36.81643
G1 F2100 E36.21643
G0 F12000 X158.552 Y157.567
G1 F2100 E36.81643
G1 F1500 X159.014 Y157.882 E36.83490
G1 X159.113 Y157.967 E36.83922
G1 X159.299 Y158.201 E36.84909
G1 X159.380 Y158.345 E36.85455
G1 X159.212 Y158.283 E36.86047
G1 X158.960 Y158.140 E36.87004
G1 X158.503 Y157.686 E36.89133
G1 X158.158 Y157.272 E36.90914
G1 X158.552 Y157.567 E36.92540
G1 F2100 E36.32540
G0 F12000 X156.370 Y159.433
G1 F2100 E36.92540
G1 F1500 X156.206 Y158.982 E36.94126
G1 X156.772 Y159.771 E36.97334
G1 X156.861 Y159.943 E36.97974
G1 X156.972 Y160.351 E36.99371
G1 X156.831 Y160.232 E36.99981
G1 X156.631 Y159.999 E37.00995
G1 X156.370 Y159.433 E37.03055
G1 F2100 E36.43055
G0 F12000 X153.766 Y160.332
G1 F2100 E37.03055
G1 F1500 X153.755 Y159.822 E37.04740
G1 X154.030 Y160.805 E37.08113
G1 X154.054 Y160.954 E37.08612
G1 X154.055 Y161.059 E37.08959
G1 X154.012 Y161.399 E37.10091
G1 X153.927 Y161.252 E37.10652
G1 X153.805 Y160.902 E37.11877
G1 X153.766 Y160.332 E37.13765
G1 F2100 E36.53765
G0 F12000 X151.016 Y160.277
G1 F2100 E37.13765
G1 F1500 X151.174 Y159.813 E37.15384
G1 X151.095 Y160.861 E37.18857
G1 X151.034 Y161.080 E37.19608
G1 X150.880 Y161.392 E37.20758
G1 X150.846 Y161.199 E37.21406
G1 X150.840 Y160.964 E37.22182
G1 X150.855 Y160.835 E37.22611
G1 X151.016 Y160.277 E37.24530
G1 F2100 E36.64530
G0 F12000 X148.436 Y159.313
G1 F2100 E37.24530
G1 F1500 X148.753 Y158.922 E37.26194
G1 X148.335 Y159.842 E37.29533
G1 X148.238 Y159.996 E37.30134
G1 X147.938 Y160.297 E37.31538
G1 X147.972 Y160.108 E37.32173
G1 X148.042 Y159.891 E37.32926
G1 X148.107 Y159.766 E37.33392
G1 X148.436 Y159.313 E37.35242
G1 F2100 E36.75242
G0 F12000 X146.350 Y157.512
G1 F2100 E37.35242
G1 F1500 X146.755 Y157.279 E37.36786
G1 X146.079 Y157.971 E37.39982
G1 X145.921 Y158.093 E37.40642
G1 X145.708 Y158.205 E37.41437
G1 X145.540 Y158.264 E37.42025
G1 X145.756 Y157.954 E37.43274
G1 X145.892 Y157.821 E37.43902
G1 X146.350 Y157.512 E37.45728
G1 F2100 E36.85728
G0 F12000 X145.010 Y155.106
G1 F2100 E37.45728
G1 F1500 X145.504 Y155.011 E37.47390
G1 X144.592 Y155.446 E37.50729
G1 X144.402 Y155.506 E37.51387
G1 X144.155 Y155.540 E37.52211
G1 X143.985 Y155.545 E37.52773
G1 X144.140 Y155.416 E37.53439
G1 X144.334 Y155.295 E37.54195
G1 X144.461 Y155.243 E37.54648
G1 X145.010 Y155.106 E37.56518
G1 F2100 E36.96518
G0 F12000 X144.577 Y152.388
G1 F2100 E37.56518
G1 F1500 X145.027 Y152.468 E37.58028
G1 X144.022 Y152.568 E37.61365
G1 X143.860 Y152.557 E37.61902
G1 X143.636 Y152.507 E37.62660
G1 X143.467 Y152.448 E37.63252
G1 X143.648 Y152.382 E37.63888
G1 X143.872 Y152.335 E37.64644
G1 X144.008 Y152.328 E37.65094
G1 X144.577 Y152.388 E37.66985
G1 F2100 E37.06985
G0 F12000 X145.085 Y149.681
G1 F2100 E37.66985
G1 F1500 X145.517 Y149.923 E37.68621
G1 X144.501 Y149.662 E37.72087
G1 X144.315 Y149.572 E37.72770
G1 X144.028 Y149.353 E37.73963
G1 X144.327 Y149.373 E37.74953
G1 X144.579 Y149.435 E37.75810
G1 X145.085 Y149.681 E37.77670
G1 F2100 E37.17670
G0 F12000 X146.448 Y147.433
G1 F2100 E37.77670
G1 F1500 X145.986 Y147.118 E37.79517
G1 X145.887 Y147.033 E37.79948
G1 X145.701 Y146.799 E37.80936
G1 X145.620 Y146.655 E37.81482
G1 X145.788 Y146.717 E37.82074
G1 X146.040 Y146.860 E37.83031
G1 X146.497 Y147.314 E37.85160
G1 X146.842 Y147.728 E37.86940
G1 X146.448 Y147.433 E37.88567
G0 F12000 X146.385 Y148.010
;TYPE:WALL-OUTER
G1 F1500 X145.674 Y147.510 E37.91439
G1 X145.528 Y147.385 E37.92074
G1 X145.283 Y147.076 E37.93377
G1 X145.043 Y146.649 E37.94995
G1 X144.892 Y146.288 E37.96288
G1 X145.140 Y145.993 E37.97562
G1 X145.497 Y146.077 E37.98774
G1 X146.001 Y146.262 E38.00548
G1 X146.329 Y146.449 E38.01795
G1 X146.483 Y146.583 E38.02470
G1 X146.868 Y146.979 E38.04295
G1 X147.059 Y147.208 E38.05280
G1 X147.755 Y146.592 E38.08351
G1 X148.297 Y146.184 E38.10593
G1 X147.802 Y145.493 E38.13401
G1 X147.671 Y145.242 E38.14337
G1 X147.546 Y144.810 E38.15823
G1 X147.481 Y144.327 E38.17433
G1 X147.472 Y144.060 E38.18316
G1 X147.807 Y143.868 E38.19592
G1 X148.121 Y144.072 E38.20829
G1 X148.522 Y144.411 E38.22564
G1 X148.776 Y144.708 E38.23855
G1 X148.847 Y144.824 E38.24305
G1 X149.094 Y145.380 E38.26315
G1 X149.197 Y145.665 E38.27316
G1 X150.073 Y145.324 E38.30422
G1 X150.711 Y145.126 E38.32630
G1 X150.480 Y144.297 E38.35473
G1 X150.447 Y144.091 E38.36163
G1 X150.444 Y143.912 E38.36754
G1 X150.514 Y143.366 E38.38573
G1 X150.659 Y142.850 E38.40344
G1 X151.042 Y142.784 E38.41628
G1 X151.265 Y143.079 E38.42850
G1 X151.529 Y143.539 E38.44603
G1 X151.681 Y143.971 E38.46116
G1 X151.692 Y144.029 E38.46311
G1 X151.734 Y144.649 E38.48364
G1 X151.740 Y144.947 E38.49349
G1 X152.669 Y144.924 E38.52420
G1 X153.342 Y144.960 E38.54647
G1 X153.407 Y144.092 E38.57523
G1 X153.412 Y144.043 E38.57686
G1 X153.507 Y143.719 E38.58801
G1 X153.680 Y143.367 E38.60097
G1 X153.998 Y142.891 E38.61989
G1 X154.069 Y142.803 E38.62362
G1 X154.454 Y142.873 E38.63655
G1 X154.561 Y143.228 E38.64881
G1 X154.652 Y143.749 E38.66628
G1 X154.662 Y144.055 E38.67640
G1 X154.635 Y144.270 E38.68356
G1 X154.465 Y144.860 E38.70385
G1 X154.370 Y145.141 E38.71365
G1 X155.254 Y145.441 E38.74449
G1 X155.869 Y145.703 E38.76658
G1 X156.224 Y144.920 E38.79499
G1 X156.369 Y144.691 E38.80394
G1 X156.687 Y144.361 E38.81909
G1 X157.061 Y144.070 E38.83475
G1 X157.294 Y143.926 E38.84380
G1 X157.629 Y144.121 E38.85660
G1 X157.608 Y144.497 E38.86905
G1 X157.515 Y145.012 E38.88634
G1 X157.419 Y145.305 E38.89653
G1 X157.320 Y145.497 E38.90367
G1 X156.954 Y146.001 E38.92425
G1 X156.769 Y146.229 E38.93395
G1 X157.243 Y146.592 E38.95368
G1 X157.764 Y147.051 E38.97662
G1 X157.985 Y147.272 E38.98695
G1 X158.591 Y146.652 E39.01559
G1 X158.811 Y146.483 E39.02476
G1 X159.089 Y146.336 E39.03515
G1 X159.563 Y146.170 E39.05175
G1 X159.940 Y146.085 E39.06452
G1 X160.187 Y146.381 E39.07725
G1 X160.090 Y146.618 E39.08572
G1 X159.915 Y146.957 E39.09832
G1 X159.628 Y147.371 E39.11497
G1 X159.425 Y147.567 E39.12429
G1 X158.920 Y147.909 E39.14444
G1 X158.658 Y148.060 E39.15444
G1 X159.144 Y148.859 E39.18534
G1 X159.450 Y149.457 E39.20753
G1 X160.228 Y149.087 E39.23600
G1 X160.484 Y149.005 E39.24488
G1 X160.807 Y148.961 E39.25565
G1 X161.005 Y148.954 E39.26220
G1 X161.624 Y149.000 E39.28271
G1 X161.685 Y149.011 E39.28476
G1 X161.815 Y149.379 E39.29765
G1 X161.561 Y149.650 E39.30993
G1 X161.151 Y149.992 E39.32757
G1 X160.898 Y150.149 E39.33741
G1 X160.696 Y150.233 E39.34464
G1 X160.097 Y150.383 E39.36504
G1 X159.806 Y150.439 E39.37483
G1 X159.990 Y151.355 E39.40570
G1 X160.064 Y152.021 E39.42784
G1 X160.943 Y151.934 E39.45703
G1 X160.982 Y151.930 E39.45833
G1 X161.311 Y151.965 E39.46926
G1 X161.850 Y152.133 E39.48791
G1 X162.325 Y152.369 E39.50544
G1 X162.327 Y152.407 E39.50670
G1 X162.321 Y152.752 E39.51810
G1 X161.988 Y152.920 E39.53042
G1 X161.493 Y153.099 E39.54781
G1 X161.193 Y153.162 E39.55794
G1 X160.977 Y153.173 E39.56509
G1 X160.355 Y153.107 E39.58576
G1 X160.073 Y153.057 E39.59522
G1 X159.929 Y153.986 E39.62628
G1 X159.774 Y154.636 E39.64836
G1 X160.626 Y154.855 E39.67743
G1 X160.665 Y154.865 E39.67876
G1 X160.963 Y155.011 E39.68973
G1 X161.412 Y155.353 E39.70838
G1 X161.775 Y155.734 E39.72576
G1 X161.641 Y156.096 E39.73852
G1 X161.272 Y156.141 E39.75080
G1 X161.003 Y156.151 E39.75970
G1 X160.595 Y156.123 E39.77321
G1 X160.243 Y156.034 E39.78521
G1 X159.675 Y155.758 E39.80607
G1 X159.423 Y155.616 E39.81563
G1 X158.979 Y156.430 E39.84627
G1 X158.615 Y156.990 E39.86834
G1 X159.326 Y157.490 E39.89706
G1 X159.472 Y157.615 E39.90341
G1 X159.717 Y157.924 E39.91644
G1 X159.956 Y158.349 E39.93255
G1 X160.108 Y158.712 E39.94555
G1 X159.860 Y159.007 E39.95829
G1 X159.503 Y158.923 E39.97041
G1 X158.999 Y158.738 E39.98815
G1 X158.671 Y158.551 E40.00062
G1 X158.517 Y158.417 E40.00737
G1 X158.132 Y158.021 E40.02562
G1 X157.941 Y157.792 E40.03547
G1 X157.245 Y158.408 E40.06618
G1 X156.703 Y158.816 E40.08860
G1 X157.198 Y159.507 E40.11668
G1 X157.329 Y159.758 E40.12604
G1 X157.454 Y160.190 E40.14090
G1 X157.519 Y160.673 E40.15700
G1 X157.528 Y160.940 E40.16583
G1 X157.193 Y161.132 E40.17859
G1 X156.879 Y160.928 E40.19096
G1 X156.478 Y160.589 E40.20831
G1 X156.222 Y160.290 E40.22132
G1 X156.152 Y160.174 E40.22579
G1 X155.906 Y159.619 E40.24585
G1 X155.803 Y159.335 E40.25584
G1 X154.927 Y159.676 E40.28690
G1 X154.289 Y159.874 E40.30897
G1 X154.520 Y160.703 E40.33741
G1 X154.553 Y160.908 E40.34427
G1 X154.556 Y161.082 E40.35002
G1 X154.486 Y161.634 E40.36840
G1 X154.341 Y162.150 E40.38611
G1 X153.958 Y162.216 E40.39896
G1 X153.735 Y161.921 E40.41117
G1 X153.471 Y161.461 E40.42870
G1 X153.308 Y160.968 E40.44586
G1 X153.266 Y160.351 E40.46629
G1 X153.260 Y160.053 E40.47614
G1 X152.331 Y160.076 E40.50685
G1 X151.658 Y160.040 E40.52912
G1 X151.593 Y160.908 E40.55788
G1 X151.589 Y160.954 E40.55940
G1 X151.493 Y161.281 E40.57066
G1 X151.320 Y161.633 E40.58362
G1 X151.004 Y162.106 E40.60242
G1 X150.931 Y162.197 E40.60627
G1 X150.546 Y162.127 E40.61920
G1 X150.439 Y161.772 E40.63145
G1 X150.348 Y161.251 E40.64893
G1 X150.338 Y160.945 E40.65905
G1 X150.365 Y160.730 E40.66621
G1 X150.535 Y160.140 E40.68650
G1 X150.630 Y159.859 E40.69630
G1 X149.746 Y159.559 E40.72714
G1 X149.131 Y159.297 E40.74923
G1 X148.778 Y160.076 E40.77749
G1 X148.631 Y160.309 E40.78659
G1 X148.313 Y160.639 E40.80174
G1 X147.939 Y160.930 E40.81739
G1 X147.706 Y161.074 E40.82644
G1 X147.371 Y160.879 E40.83925
G1 X147.392 Y160.503 E40.85170
G1 X147.485 Y159.988 E40.86899
G1 X147.581 Y159.695 E40.87918
G1 X147.680 Y159.503 E40.88631
G1 X148.047 Y158.997 E40.90697
G1 X148.231 Y158.771 E40.91660
G1 X147.756 Y158.407 E40.93637
G1 X147.232 Y157.945 E40.95945
G1 X147.015 Y157.728 E40.96959
G1 X146.409 Y158.348 E40.99824
G1 X146.189 Y158.517 E41.00741
G1 X145.911 Y158.664 E41.01780
G1 X145.437 Y158.830 E41.03439
G1 X145.060 Y158.915 E41.04716
G1 X144.813 Y158.619 E41.05990
G1 X144.910 Y158.382 E41.06836
G1 X145.085 Y158.043 E41.08097
G1 X145.372 Y157.629 E41.09762
G1 X145.575 Y157.433 E41.10694
G1 X146.080 Y157.091 E41.12709
G1 X146.342 Y156.940 E41.13708
G1 X145.854 Y156.137 E41.16813
G1 X145.550 Y155.543 E41.19018
G1 X144.772 Y155.913 E41.21865
G1 X144.516 Y155.995 E41.22753
G1 X144.193 Y156.039 E41.23830
G1 X143.995 Y156.046 E41.24485
G1 X143.376 Y156.000 E41.26536
G1 X143.315 Y155.989 E41.26741
G1 X143.185 Y155.621 E41.28030
G1 X143.439 Y155.350 E41.29257
G1 X143.849 Y155.008 E41.31022
G1 X144.102 Y154.851 E41.32005
G1 X144.304 Y154.767 E41.32728
G1 X144.903 Y154.617 E41.34769
G1 X145.194 Y154.561 E41.35748
G1 X145.010 Y153.645 E41.38835
G1 X144.928 Y152.980 E41.41049
G1 X144.057 Y153.066 E41.43941
G1 X144.018 Y153.070 E41.44071
G1 X143.688 Y153.035 E41.45167
G1 X143.150 Y152.867 E41.47029
G1 X142.675 Y152.631 E41.48782
G1 X142.673 Y152.593 E41.48908
G1 X142.679 Y152.248 E41.50048
G1 X143.012 Y152.080 E41.51280
G1 X143.507 Y151.901 E41.53020
G1 X143.807 Y151.838 E41.54032
G1 X144.023 Y151.827 E41.54747
G1 X144.645 Y151.893 E41.56814
G1 X144.927 Y151.943 E41.57760
G1 X145.069 Y151.023 E41.60836
G1 X145.218 Y150.362 E41.63075
G1 X144.374 Y150.145 E41.65955
G1 X144.335 Y150.135 E41.66088
G1 X144.037 Y149.989 E41.67184
G1 X143.588 Y149.647 E41.69049
G1 X143.225 Y149.266 E41.70788
G1 X143.359 Y148.904 E41.72063
G1 X143.728 Y148.859 E41.73292
G1 X143.997 Y148.849 E41.74181
G1 X144.405 Y148.877 E41.75532
G1 X144.757 Y148.966 E41.76732
G1 X145.325 Y149.242 E41.78819
G1 X145.577 Y149.384 E41.79775
G1 X146.021 Y148.570 E41.82838
G1 X146.385 Y148.010 E41.85045
G1 F2100 E41.25045
G0 F12000 X147.603 Y149.301
G1 F2100 E41.85045
G1 F1500 X147.355 Y149.716 E41.86643
G1 X147.141 Y150.154 E41.88253
G1 X146.889 Y150.866 E41.90749
G1 X146.731 Y151.535 E41.93020
G1 X146.671 Y152.017 E41.94625
G1 X146.651 Y152.504 E41.96236
G1 X146.704 Y153.257 E41.98730
G1 X146.829 Y153.933 E42.01002
G1 X146.968 Y154.403 E42.02621
G1 X147.261 Y155.092 E42.05095
G1 X147.603 Y155.699 E42.07397
G1 X147.886 Y156.096 E42.09008
G1 X148.391 Y156.658 E42.11505
G1 X148.905 Y157.115 E42.13777
G1 X149.301 Y157.397 E42.15384
G1 X149.716 Y157.645 E42.16981
G1 X150.154 Y157.859 E42.18592
G1 X150.866 Y158.111 E42.21088
G1 X151.535 Y158.269 E42.23359
G1 X152.017 Y158.329 E42.24964
G1 X152.504 Y158.349 E42.26574
G1 X153.257 Y158.296 E42.29069
G1 X153.933 Y158.171 E42.31340
G1 X154.403 Y158.032 E42.32960
G1 X155.092 Y157.739 E42.35434
G1 X155.699 Y157.397 E42.37736
G1 X156.096 Y157.114 E42.39347
G1 X156.658 Y156.609 E42.41843
G1 X157.115 Y156.095 E42.44116
G1 X157.397 Y155.699 E42.45722
G1 X157.645 Y155.284 E42.47320
G1 X157.859 Y154.846 E42.48931
G1 X158.111 Y154.134 E42.51426
G1 X158.269 Y153.465 E42.53698
G1 X158.329 Y152.983 E42.55302
G1 X158.349 Y152.496 E42.56913
G1 X158.296 Y151.743 E42.59407
G1 X158.171 Y151.067 E42.61679
G1 X158.032 Y150.597 E42.63298
G1 X157.739 Y149.908 E42.65772
G1 X157.397 Y149.301 E42.68074
G1 X157.114 Y148.904 E42.69685
G1 X156.609 Y148.342 E42.72182
G1 X156.095 Y147.885 E42.74454
G1 X155.699 Y147.603 E42.76061
G1 X155.284 Y147.355 E42.77658
G1 X154.846 Y147.141 E42.79269
G1 X154.134 Y146.889 E42.81765
G1 X153.465 Y146.731 E42.84036
G1 X152.983 Y146.671 E42.85641
G1 X152.496 Y146.651 E42.87252
G1 X151.743 Y146.704 E42.89746
G1 X151.067 Y146.829 E42.92017
G1 X150.597 Y146.968 E42.93637
G1 X149.908 Y147.261 E42.96111
G1 X149.301 Y147.603 E42.98413
G1 X148.904 Y147.886 E43.00024
G1 X148.342 Y148.391 E43.02520
G1 X147.885 Y148.905 E43.04793
G1 X147.603 Y149.301 E43.06399
G0 F12000 X147.000 Y148.994
;TYPE:SKIN
G1 F1500 X147.250 Y148.312 E43.08680
G1 X147.750 Y147.755 E43.10673
G1 X148.250 Y147.311 E43.12370
G1 X148.750 Y146.936 E43.13923
G1 X149.250 Y146.604 E43.15569
G1 X149.750 Y146.177 E43.16998
G1 X150.250 Y146.390 E43.18352
G1 X150.750 Y145.820 E43.19655
G1 X151.250 Y146.110 E43.21019
G1 X151.750 Y145.623 E43.22453
G1 X152.250 Y145.992 E43.23751
G1 X152.750 Y145.611 E43.24977
G1 X153.250 Y146.025 E43.26225
G1 X153.750 Y145.690 E43.27577
G1 X154.250 Y146.233 E43.28992
G1 X154.750 Y145.985 E43.30316
G1 X155.250 Y146.379 E43.31675
G1 X155.750 Y146.601 E43.33092
G1 X156.250 Y146.935 E43.34753
G1 X156.750 Y147.311 E43.36303
G1 X157.250 Y147.764 E43.37980
G1 X157.750 Y148.300 E43.39898
G1 X158.250 Y149.046 E43.42260
G1 X158.500 Y149.970 E43.45423
G0 F12000 X159.000 Y150.063
G1 F1500 X159.000 Y152.133 E43.52263
G0 F12000 X159.000 Y153.058
G1 F1500 X159.000 Y154.925 E43.58432
G0 F12000 X158.500 Y155.058
G1 F1500 X158.250 Y155.952 E43.61205
G1 X157.750 Y156.687 E43.63490
G1 X157.250 Y157.245 E43.65480
G1 X156.750 Y157.688 E43.67176
G1 X156.250 Y158.063 E43.68729
G1 X155.750 Y158.396 E43.70376
G1 X155.250 Y158.823 E43.71806
G1 X154.750 Y158.609 E43.73161
G1 X154.250 Y159.179 E43.74464
G1 X153.750 Y158.890 E43.75826
G1 X153.250 Y159.376 E43.77259
G1 X152.750 Y159.007 E43.78557
G1 X152.250 Y159.389 E43.79779
G1 X151.750 Y158.975 E43.81028
G1 X151.250 Y159.310 E43.82380
G1 X150.750 Y158.767 E43.83795
G1 X150.250 Y159.015 E43.85115
G1 X149.750 Y158.620 E43.86471
G1 X149.250 Y158.399 E43.87887
G1 X148.750 Y158.064 E43.89550
G1 X148.250 Y157.688 E43.91100
G1 X147.750 Y157.236 E43.92775
G1 X147.250 Y156.699 E43.94695
G1 X146.750 Y155.953 E43.97057
G1 X146.500 Y155.030 E44.00217
G0 F12000 X146.000 Y154.937
G1 F1500 X146.000 Y152.867 E44.07057
G0 F12000 X146.000 Y151.942
G1 F1500 X146.000 Y150.022 E44.13401
G0 F12000 X146.500 Y149.942
G1 F1500 X146.500 Y149.105 E44.16166
;LAYER:3
G0 F12000 X146.453 Y148.823 Z0.650
;TYPE:WALL-INNER
G1 F1620 X147.086 Y147.852 E44.19996
G1 X148.075 Y146.977 E44.24360
G1 X149.002 Y146.280 E44.28192
G1 X150.238 Y145.795 E44.32579
G1 X151.341 Y145.458 E44.36390
G1 X152.664 Y145.425 E44.40763
G1 X153.820 Y145.486 E44.44588
G1 X155.073 Y145.908 E44.48957
G1 X156.138 Y146.360 E44.52780
G1 X157.170 Y147.184 E44.57143
G1 X158.018 Y147.976 E44.60977
G1 X158.710 Y149.107 E44.65358
G1 X159.207 Y150.147 E44.69167
G1 X159.237 Y150.133 E44.69277
G1 X159.496 Y151.438 E44.73673
G1 X159.607 Y152.584 E44.77477
G1 X159.640 Y152.581 E44.77587
G1 X159.440 Y153.883 E44.81939
G1 X159.179 Y155.016 E44.85781
G1 X158.547 Y156.177 E44.90149
G1 X157.914 Y157.148 E44.93979
G1 X156.925 Y158.023 E44.98342
G1 X155.998 Y158.720 E45.02174
G1 X154.762 Y159.205 E45.06562
G1 X153.659 Y159.542 E45.10372
G1 X152.336 Y159.575 E45.14745
G1 X151.180 Y159.514 E45.18570
G1 X149.927 Y159.092 E45.22939
G1 X148.862 Y158.640 E45.26762
G1 X147.825 Y157.812 E45.31147
G1 X146.982 Y157.024 E45.34960
G1 X146.291 Y155.894 E45.39336
G1 X145.768 Y154.864 E45.43153
G1 X145.503 Y153.558 E45.47557
G1 X145.365 Y152.419 E45.51348
G1 X145.560 Y151.117 E45.55698
G1 X145.821 Y149.984 E45.59539
G1 X146.453 Y148.823 E45.63907
G0 F12000 X147.178 Y149.035
G1 F1620 X146.825 Y149.662 E45.66285
G1 X146.684 Y149.950 E45.67344
G1 X146.494 Y150.439 E45.69078
G1 X146.342 Y150.951 E45.70843
G1 X146.211 Y151.660 E45.73225
G1 X146.172 Y151.976 E45.74277
G1 X146.150 Y152.500 E45.76010
G1 X146.172 Y153.024 E45.77743
G1 X146.237 Y153.544 E45.79475
G1 X146.344 Y154.058 E45.81209
G1 X146.497 Y154.570 E45.82975
G1 X146.774 Y155.234 E45.85352
G1 X146.915 Y155.522 E45.86412
G1 X147.184 Y155.973 E45.88147
G1 X147.494 Y156.408 E45.89912
G1 X147.986 Y156.961 E45.92358
G1 X148.591 Y157.505 E45.95046
G1 X149.035 Y157.822 E45.96849
G1 X149.662 Y158.175 E45.99226
G1 X149.950 Y158.316 E46.00286
G1 X150.439 Y158.506 E46.02019
G1 X150.951 Y158.658 E46.03784
G1 X151.660 Y158.789 E46.06166
G1 X151.976 Y158.828 E46.07219
G1 X152.500 Y158.850 E46.08952
G1 X153.024 Y158.828 E46.10684
G1 X153.544 Y158.763 E46.12416
G1 X154.058 Y158.656 E46.14151
G1 X154.570 Y158.503 E46.15917
G1 X155.234 Y158.226 E46.18294
G1 X155.522 Y158.085 E46.19353
G1 X155.973 Y157.816 E46.21089
G1 X156.408 Y157.506 E46.22854
G1 X156.961 Y157.014 E46.25299
G1 X157.505 Y156.409 E46.27988
G1 X157.822 Y155.965 E46.29790
G1 X158.175 Y155.338 E46.32168
G1 X158.316 Y155.050 E46.33227
G1 X158.506 Y154.561 E46.34961
G1 X158.658 Y154.049 E46.36726
G1 X158.789 Y153.340 E46.39108
G1 X158.828 Y153.024 E46.40160
G1 X158.850 Y152.500 E46.41893
G1 X158.828 Y151.976 E46.43626
G1 X158.763 Y151.456 E46.45358
G1 X158.656 Y150.942 E46.47092
G1 X158.503 Y150.430 E46.48858
G1 X158.226 Y149.766 E46.51235
G1 X158.085 Y149.478 E46.52295
G1 X157.816 Y149.027 E46.54030
G1 X157.506 Y148.592 E46.55795
G1 X157.014 Y148.039 E46.58241
G1 X156.409 Y147.495 E46.60929
G1 X155.965 Y147.178 E46.62732
G1 X155.338 Y146.825 E46.65109
G1 X155.050 Y146.684 E46.66169
G1 X154.561 Y146.494 E46.67902
G1 X154.049 Y146.342 E46.69667
G1 X153.340 Y146.211 E46.72050
G1 X153.024 Y146.172 E46.73102
G1 X152.500 Y146.150 E46.74835
G1 X151.976 Y146.172 E46.76567
G1 X151.456 Y146.237 E46.78299
G1 X150.942 Y146.344 E46.80034
G1 X150.430 Y146.497 E46.81800
G1 X149.766 Y146.774 E46.84177
G1 X149.478 Y146.915 E46.85236
G1 X149.027 Y147.184 E46.86972
G1 X148.592 Y147.494 E46.88737
G1 X148.039 Y147.986 E46.91182
G1 X147.495 Y148.591 E46.93871
G1 X147.178 Y149.035 E46.95673
G1 F2100 E46.35673
G0 F12000 X145.096 Y149.667
G1 F2100 E46.95673
G1 F1620 X145.549 Y149.914 E46.97378
G1 X144.561 Y149.660 E47.00749
G1 X144.429 Y149.610 E47.01215
G1 X144.165 Y149.450 E47.02235
G1 X144.035 Y149.338 E47.02802
G1 X144.429 Y149.373 E47.04109
G1 X144.595 Y149.422 E47.04681
G1 X145.096 Y149.667 E47.06524
G1 F2100 E46.46524
G0 F12000 X146.508 Y147.302
G1 F2100 E47.06524
G1 F1620 X146.825 Y147.673 E47.08136
G1 X146.002 Y147.109 E47.11433
G1 X145.808 Y146.915 E47.12340
G1 X145.621 Y146.635 E47.13452
G1 X145.817 Y146.709 E47.14145
G1 X145.996 Y146.804 E47.14814
G1 X146.115 Y146.894 E47.15307
G1 X146.508 Y147.302 E47.17179
G1 F2100 E46.57179
G0 F12000 X148.644 Y145.559
G1 F2100 E47.17179
G1 F1620 X148.835 Y146.046 E47.18907
G1 X148.244 Y145.221 E47.22261
G1 X148.179 Y145.106 E47.22697
G1 X148.055 Y144.705 E47.24084
G1 X148.046 Y144.638 E47.24308
G1 X148.189 Y144.761 E47.24931
G1 X148.413 Y145.035 E47.26100
G1 X148.644 Y145.559 E47.27992
G1 F2100 E46.67992
G0 F12000 X150.990 Y144.202
G1 F2100 E47.27992
G1 F1620 X150.964 Y144.049 E47.28505
G1 X150.963 Y143.938 E47.28872
G1 X151.006 Y143.600 E47.29998
G1 X151.104 Y143.768 E47.30640
G1 X151.179 Y143.954 E47.31303
G1 X151.214 Y144.105 E47.31815
G1 X151.251 Y144.649 E47.33617
G1 X151.259 Y145.166 E47.35326
G1 X150.990 Y144.202 E47.38633
G1 F2100 E46.78633
G0 F12000 X153.917 Y144.215
G1 F2100 E47.38633
G1 F1620 X153.999 Y143.894 E47.39727
G1 X154.146 Y143.600 E47.40813
G1 X154.176 Y143.829 E47.41576
G1 X154.181 Y144.020 E47.42208
G1 X154.167 Y144.152 E47.42646
G1 X154.010 Y144.696 E47.44517
G1 X153.842 Y145.202 E47.46279
G1 X153.917 Y144.215 E47.49550
G1 F2100 E46.89550
G0 F12000 X156.676 Y145.175
G1 F2100 E47.49550
G1 F1620 X156.745 Y145.058 E47.49999
G1 X157.028 Y144.754 E47.51371
G1 X157.084 Y144.710 E47.51606
G1 X157.015 Y144.999 E47.52588
G1 X156.897 Y145.259 E47.53531
G1 X156.576 Y145.700 E47.55334
G1 X156.245 Y146.124 E47.57111
G1 X156.676 Y145.175 E47.60555
G1 F2100 E47.00555
G0 F12000 X158.912 Y147.064
G1 F2100 E47.60555
G1 F1620 X159.175 Y146.875 E47.61625
G1 X159.467 Y146.752 E47.62672
G1 X159.371 Y146.915 E47.63297
G1 X159.240 Y147.083 E47.64001
G1 X159.126 Y147.188 E47.64513
G1 X158.659 Y147.502 E47.66373
G1 X158.240 Y147.750 E47.67982
G1 X158.912 Y147.064 E47.71155
G1 F2100 E47.11155
G0 F12000 X160.412 Y149.572
G1 F2100 E47.71155
G1 F1620 X160.542 Y149.526 E47.71610
G1 X160.860 Y149.478 E47.72673
G1 X161.021 Y149.474 E47.73205
G1 X160.862 Y149.605 E47.73886
G1 X160.685 Y149.716 E47.74576
G1 X160.543 Y149.776 E47.75086
G1 X160.003 Y149.909 E47.76923
G1 X159.503 Y150.006 E47.78606
G1 X160.412 Y149.572 E47.81934
G1 F2100 E47.21934
G0 F12000 X160.961 Y152.452
G1 F2100 E47.81934
G1 F1620 X160.994 Y152.449 E47.82044
G1 X161.060 Y152.452 E47.82262
G1 X161.386 Y152.519 E47.83362
G1 X161.537 Y152.572 E47.83891
G1 X161.343 Y152.640 E47.84570
G1 X161.147 Y152.682 E47.85232
G1 X160.991 Y152.690 E47.85748
G1 X160.441 Y152.631 E47.87576
G1 X159.939 Y152.552 E47.89255
G1 X160.961 Y152.452 E47.92648
G1 F2100 E47.32648
G0 F12000 X160.439 Y155.340
G1 F2100 E47.92648
G1 F1620 X160.571 Y155.390 E47.93115
G1 X160.835 Y155.550 E47.94135
G1 X160.965 Y155.662 E47.94702
G1 X160.571 Y155.627 E47.96009
G1 X160.405 Y155.578 E47.96581
G1 X159.904 Y155.333 E47.98424
G1 X159.451 Y155.086 E48.00128
G1 X160.439 Y155.340 E48.03499
G1 F2100 E47.43499
G0 F12000 X158.995 Y157.889
G1 F2100 E48.03499
G1 F1620 X159.045 Y157.928 E48.03709
G1 X159.192 Y158.085 E48.04419
G1 X159.379 Y158.365 E48.05532
G1 X159.183 Y158.291 E48.06224
G1 X159.004 Y158.196 E48.06894
G1 X158.885 Y158.106 E48.07387
G1 X158.492 Y157.698 E48.09259
G1 X158.175 Y157.327 E48.10871
G1 X158.995 Y157.889 E48.14156
G1 F2100 E47.54156
G0 F12000 X156.756 Y159.779
G1 F2100 E48.14156
G1 F1620 X156.821 Y159.894 E48.14592
G1 X156.945 Y160.295 E48.15979
G1 X156.954 Y160.361 E48.16199
G1 X156.811 Y160.239 E48.16820
G1 X156.587 Y159.965 E48.17990
G1 X156.356 Y159.441 E48.19882
G1 X156.165 Y158.954 E48.21611
G1 X156.756 Y159.779 E48.24964
G1 F2100 E47.64964
G0 F12000 X154.010 Y160.797
G1 F2100 E48.24964
G1 F1620 X154.036 Y160.951 E48.25480
G1 X154.037 Y161.062 E48.25847
G1 X153.994 Y161.400 E48.26973
G1 X153.895 Y161.231 E48.27620
G1 X153.821 Y161.046 E48.28278
G1 X153.786 Y160.894 E48.28793
G1 X153.749 Y160.349 E48.30598
G1 X153.741 Y159.834 E48.32300
G1 X154.010 Y160.797 E48.35604
G1 F2100 E47.75604
G0 F12000 X151.083 Y160.785
G1 F2100 E48.35604
G1 F1620 X151.001 Y161.106 E48.36699
G1 X150.864 Y161.385 E48.37726
G1 X150.854 Y161.400 E48.37785
G1 X150.824 Y161.171 E48.38549
G1 X150.819 Y160.980 E48.39180
G1 X150.833 Y160.848 E48.39619
G1 X150.995 Y160.289 E48.41542
G1 X151.158 Y159.798 E48.43251
G1 X151.083 Y160.785 E48.46522
G1 F2100 E47.86522
G0 F12000 X148.324 Y159.825
G1 F2100 E48.46522
G1 F1620 X148.255 Y159.942 E48.46971
G1 X147.972 Y160.246 E48.48343
G1 X147.916 Y160.290 E48.48578
G1 X147.985 Y160.000 E48.49563
G1 X148.103 Y159.741 E48.50504
G1 X148.428 Y159.295 E48.52327
G1 X148.755 Y158.876 E48.54083
G1 X148.324 Y159.825 E48.57527
G1 F2100 E47.97527
G0 F12000 X146.088 Y157.936
G1 F2100 E48.57527
G1 F1620 X145.825 Y158.125 E48.58598
G1 X145.533 Y158.248 E48.59644
G1 X145.630 Y158.083 E48.60277
G1 X145.760 Y157.917 E48.60974
G1 X145.874 Y157.812 E48.61486
G1 X146.341 Y157.498 E48.63345
G1 X146.760 Y157.250 E48.64954
G1 X146.088 Y157.936 E48.68127
G1 F2100 E48.08127
G0 F12000 X144.588 Y155.428
G1 F2100 E48.68127
G1 F1620 X144.458 Y155.474 E48.68583
G1 X144.140 Y155.522 E48.69645
G1 X143.979 Y155.526 E48.70178
G1 X144.138 Y155.395 E48.70858
G1 X144.315 Y155.284 E48.71549
G1 X144.457 Y155.224 E48.72058
G1 X144.997 Y155.091 E48.73896
G1 X145.495 Y154.995 E48.75571
G1 X144.588 Y155.428 E48.78892
G1 F2100 E48.18892
G0 F12000 X144.039 Y152.548
G1 F2100 E48.78892
G1 F1620 X144.006 Y152.551 E48.79002
G1 X143.940 Y152.548 E48.79220
G1 X143.614 Y152.481 E48.80320
G1 X143.463 Y152.428 E48.80849
G1 X143.657 Y152.360 E48.81528
G1 X143.853 Y152.318 E48.82190
G1 X144.009 Y152.310 E48.82706
G1 X144.559 Y152.369 E48.84534
G1 X145.062 Y152.449 E48.86217
G1 X144.039 Y152.548 E48.89613
G0 F12000 X144.078 Y153.046
;TYPE:WALL-OUTER
G1 F1620 X144.017 Y153.051 E48.89815
G1 X143.875 Y153.045 E48.90285
G1 X143.486 Y152.966 E48.91597
G1 X143.160 Y152.851 E48.92739
G1 X142.674 Y152.615 E48.94524
G1 X142.673 Y152.584 E48.94627
G1 X142.680 Y152.227 E48.95806
G1 X143.044 Y152.045 E48.97151
G1 X143.522 Y151.877 E48.98825
G1 X143.784 Y151.821 E48.99710
G1 X144.024 Y151.809 E49.00504
G1 X144.632 Y151.874 E49.02525
G1 X144.931 Y151.921 E49.03525
G1 X145.068 Y151.027 E49.06514
G1 X145.224 Y150.347 E49.08819
G1 X144.413 Y150.138 E49.11586
G1 X144.208 Y150.061 E49.12310
G1 X143.870 Y149.855 E49.13618
G1 X143.520 Y149.556 E49.15139
G1 X143.231 Y149.246 E49.16539
G1 X143.364 Y148.885 E49.17810
G1 X143.768 Y148.838 E49.19154
G1 X143.979 Y148.831 E49.19852
G1 X144.524 Y148.880 E49.21660
G1 X144.772 Y148.952 E49.22513
G1 X145.322 Y149.221 E49.24536
G1 X145.586 Y149.365 E49.25530
G1 X146.022 Y148.568 E49.28532
G1 X146.401 Y147.988 E49.30821
G1 X145.706 Y147.512 E49.33604
G1 X145.613 Y147.438 E49.33997
G1 X145.416 Y147.228 E49.34949
G1 X145.189 Y146.890 E49.36294
G1 X144.947 Y146.395 E49.38114
G1 X144.902 Y146.276 E49.38535
G1 X145.154 Y145.978 E49.39824
G1 X145.546 Y146.072 E49.41156
G1 X146.018 Y146.250 E49.42823
G1 X146.265 Y146.381 E49.43747
G1 X146.450 Y146.521 E49.44514
G1 X146.877 Y146.964 E49.46547
G1 X147.073 Y147.193 E49.47543
G1 X147.762 Y146.587 E49.50575
G1 X148.311 Y146.174 E49.52845
G1 X147.822 Y145.491 E49.55620
G1 X147.717 Y145.306 E49.56323
G1 X147.566 Y144.817 E49.58014
G1 X147.498 Y144.312 E49.59698
G1 X147.491 Y144.051 E49.60561
G1 X147.827 Y143.859 E49.61839
G1 X148.163 Y144.079 E49.63166
G1 X148.546 Y144.409 E49.64837
G1 X148.814 Y144.731 E49.66221
G1 X148.860 Y144.811 E49.66526
G1 X149.105 Y145.364 E49.68525
G1 X149.219 Y145.656 E49.69560
G1 X150.072 Y145.323 E49.72586
G1 X150.728 Y145.123 E49.74852
G1 X150.501 Y144.308 E49.77648
G1 X150.465 Y144.095 E49.78361
G1 X150.462 Y143.910 E49.78973
G1 X150.529 Y143.383 E49.80728
G1 X150.679 Y142.847 E49.82567
G1 X151.066 Y142.780 E49.83865
G1 X151.219 Y142.978 E49.84692
G1 X151.552 Y143.544 E49.86862
G1 X151.657 Y143.802 E49.87782
G1 X151.711 Y144.038 E49.88582
G1 X151.751 Y144.630 E49.90543
G1 X151.756 Y144.946 E49.91587
G1 X152.666 Y144.924 E49.94595
G1 X153.359 Y144.961 E49.96888
G1 X153.421 Y144.132 E49.99635
G1 X153.527 Y143.720 E50.01040
G1 X153.701 Y143.366 E50.02344
G1 X153.931 Y143.012 E50.03739
G1 X154.093 Y142.808 E50.04599
G1 X154.473 Y142.876 E50.05875
G1 X154.591 Y143.273 E50.07243
G1 X154.675 Y143.784 E50.08955
G1 X154.682 Y144.038 E50.09794
G1 X154.653 Y144.272 E50.10573
G1 X154.486 Y144.851 E50.12564
G1 X154.387 Y145.147 E50.13596
G1 X155.252 Y145.440 E50.16613
G1 X155.885 Y145.709 E50.18886
G1 X156.233 Y144.943 E50.21666
G1 X156.342 Y144.757 E50.22378
G1 X156.690 Y144.383 E50.24066
G1 X157.084 Y144.077 E50.25715
G1 X157.312 Y143.937 E50.26599
G1 X157.653 Y144.136 E50.27904
G1 X157.652 Y144.167 E50.28006
G1 X157.653 Y144.189 E50.28079
G1 X157.595 Y144.724 E50.29857
G1 X157.492 Y145.160 E50.31337
G1 X157.330 Y145.514 E50.32624
G1 X156.981 Y145.993 E50.34582
G1 X156.790 Y146.238 E50.35608
G1 X157.497 Y146.806 E50.38605
G1 X158.003 Y147.277 E50.40889
G1 X158.586 Y146.682 E50.43642
G1 X158.930 Y146.435 E50.45041
G1 X159.402 Y146.237 E50.46732
G1 X159.894 Y146.107 E50.48414
G1 X159.948 Y146.097 E50.48595
G1 X160.198 Y146.397 E50.49886
G1 X160.035 Y146.774 E50.51243
G1 X159.783 Y147.201 E50.52881
G1 X159.608 Y147.423 E50.53815
G1 X159.438 Y147.581 E50.54582
G1 X158.929 Y147.923 E50.56608
G1 X158.669 Y148.077 E50.57607
G1 X159.149 Y148.867 E50.60661
G1 X159.448 Y149.478 E50.62909
G1 X160.218 Y149.110 E50.65729
G1 X160.425 Y149.037 E50.66454
G1 X160.811 Y148.979 E50.67744
G1 X161.009 Y148.973 E50.68398
G1 X161.690 Y149.034 E50.70657
G1 X161.821 Y149.398 E50.71936
G1 X161.538 Y149.698 E50.73298
G1 X161.158 Y150.009 E50.74921
G1 X160.914 Y150.162 E50.75873
G1 X160.704 Y150.251 E50.76626
G1 X160.107 Y150.398 E50.78658
G1 X159.811 Y150.455 E50.79654
G1 X159.988 Y151.345 E50.82652
G1 X160.037 Y151.725 E50.83918
G1 X160.063 Y152.037 E50.84953
G1 X160.922 Y151.954 E50.87804
G1 X160.983 Y151.949 E50.88007
G1 X161.125 Y151.955 E50.88476
G1 X161.514 Y152.034 E50.89788
G1 X161.840 Y152.149 E50.90930
G1 X162.326 Y152.385 E50.92715
G1 X162.327 Y152.416 E50.92818
G1 X162.320 Y152.773 E50.93998
G1 X161.956 Y152.955 E50.95342
G1 X161.478 Y153.123 E50.97016
G1 X161.216 Y153.179 E50.97902
G1 X160.976 Y153.191 E50.98696
G1 X160.368 Y153.126 E51.00716
G1 X160.069 Y153.079 E51.01716
G1 X159.932 Y153.973 E51.04705
G1 X159.776 Y154.653 E51.07010
G1 X160.587 Y154.862 E51.09777
G1 X160.792 Y154.939 E51.10501
G1 X161.130 Y155.145 E51.11809
G1 X161.480 Y155.444 E51.13330
G1 X161.769 Y155.754 E51.14730
G1 X161.636 Y156.115 E51.16001
G1 X161.232 Y156.162 E51.17345
G1 X161.021 Y156.169 E51.18043
G1 X160.476 Y156.120 E51.19851
G1 X160.228 Y156.048 E51.20704
G1 X159.678 Y155.779 E51.22727
G1 X159.414 Y155.635 E51.23721
G1 X158.978 Y156.432 E51.26723
G1 X158.599 Y157.012 E51.29012
G1 X159.294 Y157.488 E51.31796
G1 X159.386 Y157.561 E51.32184
G1 X159.584 Y157.772 E51.33140
G1 X159.811 Y158.110 E51.34485
G1 X160.053 Y158.605 E51.36306
G1 X160.098 Y158.724 E51.36726
G1 X159.846 Y159.022 E51.38016
G1 X159.454 Y158.928 E51.39348
G1 X158.982 Y158.750 E51.41014
G1 X158.735 Y158.619 E51.41938
G1 X158.550 Y158.479 E51.42705
G1 X158.123 Y158.036 E51.44738
G1 X157.927 Y157.807 E51.45734
G1 X157.238 Y158.413 E51.48766
G1 X156.689 Y158.826 E51.51036
G1 X157.178 Y159.509 E51.53811
G1 X157.283 Y159.694 E51.54514
G1 X157.434 Y160.183 E51.56205
G1 X157.502 Y160.688 E51.57889
G1 X157.509 Y160.949 E51.58752
G1 X157.173 Y161.141 E51.60031
G1 X156.835 Y160.919 E51.61367
G1 X156.454 Y160.591 E51.63028
G1 X156.186 Y160.269 E51.64412
G1 X156.140 Y160.189 E51.64717
G1 X155.891 Y159.626 E51.66751
G1 X155.781 Y159.344 E51.67751
G1 X154.928 Y159.677 E51.70777
G1 X154.272 Y159.877 E51.73043
G1 X154.499 Y160.692 E51.75839
G1 X154.535 Y160.905 E51.76552
G1 X154.538 Y161.090 E51.77164
G1 X154.471 Y161.617 E51.78919
G1 X154.321 Y162.153 E51.80758
G1 X153.934 Y162.220 E51.82056
G1 X153.781 Y162.022 E51.82883
G1 X153.448 Y161.456 E51.85053
G1 X153.342 Y161.195 E51.85984
G1 X153.289 Y160.962 E51.86773
G1 X153.249 Y160.370 E51.88734
G1 X153.244 Y160.054 E51.89778
G1 X152.334 Y160.076 E51.92786
G1 X151.641 Y160.039 E51.95079
G1 X151.579 Y160.868 E51.97826
G1 X151.473 Y161.280 E51.99231
G1 X151.300 Y161.632 E52.00527
G1 X151.069 Y161.988 E52.01930
G1 X150.907 Y162.192 E52.02790
G1 X150.527 Y162.124 E52.04066
G1 X150.409 Y161.727 E52.05434
G1 X150.325 Y161.210 E52.07165
G1 X150.318 Y160.962 E52.07985
G1 X150.347 Y160.728 E52.08764
G1 X150.514 Y160.149 E52.10755
G1 X150.613 Y159.853 E52.11787
G1 X149.748 Y159.560 E52.14804
G1 X149.115 Y159.291 E52.17077
G1 X148.767 Y160.057 E52.19857
G1 X148.658 Y160.243 E52.20569
G1 X148.310 Y160.617 E52.22257
G1 X147.916 Y160.923 E52.23906
G1 X147.688 Y161.063 E52.24790
G1 X147.347 Y160.864 E52.26094
G1 X147.348 Y160.833 E52.26197
G1 X147.347 Y160.811 E52.26270
G1 X147.405 Y160.276 E52.28048
G1 X147.508 Y159.840 E52.29528
G1 X147.670 Y159.486 E52.30814
G1 X148.019 Y159.007 E52.32773
G1 X148.210 Y158.762 E52.33799
G1 X147.503 Y158.194 E52.36796
G1 X146.997 Y157.723 E52.39080
G1 X146.414 Y158.318 E52.41832
G1 X146.070 Y158.565 E52.43232
G1 X145.598 Y158.763 E52.44923
G1 X145.106 Y158.893 E52.46605
G1 X145.052 Y158.903 E52.46786
G1 X144.802 Y158.603 E52.48076
G1 X144.965 Y158.226 E52.49434
G1 X145.217 Y157.799 E52.51072
G1 X145.392 Y157.577 E52.52006
G1 X145.562 Y157.419 E52.52773
G1 X146.071 Y157.077 E52.54799
G1 X146.331 Y156.923 E52.55797
G1 X145.851 Y156.133 E52.58852
G1 X145.543 Y155.526 E52.61101
G1 X144.782 Y155.890 E52.63888
G1 X144.575 Y155.963 E52.64614
G1 X144.189 Y156.021 E52.65903
G1 X143.991 Y156.027 E52.66558
G1 X143.310 Y155.966 E52.68817
G1 X143.179 Y155.602 E52.70095
G1 X143.462 Y155.302 E52.71458
G1 X143.842 Y154.991 E52.73081
G1 X144.086 Y154.838 E52.74032
G1 X144.296 Y154.749 E52.74786
G1 X144.893 Y154.602 E52.76818
G1 X145.189 Y154.545 E52.77814
G1 X145.011 Y153.647 E52.80839
G1 X144.928 Y152.964 E52.83112
G1 X144.078 Y153.046 E52.85934
G1 F2100 E52.25934
G0 F12000 X146.671 Y152.983
G1 F2100 E52.85934
G1 F1620 X146.730 Y153.462 E52.87528
G1 X146.829 Y153.935 E52.89125
G1 X146.968 Y154.402 E52.90735
G1 X147.230 Y155.028 E52.92977
G1 X147.603 Y155.699 E52.95514
G1 X147.885 Y156.095 E52.97120
G1 X148.341 Y156.608 E52.99388
G1 X148.904 Y157.114 E53.01890
G1 X149.304 Y157.399 E53.03512
G1 X149.895 Y157.732 E53.05754
G1 X150.601 Y158.033 E53.08290
G1 X151.068 Y158.171 E53.09899
G1 X151.736 Y158.294 E53.12143
G1 X152.017 Y158.329 E53.13079
G1 X152.500 Y158.349 E53.14676
G1 X152.983 Y158.329 E53.16274
G1 X153.462 Y158.270 E53.17868
G1 X153.935 Y158.171 E53.19465
G1 X154.402 Y158.032 E53.21075
G1 X155.028 Y157.770 E53.23317
G1 X155.699 Y157.397 E53.25854
G1 X156.095 Y157.115 E53.27460
G1 X156.608 Y156.659 E53.29728
G1 X157.114 Y156.096 E53.32230
G1 X157.399 Y155.696 E53.33852
G1 X157.732 Y155.105 E53.36094
G1 X158.033 Y154.399 E53.38630
G1 X158.171 Y153.932 E53.40239
G1 X158.294 Y153.264 E53.42483
G1 X158.329 Y152.983 E53.43419
G1 X158.349 Y152.500 E53.45016
G1 X158.329 Y152.017 E53.46614
G1 X158.270 Y151.538 E53.48208
G1 X158.171 Y151.065 E53.49805
G1 X158.032 Y150.598 E53.51415
G1 X157.770 Y149.972 E53.53657
G1 X157.397 Y149.301 E53.56194
G1 X157.115 Y148.905 E53.57800
G1 X156.659 Y148.392 E53.60068
G1 X156.096 Y147.886 E53.62570
G1 X155.696 Y147.601 E53.64193
G1 X155.105 Y147.268 E53.66434
G1 X154.399 Y146.967 E53.68970
G1 X153.932 Y146.829 E53.70579
G1 X153.264 Y146.706 E53.72823
G1 X152.983 Y146.671 E53.73759
G1 X152.500 Y146.651 E53.75356
G1 X152.017 Y146.671 E53.76954
G1 X151.538 Y146.730 E53.78548
G1 X151.065 Y146.829 E53.80145
G1 X150.598 Y146.968 E53.81755
G1 X149.972 Y147.230 E53.83997
G1 X149.301 Y147.603 E53.86534
G1 X148.905 Y147.885 E53.88141
G1 X148.392 Y148.341 E53.90408
G1 X147.886 Y148.904 E53.92910
G1 X147.601 Y149.304 E53.94533
G1 X147.268 Y149.895 E53.96774
G1 X146.967 Y150.601 E53.99310
G1 X146.829 Y151.068 E54.00919
G1 X146.706 Y151.736 E54.03163
G1 X146.671 Y152.017 E54.04099
G1 X146.651 Y152.500 E54.05696
G1 X146.671 Y152.983 E54.07294
G0 F12000 X145.996 Y153.000
;TYPE:SKIN
G1 F1620 X145.640 Y153.250 E54.08567
G1 X146.103 Y153.750 E54.09833
G1 X145.820 Y154.250 E54.11093
G1 X146.390 Y154.750 E54.12486
G1 X146.159 Y155.250 E54.13989
G1 X146.634 Y155.750 E54.15384
G1 X146.930 Y156.250 E54.16828
G1 X147.278 Y156.750 E54.18414
G1 X147.766 Y157.250 E54.20312
G1 X148.332 Y157.750 E54.22218
G1 X148.988 Y158.250 E54.24388
G1 X149.943 Y158.500 E54.27650
G0 F12000 X150.205 Y159.000
G1 F1620 X151.949 Y159.000 E54.33412
G0 F12000 X153.050 Y159.000
G1 F1620 X154.802 Y159.000 E54.39201
G0 F12000 X155.030 Y158.500
G1 F1620 X156.000 Y158.250 E54.42392
G1 X156.669 Y157.750 E54.44556
G1 X157.228 Y157.250 E54.46444
G1 X157.726 Y156.750 E54.48398
G1 X158.063 Y156.250 E54.49956
G1 X158.361 Y155.750 E54.51402
G1 X158.617 Y155.250 E54.52824
G1 X159.051 Y154.750 E54.54355
G1 X158.774 Y154.250 E54.55712
G1 X159.276 Y153.750 E54.56995
G1 X158.969 Y153.250 E54.58266
G1 X159.410 Y152.750 E54.59570
G1 X159.013 Y152.250 E54.60887
G1 X159.350 Y151.750 E54.62114
G1 X158.895 Y151.250 E54.63374
G1 X159.180 Y150.750 E54.64640
G1 X158.609 Y150.250 E54.66045
G1 X158.823 Y149.750 E54.67465
G1 X158.365 Y149.250 E54.68827
G1 X158.069 Y148.750 E54.70271
G1 X157.721 Y148.250 E54.71857
G1 X157.233 Y147.750 E54.73754
G1 X156.668 Y147.250 E54.75654
G1 X156.014 Y146.750 E54.77814
G1 X155.060 Y146.500 E54.81073
G0 F12000 X154.799 Y146.000
G1 F1620 X153.065 Y146.000 E54.86802
G0 F12000 X151.932 Y146.000
G1 F1620 X150.191 Y146.000 E54.92555
G0 F12000 X149.964 Y146.500
G1 F1620 X148.995 Y146.750 E54.95742
G1 X148.326 Y147.250 E54.97906
G1 X147.767 Y147.750 E54.99794
G1 X147.270 Y148.250 E55.01747
G1 X146.933 Y148.750 E55.03305
G1 X146.635 Y149.250 E55.04755
G1 X146.379 Y149.750 E55.06176
G1 X145.946 Y150.250 E55.07706
G1 X146.222 Y150.750 E55.09061
G1 X145.722 Y151.250 E55.10342
G1 X146.028 Y151.750 E55.11608
G1 X145.576 Y152.250 E55.12900
G1 X145.974 Y152.500 E55.14453
;LAYER:4
M106 S2
G0 F12000 X146.150 Y152.506 Z0.800
;TYPE:WALL-INNER
G1 F1800 X146.188 Y153.165 E55.16634
G1 X146.264 Y153.677 E55.18345
G1 X146.346 Y154.065 E55.19655
G1 X146.545 Y154.693 E55.21832
G1 X146.750 Y155.189 E55.23605
G1 X147.176 Y155.962 E55.26522
G1 X147.492 Y156.405 E55.28320
G1 X147.922 Y156.895 E55.30474
G1 X148.200 Y157.172 E55.31770
G1 X148.605 Y157.516 E55.33526
G1 X149.157 Y157.895 E55.35739
G1 X149.937 Y158.311 E55.38660
G1 X150.445 Y158.508 E55.40460
G1 X151.090 Y158.688 E55.42673
G1 X151.963 Y158.828 E55.45594
G1 X152.506 Y158.850 E55.47390
G1 X153.165 Y158.812 E55.49571
G1 X153.677 Y158.736 E55.51281
G1 X154.065 Y158.654 E55.52592
G1 X154.693 Y158.455 E55.54768
G1 X155.189 Y158.250 E55.56542
G1 X155.962 Y157.824 E55.59458
G1 X156.405 Y157.508 E55.61256
G1 X156.895 Y157.078 E55.63410
G1 X157.172 Y156.800 E55.64707
G1 X157.516 Y156.395 E55.66463
G1 X157.895 Y155.843 E55.68675
G1 X158.311 Y155.063 E55.71596
G1 X158.508 Y154.555 E55.73397
G1 X158.688 Y153.910 E55.75609
G1 X158.828 Y153.037 E55.78531
G1 X158.850 Y152.494 E55.80326
G1 X158.812 Y151.835 E55.82508
G1 X158.736 Y151.323 E55.84218
G1 X158.654 Y150.935 E55.85528
G1 X158.455 Y150.307 E55.87705
G1 X158.250 Y149.811 E55.89478
G1 X157.824 Y149.038 E55.92395
G1 X157.508 Y148.595 E55.94193
G1 X157.078 Y148.105 E55.96347
G1 X156.800 Y147.828 E55.97644
G1 X156.395 Y147.484 E55.99399
G1 X155.843 Y147.105 E56.01612
G1 X155.063 Y146.689 E56.04533
G1 X154.555 Y146.492 E56.06333
G1 X153.910 Y146.312 E56.08546
G1 X153.037 Y146.172 E56.11467
G1 X152.494 Y146.150 E56.13263
G1 X151.835 Y146.188 E56.15444
G1 X151.323 Y146.264 E56.17155
G1 X150.935 Y146.346 E56.18465
G1 X150.307 Y146.545 E56.20642
G1 X149.811 Y146.750 E56.22415
G1 X149.038 Y147.176 E56.25331
G1 X148.595 Y147.492 E56.27129
G1 X148.105 Y147.922 E56.29284
G1 X147.828 Y148.200 E56.30580
G1 X147.484 Y148.605 E56.32336
G1 X147.105 Y149.157 E56.34549
G1 X146.689 Y149.937 E56.37470
G1 X146.492 Y150.445 E56.39270
G1 X146.312 Y151.090 E56.41483
G1 X146.172 Y151.963 E56.44404
G1 X146.150 Y152.506 E56.46200
G0 F12000 X145.366 Y152.403
G1 F1800 X145.559 Y151.124 E56.50474
G1 X145.824 Y149.972 E56.54380
G1 X146.449 Y148.830 E56.58681
G1 X147.097 Y147.839 E56.62594
G1 X148.080 Y146.974 E56.66920
G1 X149.014 Y146.271 E56.70783
G1 X150.221 Y145.801 E56.75063
G1 X151.356 Y145.456 E56.78983
G1 X152.658 Y145.425 E56.83286
G1 X153.834 Y145.489 E56.87178
G1 X155.065 Y145.904 E56.91470
G1 X156.151 Y146.370 E56.95375
G1 X157.164 Y147.179 E56.99658
G1 X158.030 Y147.988 E57.03574
G1 X158.707 Y149.102 E57.07882
G1 X158.871 Y149.418 E57.09058
G1 X159.209 Y150.162 E57.11758
G1 X159.240 Y150.147 E57.11872
G1 X159.496 Y151.435 E57.16211
G1 X159.605 Y152.600 E57.20077
G1 X159.638 Y152.597 E57.20187
G1 X159.441 Y153.876 E57.24463
G1 X159.176 Y155.028 E57.28369
G1 X158.552 Y156.168 E57.32663
G1 X157.903 Y157.161 E57.36583
G1 X156.920 Y158.026 E57.40909
G1 X155.986 Y158.729 E57.44772
G1 X154.779 Y159.199 E57.49052
G1 X153.644 Y159.544 E57.52972
G1 X152.342 Y159.575 E57.57275
G1 X151.166 Y159.511 E57.61167
G1 X149.935 Y159.096 E57.65459
G1 X148.849 Y158.630 E57.69364
G1 X147.836 Y157.821 E57.73648
G1 X146.970 Y157.012 E57.77563
G1 X146.293 Y155.897 E57.81874
G1 X145.762 Y154.851 E57.85750
G1 X145.505 Y153.571 E57.90064
G1 X145.366 Y152.403 E57.93950
G0 F12000 X144.564 Y152.352
G1 F1800 X145.078 Y152.430 E57.95668
G1 X144.051 Y152.528 E57.99077
G1 X144.000 Y152.532 E57.99246
G1 X143.950 Y152.530 E57.99411
G1 X143.536 Y152.436 E58.00814
G1 X143.451 Y152.405 E58.01113
G1 X143.763 Y152.313 E58.02188
G1 X143.828 Y152.301 E58.02406
G1 X143.984 Y152.289 E58.02923
G1 X144.564 Y152.352 E58.04851
G1 F2100 E57.44851
G0 F12000 X145.095 Y149.647
G1 F2100 E58.04851
G1 F1800 X145.558 Y149.899 E58.06593
G1 X144.550 Y149.638 E58.10033
G1 X144.310 Y149.524 E58.10911
G1 X144.041 Y149.318 E58.12031
G1 X144.341 Y149.337 E58.13024
G1 X144.574 Y149.392 E58.13815
G1 X145.095 Y149.647 E58.15732
G1 F2100 E57.55732
G0 F12000 X146.024 Y147.102
G1 F2100 E58.15732
G1 F1800 X145.970 Y147.059 E58.15960
G1 X145.714 Y146.753 E58.17278
G1 X145.633 Y146.617 E58.17801
G1 X145.794 Y146.678 E58.18370
G1 X146.098 Y146.854 E58.19531
G1 X146.123 Y146.874 E58.19636
G1 X146.496 Y147.263 E58.21417
G1 X146.861 Y147.677 E58.23241
G1 X146.024 Y147.102 E58.26596
G1 F2100 E57.66596
G0 F12000 X148.275 Y145.231
G1 F2100 E58.26596
G1 F1800 X148.189 Y145.083 E58.27162
G1 X148.094 Y144.799 E58.28151
G1 X148.065 Y144.628 E58.28725
G1 X148.340 Y144.897 E58.29996
G1 X148.439 Y145.048 E58.30592
G1 X148.657 Y145.544 E58.32382
G1 X148.839 Y146.025 E58.34082
G1 X148.275 Y145.231 E58.37300
G1 F2100 E57.77300
G0 F12000 X151.014 Y144.221
G1 F2100 E58.37300
G1 F1800 X150.983 Y144.043 E58.37897
G1 X150.981 Y143.925 E58.38287
G1 X151.020 Y143.578 E58.39441
G1 X151.115 Y143.749 E58.40087
G1 X151.201 Y143.958 E58.40834
G1 X151.232 Y144.097 E58.41304
G1 X151.267 Y144.628 E58.43063
G1 X151.281 Y145.185 E58.44904
G1 X151.014 Y144.221 E58.48209
G1 F2100 E57.88209
G0 F12000 X153.935 Y144.210
G1 F2100 E58.48209
G1 F1800 X153.964 Y144.046 E58.48759
G1 X154.072 Y143.775 E58.49723
G1 X154.163 Y143.626 E58.50300
G1 X154.192 Y143.803 E58.50893
G1 X154.200 Y143.998 E58.51538
G1 X154.178 Y144.183 E58.52153
G1 X154.036 Y144.674 E58.53842
G1 X153.858 Y145.189 E58.55643
G1 X153.935 Y144.210 E58.58887
G1 F2100 E57.98887
G0 F12000 X156.687 Y145.193
G1 F2100 E58.58887
G1 F1800 X156.735 Y145.104 E58.59222
G1 X156.848 Y144.955 E58.59840
G1 X157.100 Y144.715 E58.60989
G1 X157.064 Y144.899 E58.61609
G1 X156.930 Y145.245 E58.62835
G1 X156.610 Y145.684 E58.64630
G1 X156.273 Y146.102 E58.66404
G1 X156.687 Y145.193 E58.69705
G1 F2100 E58.09705
G0 F12000 X158.925 Y147.074
G1 F2100 E58.69705
G1 F1800 X159.148 Y146.906 E58.70627
G1 X159.481 Y146.766 E58.71821
G1 X159.389 Y146.922 E58.72419
G1 X159.256 Y147.091 E58.73130
G1 X159.135 Y147.205 E58.73679
G1 X158.690 Y147.503 E58.75449
G1 X158.247 Y147.767 E58.77153
G1 X158.925 Y147.074 E58.80356
G1 F2100 E58.20356
G0 F12000 X160.402 Y149.597
G1 F2100 E58.80356
G1 F1800 X160.547 Y149.544 E58.80866
G1 X160.867 Y149.496 E58.81935
G1 X161.015 Y149.492 E58.82425
G1 X161.030 Y149.493 E58.82474
G1 X160.892 Y149.605 E58.83062
G1 X160.556 Y149.791 E58.84331
G1 X160.038 Y149.919 E58.86094
G1 X159.504 Y150.022 E58.87891
G1 X160.402 Y149.597 E58.91173
G1 F2100 E58.31173
G0 F12000 X160.949 Y152.472
G1 F2100 E58.91173
G1 F1800 X161.000 Y152.468 E58.91342
G1 X161.050 Y152.470 E58.91508
G1 X161.464 Y152.564 E58.92911
G1 X161.549 Y152.595 E58.93210
G1 X161.237 Y152.687 E58.94284
G1 X161.172 Y152.699 E58.94503
G1 X161.015 Y152.711 E58.95023
G1 X160.436 Y152.648 E58.96947
G1 X159.923 Y152.570 E58.98662
G1 X160.949 Y152.472 E59.02068
G1 F2100 E58.42068
G0 F12000 X160.450 Y155.362
G1 F2100 E59.02068
G1 F1800 X160.690 Y155.476 E59.02946
G1 X160.959 Y155.682 E59.04065
G1 X160.659 Y155.663 E59.05058
G1 X160.426 Y155.608 E59.05849
G1 X159.905 Y155.353 E59.07766
G1 X159.442 Y155.101 E59.09508
G1 X160.450 Y155.362 E59.12948
G1 F2100 E58.52948
G0 F12000 X158.972 Y157.895
G1 F2100 E59.12948
G1 F1800 X159.030 Y157.941 E59.13193
G1 X159.286 Y158.247 E59.14511
G1 X159.367 Y158.383 E59.15034
G1 X159.206 Y158.322 E59.15603
G1 X158.902 Y158.146 E59.16764
G1 X158.877 Y158.126 E59.16870
G1 X158.503 Y157.736 E59.18655
G1 X158.139 Y157.323 E59.20474
G1 X158.972 Y157.895 E59.23813
G1 F2100 E58.63813
G0 F12000 X156.725 Y159.769
G1 F2100 E59.23813
G1 F1800 X156.811 Y159.917 E59.24379
G1 X156.906 Y160.201 E59.25368
G1 X156.935 Y160.371 E59.25938
G1 X156.793 Y160.249 E59.26557
G1 X156.660 Y160.103 E59.27209
G1 X156.561 Y159.952 E59.27806
G1 X156.343 Y159.456 E59.29596
G1 X156.161 Y158.975 E59.31295
G1 X156.725 Y159.769 E59.34513
G1 F2100 E58.74513
G0 F12000 X153.986 Y160.779
G1 F2100 E59.34513
G1 F1800 X154.017 Y160.954 E59.35101
G1 X154.019 Y161.075 E59.35501
G1 X153.980 Y161.422 E59.36654
G1 X153.885 Y161.251 E59.37301
G1 X153.799 Y161.042 E59.38048
G1 X153.767 Y160.897 E59.38538
G1 X153.733 Y160.371 E59.40280
G1 X153.719 Y159.815 E59.42118
G1 X153.986 Y160.779 E59.45423
G1 F2100 E58.85423
G0 F12000 X151.065 Y160.790
G1 F2100 E59.45423
G1 F1800 X151.037 Y160.951 E59.45963
G1 X150.928 Y161.225 E59.46937
G1 X150.837 Y161.374 E59.47514
G1 X150.808 Y161.197 E59.48107
G1 X150.800 Y161.000 E59.48758
G1 X150.822 Y160.816 E59.49370
G1 X150.964 Y160.326 E59.51056
G1 X151.142 Y159.811 E59.52857
