;-- START GCODE --
;Sliced for Type A Machines Series 1
;Sliced at: Wed 31-01-2018 20:30:58
;Basic settings:
;	Layer height: 0.15
;	Walls: 1.5
;	Fill: 1
;	Print Speed: 30
;	Support: 0
;	Retraction Speed: 35
;	Retraction Distance: 0.6
;Print time: 32 minutes
;Filament used: 1.055m 2.0g
;Settings based on: MadeSolid PET+
G21        ;metric values
G90        ;absolute positioning
G28     ;move to endstops
G29		;allows for auto-levelling
G1 Z15.0 F12000 ;move the platform down 15mm
G1 X150 Y5 F12000 ;center
M109 S240 ;Heat To temp
G1 X150 Y5 Z0.3 ;move the platform to purge extrusion
G92 E0 ;zero the extruded length
G1 F200 X250 E30 ;extrude 30mm of feed stock
G92 E0 ;zero the extruded length again
G1 X150 Y150  Z25 F12000 ;recenter and begin
G1 F12000

;Layer count: 79
;LAYER:0
M107
G0 F12000 X143.472 Y142.734 Z0.200
G0 X143.861 Y142.855
;TYPE:SKIRT
G1 F1200 X144.073 Y142.663 E0.01260
G1 X144.640 Y142.204 E0.04474
G1 X145.013 Y141.935 E0.06500
G1 X145.007 Y141.567 E0.08122
G1 X146.191 Y141.086 E0.13752
G1 X147.368 Y140.238 E0.20143
G1 X147.685 Y140.480 E0.21900
G1 X147.948 Y140.373 E0.23151
G1 X148.635 Y140.137 E0.26351
G1 X149.060 Y140.017 E0.28297
G1 X149.178 Y139.668 E0.29920
G1 X150.466 Y139.620 E0.35599
G1 X151.951 Y139.200 E0.42398
G1 X152.165 Y139.556 E0.44228
G1 X152.368 Y139.548 E0.45123
G1 X153.095 Y139.560 E0.48326
G1 X153.547 Y139.593 E0.50323
G1 X153.778 Y139.308 E0.51939
G1 X154.993 Y139.700 E0.57564
G1 X156.450 Y139.807 E0.64000
G1 X156.538 Y140.198 E0.65766
G1 X156.805 Y140.284 E0.67001
G1 X157.478 Y140.542 E0.70177
G1 X157.751 Y140.663 E0.71492
G1 X158.079 Y140.438 E0.73245
G1 X159.200 Y141.309 E0.79499
G1 X160.307 Y141.802 E0.84838
G1 X160.295 Y142.160 E0.86416
G1 X160.719 Y142.489 E0.88781
G1 X161.220 Y142.921 E0.91695
G1 X161.606 Y143.293 E0.94057
G1 X161.963 Y143.225 E0.95658
G1 X162.619 Y144.269 E1.01090
G1 X163.660 Y145.272 E1.07459
G1 X163.478 Y145.636 E1.09252
G1 X163.650 Y145.910 E1.10677
G1 X164.000 Y146.539 E1.13848
G1 X164.114 Y146.773 E1.14995
G1 X164.523 Y146.807 E1.16803
G1 X164.829 Y148.239 E1.23255
G1 X165.461 Y149.533 E1.29599
G1 X165.166 Y149.811 E1.31385
G1 X165.233 Y150.125 E1.32800
G1 X165.345 Y150.837 E1.35975
G1 X165.374 Y151.115 E1.37206
G1 X165.742 Y151.289 E1.39000
G1 X165.542 Y152.720 E1.45366
G1 X165.668 Y153.919 E1.50677
G1 X165.352 Y154.087 E1.52254
G1 X165.277 Y154.622 E1.54634
G1 X165.140 Y155.327 E1.57798
G1 X165.069 Y155.611 E1.59088
G1 X165.350 Y155.896 E1.60851
G1 X164.682 Y157.161 E1.67153
G1 X164.337 Y158.541 E1.73420
G1 X163.939 Y158.567 E1.75178
G1 X163.781 Y158.866 E1.76667
G1 X163.407 Y159.485 E1.79854
G1 X163.267 Y159.692 E1.80955
G1 X163.440 Y160.058 E1.82738
G1 X162.355 Y161.042 E1.89191
G1 X161.528 Y162.266 E1.95699
G1 X161.139 Y162.145 E1.97494
G1 X160.927 Y162.337 E1.98754
G1 X160.360 Y162.796 E2.01968
G1 X159.987 Y163.065 E2.03994
G1 X159.993 Y163.433 E2.05616
G1 X158.809 Y163.914 E2.11246
G1 X157.632 Y164.762 E2.17637
G1 X157.315 Y164.520 E2.19394
G1 X157.052 Y164.627 E2.20645
G1 X156.365 Y164.863 E2.23846
G1 X155.940 Y164.983 E2.25791
G1 X155.822 Y165.332 E2.27414
G1 X154.534 Y165.380 E2.33093
G1 X153.049 Y165.800 E2.39892
G1 X152.835 Y165.444 E2.41722
G1 X152.632 Y165.452 E2.42617
G1 X151.905 Y165.440 E2.45820
G1 X151.453 Y165.407 E2.47817
G1 X151.222 Y165.692 E2.49433
G1 X150.007 Y165.300 E2.55058
G1 X148.550 Y165.193 E2.61494
G1 X148.462 Y164.802 E2.63260
G1 X148.195 Y164.716 E2.64496
G1 X147.514 Y164.455 E2.67709
G1 X147.250 Y164.336 E2.68985
G1 X146.921 Y164.562 E2.70743
G1 X145.774 Y163.671 E2.77142
G1 X144.381 Y163.043 E2.83874
G1 X144.444 Y162.637 E2.85684
G1 X144.281 Y162.511 E2.86592
G1 X143.780 Y162.079 E2.89506
G1 X143.394 Y161.707 E2.91868
G1 X143.037 Y161.775 E2.93469
G1 X142.381 Y160.731 E2.98901
G1 X141.340 Y159.728 E3.05270
G1 X141.522 Y159.364 E3.07063
G1 X141.350 Y159.090 E3.08488
G1 X141.000 Y158.461 E3.11659
G1 X140.886 Y158.227 E3.12806
G1 X140.477 Y158.193 E3.14614
G1 X140.171 Y156.761 E3.21066
G1 X139.539 Y155.467 E3.27410
G1 X139.834 Y155.189 E3.29196
G1 X139.767 Y154.875 E3.30611
G1 X139.655 Y154.163 E3.33786
G1 X139.626 Y153.885 E3.35017
G1 X139.258 Y153.711 E3.36811
G1 X139.458 Y152.280 E3.43177
G1 X139.332 Y151.081 E3.48488
G1 X139.648 Y150.913 E3.50065
G1 X139.723 Y150.378 E3.52445
G1 X139.860 Y149.673 E3.55609
G1 X139.931 Y149.389 E3.56899
G1 X139.650 Y149.104 E3.58662
G1 X140.318 Y147.839 E3.64965
G1 X140.663 Y146.459 E3.71231
G1 X141.061 Y146.433 E3.72989
G1 X141.219 Y146.134 E3.74479
G1 X141.593 Y145.515 E3.77665
G1 X141.733 Y145.308 E3.78766
G1 X141.560 Y144.942 E3.80549
G1 X142.645 Y143.958 E3.87003
G1 X143.472 Y142.734 E3.93511
G1 X143.861 Y142.855 E3.95305
G0 F12000 X143.985 Y143.417
G1 F1200 X144.398 Y143.043 E3.97760
G1 X144.944 Y142.602 E4.00852
G1 X145.517 Y142.188 E4.03967
G1 X145.513 Y141.902 E4.05227
G1 X146.431 Y141.529 E4.09592
G1 X147.359 Y140.860 E4.14632
G1 X147.609 Y141.051 E4.16018
G1 X148.124 Y140.842 E4.18467
G1 X148.784 Y140.614 E4.21543
G1 X149.449 Y140.426 E4.24588
G1 X149.541 Y140.154 E4.25853
G1 X150.546 Y140.116 E4.30284
G1 X151.720 Y139.785 E4.35658
G1 X151.889 Y140.066 E4.37103
G1 X152.373 Y140.048 E4.39236
G1 X153.072 Y140.060 E4.42316
G1 X153.772 Y140.112 E4.45409
G1 X153.951 Y139.890 E4.46665
G1 X154.896 Y140.194 E4.51039
G1 X156.044 Y140.279 E4.56110
G1 X156.113 Y140.587 E4.57501
G1 X156.639 Y140.756 E4.59935
G1 X157.287 Y141.004 E4.62992
G1 X157.803 Y141.234 E4.65481
G1 X158.060 Y141.057 E4.66855
G1 X158.940 Y141.741 E4.71766
G1 X159.796 Y142.122 E4.75894
G1 X159.787 Y142.398 E4.77110
G1 X160.402 Y142.876 E4.80542
G1 X160.883 Y143.291 E4.83341
G1 X161.445 Y143.833 E4.86781
G1 X161.721 Y143.780 E4.88019
G1 X162.229 Y144.588 E4.92224
G1 X163.048 Y145.377 E4.97234
G1 X162.905 Y145.663 E4.98643
G1 X163.220 Y146.164 E5.01250
G1 X163.556 Y146.770 E5.04303
G1 X163.789 Y147.248 E5.06646
G1 X164.112 Y147.275 E5.08074
G1 X164.354 Y148.406 E5.13169
G1 X164.850 Y149.422 E5.18150
G1 X164.619 Y149.640 E5.19550
G1 X164.742 Y150.216 E5.22145
G1 X164.850 Y150.902 E5.25204
G1 X164.907 Y151.448 E5.27623
G1 X165.196 Y151.584 E5.29030
G1 X165.039 Y152.709 E5.34034
G1 X165.136 Y153.635 E5.38136
G1 X164.892 Y153.764 E5.39352
G1 X164.784 Y154.540 E5.42804
G1 X164.652 Y155.219 E5.45851
G1 X164.516 Y155.762 E5.48318
G1 X164.737 Y155.986 E5.49704
G1 X164.211 Y156.982 E5.54666
G1 X163.940 Y158.066 E5.59589
G1 X163.628 Y158.086 E5.60966
G1 X163.346 Y158.620 E5.63627
G1 X162.986 Y159.216 E5.66695
G1 X162.694 Y159.649 E5.68995
G1 X162.830 Y159.937 E5.70399
G1 X161.973 Y160.714 E5.75495
G1 X161.321 Y161.678 E5.80622
G1 X161.015 Y161.583 E5.82034
G1 X160.602 Y161.957 E5.84489
G1 X160.056 Y162.398 E5.87581
G1 X159.483 Y162.812 E5.90695
G1 X159.487 Y163.098 E5.91955
G1 X158.569 Y163.471 E5.96321
G1 X157.641 Y164.140 E6.01361
G1 X157.391 Y163.949 E6.02747
G1 X156.876 Y164.158 E6.05196
G1 X156.216 Y164.386 E6.08272
G1 X155.551 Y164.574 E6.11317
G1 X155.459 Y164.846 E6.12582
G1 X154.454 Y164.884 E6.17013
G1 X153.280 Y165.215 E6.22387
G1 X153.111 Y164.934 E6.23831
G1 X152.627 Y164.952 E6.25965
G1 X151.928 Y164.940 E6.29045
G1 X151.228 Y164.888 E6.32137
G1 X151.049 Y165.110 E6.33394
G1 X150.104 Y164.806 E6.37767
G1 X148.956 Y164.721 E6.42839
G1 X148.887 Y164.413 E6.44229
G1 X148.361 Y164.244 E6.46664
G1 X147.707 Y163.993 E6.49750
G1 X147.200 Y163.764 E6.52201
G1 X146.940 Y163.943 E6.53591
G1 X146.033 Y163.239 E6.58650
G1 X144.933 Y162.743 E6.63966
G1 X144.983 Y162.423 E6.65393
G1 X144.598 Y162.124 E6.67541
G1 X144.117 Y161.709 E6.70339
G1 X143.555 Y161.167 E6.73779
G1 X143.279 Y161.220 E6.75017
G1 X142.771 Y160.412 E6.79222
G1 X141.952 Y159.623 E6.84233
G1 X142.095 Y159.337 E6.85641
G1 X141.780 Y158.836 E6.88249
G1 X141.444 Y158.230 E6.91301
G1 X141.211 Y157.752 E6.93644
G1 X140.888 Y157.725 E6.95072
G1 X140.646 Y156.594 E7.00168
G1 X140.150 Y155.578 E7.05149
G1 X140.381 Y155.360 E7.06548
G1 X140.258 Y154.784 E7.09143
G1 X140.150 Y154.098 E7.12203
G1 X140.093 Y153.552 E7.14621
G1 X139.804 Y153.416 E7.16028
G1 X139.961 Y152.291 E7.21033
G1 X139.864 Y151.365 E7.25135
G1 X140.108 Y151.236 E7.26351
G1 X140.216 Y150.460 E7.29802
G1 X140.348 Y149.781 E7.32850
G1 X140.484 Y149.238 E7.35316
G1 X140.263 Y149.014 E7.36702
G1 X140.789 Y148.018 E7.41665
G1 X141.060 Y146.934 E7.46587
G1 X141.372 Y146.914 E7.47965
G1 X141.654 Y146.380 E7.50625
G1 X142.014 Y145.784 E7.53693
G1 X142.306 Y145.351 E7.55994
G1 X142.170 Y145.063 E7.57397
G1 X143.027 Y144.286 E7.62494
G1 X143.679 Y143.322 E7.67621
G1 X143.985 Y143.417 E7.69032
G1 F2100 E7.09032
G0 F12000 X147.642 Y148.068
;TYPE:WALL-INNER
G1 F2100 E7.69032
G1 F1200 X148.362 Y147.312 E7.73632
G1 X149.459 Y146.669 E7.79234
G1 X150.327 Y146.238 E7.83504
G1 X151.290 Y146.035 E7.87840
G1 X152.566 Y145.865 E7.93511
G1 X153.572 Y146.012 E7.97990
G1 X154.869 Y146.294 E8.03838
G1 X156.025 Y146.948 E8.09689
G1 X156.840 Y147.492 E8.14006
G1 X157.504 Y148.232 E8.18386
G1 X157.693 Y148.465 E8.19708
G1 X158.286 Y149.268 E8.24106
G1 X158.659 Y150.191 E8.28492
G1 X159.043 Y151.403 E8.34093
G1 X159.076 Y152.436 E8.38647
G1 X159.025 Y153.750 E8.44440
G1 X158.582 Y155.001 E8.50287
G1 X158.163 Y155.958 E8.54890
G1 X157.358 Y156.932 E8.60457
G1 X156.638 Y157.688 E8.65056
G1 X155.543 Y158.330 E8.70648
G1 X154.619 Y158.789 E8.75194
G1 X153.369 Y159.019 E8.80793
G1 X152.340 Y159.133 E8.85355
G1 X151.080 Y158.922 E8.90983
G1 X150.079 Y158.677 E8.95523
G1 X148.975 Y158.052 E9.01112
G1 X148.111 Y157.475 E9.05690
G1 X147.289 Y156.512 E9.11268
G1 X146.709 Y155.724 E9.15579
G1 X146.341 Y154.803 E9.19948
G1 X145.957 Y153.602 E9.25503
G1 X145.924 Y152.565 E9.30074
G1 X145.977 Y151.243 E9.35903
G1 X146.420 Y149.994 E9.41742
G1 X146.837 Y149.042 E9.46321
G1 X147.642 Y148.068 E9.51888
G0 F12000 X148.317 Y149.046
G1 F1200 X148.005 Y149.464 E9.54186
G1 X147.733 Y149.911 E9.56491
G1 X147.505 Y150.384 E9.58804
G1 X147.325 Y150.874 E9.61104
G1 X147.193 Y151.371 E9.63370
G1 X147.108 Y151.891 E9.65691
G1 X147.075 Y152.423 E9.68039
G1 X147.093 Y152.947 E9.70349
G1 X147.161 Y153.466 E9.72655
G1 X147.279 Y153.977 E9.74966
G1 X147.447 Y154.476 E9.77286
G1 X147.661 Y154.952 E9.79585
G1 X147.918 Y155.406 E9.81883
G1 X148.259 Y155.881 E9.84459
G1 X148.598 Y156.267 E9.86723
G1 X148.973 Y156.622 E9.88998
G1 X149.381 Y156.938 E9.91271
G1 X149.814 Y157.213 E9.93531
G1 X150.273 Y157.447 E9.95801
G1 X150.751 Y157.635 E9.98064
G1 X151.245 Y157.779 E10.00331
G1 X151.760 Y157.875 E10.02639
G1 X152.281 Y157.921 E10.04943
G1 X152.814 Y157.918 E10.07291
G1 X153.338 Y157.861 E10.09614
G1 X153.851 Y157.755 E10.11922
G1 X154.354 Y157.600 E10.14240
G1 X154.836 Y157.396 E10.16546
G1 X155.296 Y157.149 E10.18847
G1 X155.733 Y156.857 E10.21162
G1 X156.138 Y156.525 E10.23469
G1 X156.509 Y156.156 E10.25775
G1 X156.844 Y155.751 E10.28090
G1 X157.138 Y155.316 E10.30403
G1 X157.388 Y154.854 E10.32718
G1 X157.591 Y154.374 E10.35014
G1 X157.747 Y153.882 E10.37288
G1 X157.856 Y153.360 E10.39637
G1 X157.915 Y152.848 E10.41908
G1 X157.923 Y152.316 E10.44252
G1 X157.880 Y151.793 E10.46564
G1 X157.786 Y151.277 E10.48874
G1 X157.643 Y150.771 E10.51191
G1 X157.452 Y150.283 E10.53500
G1 X157.215 Y149.815 E10.55811
G1 X156.932 Y149.371 E10.58131
G1 X156.597 Y148.944 E10.60522
G1 X156.242 Y148.571 E10.62790
G1 X155.852 Y148.232 E10.65067
G1 X155.433 Y147.935 E10.67330
G1 X154.983 Y147.674 E10.69622
G1 X154.463 Y147.443 E10.72128
G1 X153.976 Y147.279 E10.74392
G1 X153.489 Y147.166 E10.76595
G1 X152.979 Y147.095 E10.78863
G1 X152.447 Y147.075 E10.81209
G1 X151.922 Y147.105 E10.83526
G1 X151.403 Y147.187 E10.85841
G1 X150.896 Y147.317 E10.88146
G1 X150.404 Y147.495 E10.90452
G1 X149.931 Y147.721 E10.92761
G1 X149.479 Y147.993 E10.95085
G1 X149.061 Y148.305 E10.97383
G1 X148.671 Y148.655 E10.99692
G1 X148.317 Y149.046 E11.02016
G0 F12000 X148.703 Y149.364
G1 F1200 X148.420 Y149.744 E11.04103
G1 X148.172 Y150.150 E11.06199
G1 X147.966 Y150.579 E11.08296
G1 X147.802 Y151.024 E11.10385
G1 X147.683 Y151.475 E11.12440
G1 X147.606 Y151.947 E11.14547
G1 X147.575 Y152.430 E11.16679
G1 X147.592 Y152.905 E11.18773
G1 X147.654 Y153.377 E11.20871
G1 X147.760 Y153.841 E11.22968
G1 X147.913 Y154.293 E11.25070
G1 X148.107 Y154.726 E11.27160
G1 X148.340 Y155.136 E11.29238
G1 X148.651 Y155.569 E11.31587
G1 X148.959 Y155.920 E11.33644
G1 X149.298 Y156.242 E11.35704
G1 X149.669 Y156.529 E11.37770
G1 X150.062 Y156.778 E11.39820
G1 X150.478 Y156.991 E11.41879
G1 X150.912 Y157.162 E11.43934
G1 X151.360 Y157.292 E11.45990
G1 X151.829 Y157.379 E11.48091
G1 X152.301 Y157.421 E11.50179
G1 X152.786 Y157.418 E11.52316
G1 X153.260 Y157.367 E11.54416
G1 X153.726 Y157.270 E11.56513
G1 X154.182 Y157.130 E11.58614
G1 X154.620 Y156.944 E11.60711
G1 X155.039 Y156.720 E11.62804
G1 X155.434 Y156.455 E11.64900
G1 X155.802 Y156.153 E11.66997
G1 X156.140 Y155.818 E11.69094
G1 X156.443 Y155.451 E11.71190
G1 X156.710 Y155.057 E11.73287
G1 X156.937 Y154.637 E11.75391
G1 X157.121 Y154.200 E11.77480
G1 X157.263 Y153.755 E11.79538
G1 X157.362 Y153.280 E11.81675
G1 X157.415 Y152.816 E11.83733
G1 X157.422 Y152.333 E11.85861
G1 X157.383 Y151.858 E11.87961
G1 X157.299 Y151.390 E11.90055
G1 X157.169 Y150.931 E11.92157
G1 X156.995 Y150.487 E11.94258
G1 X156.780 Y150.063 E11.96353
G1 X156.524 Y149.660 E11.98456
G1 X156.219 Y149.272 E12.00630
G1 X155.896 Y148.933 E12.02693
G1 X155.543 Y148.626 E12.04754
G1 X155.162 Y148.356 E12.06812
G1 X154.755 Y148.120 E12.08884
G1 X154.282 Y147.909 E12.11166
G1 X153.839 Y147.761 E12.13224
G1 X153.398 Y147.658 E12.15219
G1 X152.935 Y147.594 E12.17278
G1 X152.451 Y147.575 E12.19412
G1 X151.976 Y147.602 E12.21508
G1 X151.504 Y147.677 E12.23614
G1 X151.044 Y147.796 E12.25707
G1 X150.597 Y147.957 E12.27800
G1 X150.168 Y148.162 E12.29895
G1 X149.758 Y148.409 E12.32004
G1 X149.378 Y148.692 E12.34091
G1 X149.024 Y149.010 E12.36188
G1 X148.703 Y149.364 E12.38293
G1 F2100 E11.78293
G0 F12000 X147.275 Y147.728
G1 F2100 E12.38293
G1 F1200 X148.019 Y146.947 E12.43045
G1 X148.011 Y146.939 E12.43095
G1 X149.211 Y146.235 E12.49225
G1 X150.160 Y145.763 E12.53894
G1 X151.213 Y145.541 E12.58635
G1 X152.594 Y145.358 E12.64773
G1 X153.662 Y145.520 E12.69532
G1 X155.050 Y145.822 E12.75790
G1 X156.294 Y146.526 E12.82088
G1 X157.169 Y147.111 E12.86725
G1 X157.885 Y147.909 E12.91448
G1 X158.727 Y149.024 E12.97604
G1 X159.129 Y150.022 E13.02344
G1 X159.554 Y151.358 E13.08521
G1 X159.542 Y151.359 E13.08574
G1 X159.577 Y152.454 E13.13400
G1 X159.522 Y153.847 E13.19542
G1 X159.043 Y155.195 E13.25845
G1 X158.610 Y156.185 E13.30605
G1 X158.620 Y156.190 E13.30655
G1 X157.727 Y157.270 E13.36829
G1 X156.981 Y158.053 E13.41593
G1 X156.989 Y158.061 E13.41643
G1 X155.789 Y158.765 E13.47773
G1 X154.811 Y159.252 E13.52586
G1 X154.816 Y159.262 E13.52635
G1 X153.431 Y159.515 E13.58838
G1 X152.364 Y159.634 E13.63568
G1 X152.365 Y159.645 E13.63617
G1 X150.987 Y159.413 E13.69773
G1 X149.933 Y159.155 E13.74554
G1 X149.930 Y159.167 E13.74608
G1 X148.706 Y158.474 E13.80805
G1 X147.809 Y157.875 E13.85557
G1 X147.803 Y157.884 E13.85605
G1 X146.894 Y156.818 E13.91777
G1 X146.268 Y155.969 E13.96424
G1 X145.870 Y154.975 E14.01141
G1 X145.445 Y153.642 E14.07306
G1 X145.458 Y153.641 E14.07363
G1 X145.424 Y152.547 E14.12185
G1 X145.480 Y151.148 E14.18354
G1 X145.957 Y149.805 E14.24633
G1 X146.390 Y148.815 E14.29393
G1 X146.380 Y148.810 E14.29442
G1 X147.275 Y147.728 E14.35629
G0 F12000 X147.541 Y146.288
G1 F1200 X147.890 Y146.817 E14.38421
G1 X147.110 Y146.035 E14.43287
G1 X147.091 Y146.010 E14.43425
G1 X147.260 Y145.873 E14.44384
G1 X147.541 Y146.288 E14.46592
G1 F2100 E13.86592
G0 F12000 X149.965 Y144.965
G1 F2100 E14.46592
G1 F1200 X150.110 Y145.583 E14.49388
G1 X149.634 Y144.552 E14.54391
G1 X149.851 Y144.477 E14.55403
G1 X149.965 Y144.965 E14.57611
G1 F2100 E13.97611
G0 F12000 X152.525 Y144.051
G1 F2100 E14.57611
G1 F1200 X152.754 Y144.055 E14.58620
G1 X152.615 Y145.189 E14.63653
G1 X152.525 Y144.051 E14.68683
G1 F2100 E14.08683
G0 F12000 X155.400 Y144.608
G1 F2100 E14.68683
G1 F1200 X155.417 Y144.571 E14.68862
G1 X155.618 Y144.648 E14.69810
G1 X155.395 Y145.112 E14.72078
G1 X155.109 Y145.670 E14.74841
G1 X155.400 Y144.608 E14.79692
G1 F2100 E14.19692
G0 F12000 X157.923 Y146.078
G1 F2100 E14.79692
G1 F1200 X157.953 Y146.046 E14.79885
G1 X158.124 Y146.194 E14.80882
G1 X157.305 Y146.962 E14.85828
G1 X157.923 Y146.078 E14.90580
G1 F2100 E14.30580
G0 F12000 X159.808 Y148.310
G1 F2100 E14.90580
G1 F1200 X159.829 Y148.299 E14.90685
G1 X159.940 Y148.498 E14.91688
G1 X159.478 Y148.695 E14.93901
G1 X158.885 Y148.955 E14.96754
G1 X159.808 Y148.310 E15.01715
G1 F2100 E14.41715
G0 F12000 X160.359 Y151.313
G1 F2100 E15.01715
G1 F1200 X159.692 Y151.350 E15.04658
G1 X160.820 Y151.058 E15.09791
G1 X160.860 Y151.279 E15.10781
G1 X160.359 Y151.313 E15.12993
G1 F2100 E14.52993
G0 F12000 X160.292 Y154.072
G1 F2100 E15.12993
G1 F1200 X159.685 Y153.884 E15.15793
G1 X160.775 Y153.986 E15.20616
G1 X160.815 Y153.996 E15.20797
G1 X160.772 Y154.217 E15.21789
G1 X160.292 Y154.072 E15.23999
G1 F2100 E14.63999
G0 F12000 X159.285 Y156.641
G1 F2100 E15.23999
G1 F1200 X158.776 Y156.263 E15.26792
G1 X159.768 Y156.727 E15.31617
G1 X159.802 Y156.750 E15.31797
G1 X159.686 Y156.942 E15.32786
G1 X159.285 Y156.641 E15.34995
G1 F2100 E14.74995
G0 F12000 X157.453 Y158.703
G1 F2100 E15.34995
G1 F1200 X157.110 Y158.183 E15.37739
G1 X157.890 Y158.965 E15.42605
G1 X157.909 Y158.990 E15.42744
G1 X157.740 Y159.127 E15.43702
G1 X157.453 Y158.703 E15.45958
G1 F2100 E14.85958
G0 F12000 X155.362 Y160.436
G1 F2100 E15.45958
G1 F1200 X155.367 Y160.448 E15.46015
G1 X155.149 Y160.523 E15.47031
G1 X155.035 Y160.035 E15.49239
G1 X154.892 Y159.427 E15.51990
G1 X155.362 Y160.436 E15.56894
G1 F2100 E14.96894
G0 F12000 X152.475 Y160.943
G1 F2100 E15.56894
G1 F1200 X152.246 Y160.945 E15.57903
G1 X152.381 Y159.839 E15.62812
G1 X152.475 Y160.943 E15.67694
G1 F2100 E15.07694
G0 F12000 X149.599 Y160.393
G1 F2100 E15.67694
G1 F1200 X149.583 Y160.429 E15.67867
G1 X149.373 Y160.348 E15.68859
G1 X149.879 Y159.353 E15.73777
G1 X149.599 Y160.393 E15.78522
G1 F2100 E15.18522
G0 F12000 X147.077 Y158.922
G1 F2100 E15.78522
G1 F1200 X147.047 Y158.954 E15.78715
G1 X146.876 Y158.806 E15.79711
G1 X147.697 Y158.035 E15.84673
G1 X147.077 Y158.922 E15.89441
G1 F2100 E15.29441
G0 F12000 X145.192 Y156.690
G1 F2100 E15.89441
G1 F1200 X145.171 Y156.701 E15.89546
G1 X145.060 Y156.502 E15.90549
G1 X145.522 Y156.305 E15.92762
G1 X146.115 Y156.045 E15.95615
G1 X145.192 Y156.690 E16.00576
G1 F2100 E15.40576
G0 F12000 X144.641 Y153.687
G1 F2100 E16.00576
G1 F1200 X145.279 Y153.651 E16.03391
G1 X144.178 Y153.942 E16.08408
G1 X144.140 Y153.721 E16.09396
G1 X144.641 Y153.687 E16.11609
G1 F2100 E15.51609
G0 F12000 X144.708 Y150.928
G1 F2100 E16.11609
G1 F1200 X145.287 Y151.107 E16.14279
G1 X144.225 Y151.014 E16.18975
G1 X144.185 Y151.004 E16.19157
G1 X144.228 Y150.783 E16.20149
G1 X144.708 Y150.928 E16.22358
G1 F2100 E15.62358
G0 F12000 X145.715 Y148.359
G1 F2100 E16.22358
G1 F1200 X146.224 Y148.737 E16.25151
G1 X145.232 Y148.273 E16.29976
G1 X145.198 Y148.250 E16.30157
G1 X145.314 Y148.058 E16.31145
G1 X145.715 Y148.359 E16.33354
G0 F12000 X146.275 Y148.152
;TYPE:WALL-OUTER
G1 F1200 X146.904 Y147.392 E16.37701
G1 X147.321 Y146.955 E16.40362
G1 X146.729 Y146.361 E16.44056
G1 X146.540 Y146.116 E16.45420
G1 X146.444 Y145.913 E16.46409
G1 X147.064 Y145.388 E16.49988
G1 X147.301 Y145.217 E16.51276
G1 X147.479 Y145.353 E16.52263
G1 X147.574 Y145.445 E16.52845
G1 X147.959 Y146.013 E16.55868
G1 X148.138 Y146.285 E16.57303
G1 X148.981 Y145.791 E16.61608
G1 X149.530 Y145.518 E16.64309
G1 X149.168 Y144.734 E16.68113
G1 X149.111 Y144.583 E16.68825
G1 X149.058 Y144.240 E16.70354
G1 X149.824 Y143.958 E16.73950
G1 X150.101 Y143.880 E16.75218
G1 X150.281 Y144.179 E16.76755
G1 X150.318 Y144.279 E16.77225
G1 X150.527 Y145.174 E16.81274
G1 X151.124 Y145.049 E16.83961
G1 X152.092 Y144.920 E16.88264
G1 X152.026 Y144.084 E16.91958
G1 X152.019 Y143.963 E16.92492
G1 X152.092 Y143.561 E16.94292
G1 X152.411 Y143.549 E16.95699
G1 X152.921 Y143.558 E16.97946
G1 X153.198 Y143.578 E16.99170
G1 X153.247 Y143.797 E17.00158
G1 X153.262 Y143.985 E17.00989
G1 X153.261 Y144.026 E17.01170
G1 X153.192 Y144.610 E17.03761
G1 X153.150 Y144.940 E17.05226
G1 X153.753 Y145.028 E17.07911
G1 X154.709 Y145.236 E17.12221
G1 X154.928 Y144.440 E17.15859
G1 X155.080 Y144.092 E17.17532
G1 X155.169 Y143.959 E17.18237
G1 X155.947 Y144.239 E17.21880
G1 X156.213 Y144.357 E17.23162
G1 X156.144 Y144.710 E17.24746
G1 X155.849 Y145.323 E17.27743
G1 X155.699 Y145.614 E17.29186
G1 X156.551 Y146.097 E17.33501
G1 X157.062 Y146.438 E17.36207
G1 X157.537 Y145.758 E17.39861
G1 X157.800 Y145.483 E17.41538
G1 X157.935 Y145.390 E17.42260
G1 X158.519 Y145.873 E17.45599
G1 X158.767 Y146.112 E17.47116
G1 X158.667 Y146.311 E17.48098
G1 X158.532 Y146.497 E17.49110
G1 X157.858 Y147.129 E17.53181
G1 X158.271 Y147.590 E17.55908
G1 X158.491 Y147.861 E17.57445
G1 X158.860 Y148.362 E17.60187
G1 X159.548 Y147.883 E17.63880
G1 X159.777 Y147.757 E17.65032
G1 X160.035 Y147.675 E17.66224
G1 X160.448 Y148.383 E17.69836
G1 X160.574 Y148.642 E17.71104
G1 X160.412 Y148.795 E17.72086
G1 X160.221 Y148.922 E17.73097
G1 X159.676 Y149.154 E17.75706
G1 X159.372 Y149.287 E17.77168
G1 X159.603 Y149.860 E17.79890
G1 X159.895 Y150.781 E17.84147
G1 X160.712 Y150.570 E17.87864
G1 X160.886 Y150.536 E17.88645
G1 X161.004 Y150.530 E17.89166
G1 X161.234 Y150.549 E17.90183
G1 X161.377 Y151.350 E17.93767
G1 X161.408 Y151.644 E17.95070
G1 X161.030 Y151.769 E17.96824
G1 X160.388 Y151.812 E17.99659
G1 X160.057 Y151.830 E18.01119
G1 X160.077 Y152.443 E18.03821
G1 X160.039 Y153.415 E18.08107
G1 X160.860 Y153.491 E18.11739
G1 X161.226 Y153.581 E18.13400
G1 X161.374 Y153.650 E18.14119
G1 X161.236 Y154.453 E18.17709
G1 X161.163 Y154.741 E18.19018
G1 X161.021 Y154.750 E18.19645
G1 X160.703 Y154.718 E18.21053
G1 X160.150 Y154.552 E18.23597
G1 X159.837 Y154.454 E18.25041
G1 X159.506 Y155.385 E18.29395
G1 X159.263 Y155.939 E18.32060
G1 X160.016 Y156.291 E18.35722
G1 X160.330 Y156.500 E18.37384
G1 X160.446 Y156.617 E18.38110
G1 X160.040 Y157.324 E18.41701
G1 X159.877 Y157.565 E18.42983
G1 X159.660 Y157.498 E18.43984
G1 X159.517 Y157.432 E18.44678
G1 X159.462 Y157.399 E18.44960
G1 X158.986 Y157.042 E18.47582
G1 X158.725 Y156.848 E18.49014
G1 X158.099 Y157.605 E18.53342
G1 X157.679 Y158.045 E18.56022
G1 X158.271 Y158.639 E18.59717
G1 X158.460 Y158.884 E18.61080
G1 X158.556 Y159.087 E18.62069
G1 X157.936 Y159.612 E18.65649
G1 X157.699 Y159.783 E18.66936
G1 X157.521 Y159.647 E18.67923
G1 X157.426 Y159.555 E18.68506
G1 X157.039 Y158.984 E18.71545
G1 X156.862 Y158.715 E18.72963
G1 X156.019 Y159.210 E18.77270
G1 X155.470 Y159.483 E18.79972
G1 X155.823 Y160.242 E18.83659
G1 X155.889 Y160.416 E18.84479
G1 X155.942 Y160.760 E18.86013
G1 X155.176 Y161.042 E18.89609
G1 X154.899 Y161.120 E18.90877
G1 X154.719 Y160.821 E18.92414
G1 X154.682 Y160.721 E18.92884
G1 X154.474 Y159.832 E18.96906
G1 X153.505 Y160.010 E19.01247
G1 X152.903 Y160.077 E19.03916
G1 X152.974 Y160.916 E19.07625
G1 X152.981 Y161.037 E19.08159
G1 X152.908 Y161.439 E19.09959
G1 X152.589 Y161.451 E19.11366
G1 X152.079 Y161.442 E19.13613
G1 X151.802 Y161.422 E19.14836
G1 X151.753 Y161.203 E19.15825
G1 X151.738 Y161.015 E19.16656
G1 X151.739 Y160.974 E19.16837
G1 X151.808 Y160.390 E19.19427
G1 X151.849 Y160.065 E19.20871
G1 X150.880 Y159.902 E19.25200
G1 X150.288 Y159.757 E19.27885
G1 X150.072 Y160.559 E19.31544
G1 X149.920 Y160.908 E19.33221
G1 X149.831 Y161.041 E19.33926
G1 X149.060 Y160.764 E19.37536
G1 X148.798 Y160.646 E19.38802
G1 X148.852 Y160.299 E19.40349
G1 X149.151 Y159.677 E19.43389
G1 X149.301 Y159.386 E19.44832
G1 X148.449 Y158.903 E19.49147
G1 X147.938 Y158.562 E19.51853
G1 X147.463 Y159.242 E19.55507
G1 X147.200 Y159.517 E19.57184
G1 X147.065 Y159.610 E19.57906
G1 X146.477 Y159.123 E19.61270
G1 X146.233 Y158.888 E19.62762
G1 X146.333 Y158.689 E19.63743
G1 X146.468 Y158.503 E19.64756
G1 X147.138 Y157.875 E19.68802
G1 X146.503 Y157.131 E19.73111
G1 X146.140 Y156.638 E19.75808
G1 X145.452 Y157.117 E19.79502
G1 X145.223 Y157.243 E19.80653
G1 X144.965 Y157.325 E19.81846
G1 X144.791 Y157.048 E19.83287
G1 X144.426 Y156.358 E19.86726
G1 X144.588 Y156.205 E19.87708
G1 X144.779 Y156.078 E19.88718
G1 X145.324 Y155.846 E19.91328
G1 X145.627 Y155.713 E19.92786
G1 X145.399 Y155.142 E19.95495
G1 X145.103 Y154.215 E19.99782
G1 X144.287 Y154.430 E20.03500
G1 X144.114 Y154.464 E20.04276
G1 X143.996 Y154.470 E20.04797
G1 X143.766 Y154.451 E20.05814
G1 X143.623 Y153.649 E20.09403
G1 X143.592 Y153.356 E20.10701
G1 X143.970 Y153.231 E20.12455
G1 X144.612 Y153.188 E20.15290
G1 X144.943 Y153.170 E20.16750
G1 X144.923 Y152.555 E20.19461
G1 X144.962 Y151.581 E20.23756
G1 X144.140 Y151.509 E20.27391
G1 X143.774 Y151.419 E20.29051
G1 X143.626 Y151.350 E20.29771
G1 X143.764 Y150.547 E20.33360
G1 X143.837 Y150.259 E20.34669
G1 X143.979 Y150.250 E20.35296
G1 X144.297 Y150.282 E20.36704
G1 X144.850 Y150.448 E20.39248
G1 X145.163 Y150.546 E20.40693
G1 X145.494 Y149.615 E20.45046
G1 X145.737 Y149.061 E20.47711
G1 X144.984 Y148.709 E20.51374
G1 X144.670 Y148.500 E20.53035
G1 X144.554 Y148.383 E20.53761
G1 X144.960 Y147.676 E20.57353
G1 X145.123 Y147.435 E20.58635
G1 X145.340 Y147.502 E20.59635
G1 X145.483 Y147.568 E20.60329
G1 X145.538 Y147.601 E20.60612
G1 X146.014 Y147.958 E20.63233
G1 X146.275 Y148.152 E20.64666
G1 F2100 E20.04666
G0 F12000 X148.835 Y150.024
G1 F2100 E20.64666
G1 F1200 X148.612 Y150.389 E20.66550
G1 X148.427 Y150.774 E20.68432
G1 X148.279 Y151.175 E20.70315
G1 X148.172 Y151.580 E20.72161
G1 X148.103 Y152.003 E20.74049
G1 X148.076 Y152.437 E20.75965
G1 X148.091 Y152.864 E20.77847
G1 X148.147 Y153.288 E20.79732
G1 X148.242 Y153.705 E20.81616
G1 X148.379 Y154.110 E20.83499
G1 X148.554 Y154.500 E20.85383
G1 X148.761 Y154.866 E20.87235
G1 X149.043 Y155.258 E20.89363
G1 X149.320 Y155.573 E20.91211
G1 X149.624 Y155.862 E20.93059
G1 X149.956 Y156.119 E20.94908
G1 X150.684 Y156.534 E20.98600
G1 X151.074 Y156.688 E21.00448
G1 X151.476 Y156.805 E21.02292
G1 X151.897 Y156.883 E21.04178
G1 X152.322 Y156.921 E21.06058
G1 X152.757 Y156.918 E21.07975
G1 X153.183 Y156.872 E21.09863
G1 X154.011 Y156.659 E21.13629
G1 X154.404 Y156.493 E21.15509
G1 X154.781 Y156.291 E21.17393
G1 X155.136 Y156.053 E21.19276
G1 X155.467 Y155.782 E21.21161
G1 X155.770 Y155.481 E21.23042
G1 X156.042 Y155.151 E21.24927
G1 X156.282 Y154.797 E21.26811
G1 X156.486 Y154.420 E21.28699
G1 X156.652 Y154.027 E21.30579
G1 X156.779 Y153.628 E21.32424
G1 X156.868 Y153.201 E21.34345
G1 X156.916 Y152.784 E21.36195
G1 X156.922 Y152.350 E21.38107
G1 X156.887 Y151.923 E21.39994
G1 X156.811 Y151.503 E21.41875
G1 X156.694 Y151.090 E21.43766
G1 X156.538 Y150.692 E21.45649
G1 X156.345 Y150.311 E21.47531
G1 X156.115 Y149.949 E21.49420
G1 X155.840 Y149.599 E21.51381
G1 X155.551 Y149.295 E21.53229
G1 X155.234 Y149.020 E21.55078
G1 X154.891 Y148.777 E21.56930
G1 X154.527 Y148.566 E21.58784
G1 X154.100 Y148.376 E21.60843
G1 X153.702 Y148.242 E21.62693
G1 X153.307 Y148.150 E21.64480
G1 X152.891 Y148.093 E21.66330
G1 X152.456 Y148.076 E21.68248
G1 X152.029 Y148.100 E21.70132
G1 X151.606 Y148.167 E21.72019
G1 X151.192 Y148.274 E21.73903
G1 X150.790 Y148.419 E21.75785
G1 X150.405 Y148.603 E21.77665
G1 X150.037 Y148.824 E21.79557
G1 X149.695 Y149.079 E21.81436
G1 X149.377 Y149.365 E21.83320
G1 X149.090 Y149.682 E21.85204
G1 X148.835 Y150.024 E21.87084
G0 F12000 X148.000 Y149.179
;TYPE:SKIN
G1 F1200 X148.000 Y147.945 E21.92520
G0 F12000 X148.500 Y147.434
G1 F1200 X148.500 Y148.583 E21.97582
G0 F12000 X149.000 Y148.132
G1 F1200 X149.250 Y146.994 E22.01946
G1 X149.750 Y147.635 E22.06036
G1 X150.250 Y146.488 E22.09994
G1 X150.750 Y147.193 E22.13931
G1 X151.250 Y146.229 E22.17615
G1 X151.750 Y146.960 E22.21189
G1 X152.250 Y146.082 E22.24750
G1 X152.750 Y146.911 E22.28504
G1 X153.250 Y146.142 E22.32092
G1 X153.750 Y147.047 E22.35663
G1 X154.250 Y146.339 E22.39268
G1 X154.750 Y147.380 E22.43125
G1 X155.250 Y146.711 E22.47172
G1 X155.750 Y147.949 E22.51208
G1 X156.000 Y147.142 E22.54930
G0 F12000 X156.500 Y147.476
G1 F1200 X156.500 Y148.587 E22.59825
G0 F12000 X157.000 Y149.173
G1 F1200 X157.000 Y147.932 E22.65292
G0 F12000 X157.500 Y148.505
G1 F1200 X157.500 Y149.991 E22.71839
G0 F12000 X158.000 Y149.176
G1 F1200 X158.000 Y151.474 E22.81963
G0 F12000 X158.500 Y150.267
G1 F1200 X158.500 Y154.709 E23.01533
G0 F12000 X157.500 Y155.014
G1 F1200 X157.500 Y156.486 E23.08018
G0 F12000 X157.000 Y157.055
G1 F1200 X157.000 Y155.832 E23.13406
G0 F12000 X156.500 Y156.412
G1 F1200 X156.500 Y157.566 E23.18490
G0 F12000 X156.000 Y157.859
G1 F1200 X155.750 Y157.043 E23.22875
G1 X155.250 Y158.278 E23.26960
G1 X154.750 Y157.617 E23.30918
G1 X154.250 Y158.679 E23.34900
G1 X153.750 Y157.948 E23.38576
G1 X153.250 Y158.851 E23.42141
G1 X152.750 Y158.083 E23.45718
G1 X152.250 Y158.919 E23.49443
G1 X151.750 Y158.038 E23.53085
G1 X151.250 Y158.768 E23.56656
G1 X150.750 Y157.807 E23.60321
G1 X150.250 Y158.515 E23.64178
G1 X149.750 Y157.363 E23.68250
G1 X149.250 Y158.002 E23.72325
G1 X149.000 Y156.865 E23.77454
G0 F12000 X148.500 Y156.416
G1 F1200 X148.500 Y157.524 E23.82336
G0 F12000 X148.000 Y157.075
G1 F1200 X148.000 Y155.820 E23.87865
G0 F12000 X147.500 Y156.489
G1 F1200 X147.500 Y155.022 E23.94328
G0 F12000 X147.000 Y155.824
G1 F1200 X147.000 Y153.546 E24.04364
G0 F12000 X146.500 Y154.726
G1 F1200 X146.500 Y150.292 E24.23899
G0 F12000 X147.500 Y149.992
G1 F1200 X147.500 Y148.514 E24.30410
G0 F12000 X147.000 Y149.120
G1 F1200 X147.000 Y151.466 E24.40746
G1 F2100 E23.80746
G0 F12000 X158.000 Y153.529
G1 F2100 E24.40746
G1 F1200 X158.000 Y155.880 E24.51104
;LAYER:1
G0 F12000 X157.580 Y156.677 Z0.350
;TYPE:WALL-INNER
G1 F1320 X156.682 Y157.662 E24.55508
G1 X155.545 Y158.329 E24.59864
G1 X154.621 Y158.788 E24.63273
G1 X153.370 Y159.019 E24.67476
G1 X152.338 Y159.133 E24.70907
G1 X151.087 Y158.923 E24.75099
G1 X150.076 Y158.675 E24.78538
G1 X148.970 Y158.049 E24.82737
G1 X148.111 Y157.475 E24.86151
G1 X147.283 Y156.503 E24.90370
G1 X146.676 Y155.682 E24.93744
G1 X146.234 Y154.496 E24.97926
G1 X145.954 Y153.547 E25.01195
G1 X145.924 Y152.561 E25.04455
G1 X145.977 Y151.248 E25.08797
G1 X146.422 Y149.988 E25.13212
G1 X146.816 Y149.092 E25.16447
G1 X147.425 Y148.317 E25.19703
G1 X148.318 Y147.338 E25.24082
G1 X149.459 Y146.669 E25.28452
G1 X150.323 Y146.240 E25.31640
G1 X151.294 Y146.034 E25.34920
G1 X152.614 Y145.859 E25.39319
G1 X153.913 Y146.077 E25.43672
G1 X154.924 Y146.325 E25.47111
G1 X156.030 Y146.951 E25.51311
G1 X156.889 Y147.525 E25.54724
G1 X157.717 Y148.497 E25.58943
G1 X158.324 Y149.318 E25.62317
G1 X158.766 Y150.504 E25.66499
G1 X159.046 Y151.453 E25.69769
G1 X159.076 Y152.441 E25.73035
G1 X159.025 Y153.747 E25.77353
G1 X158.578 Y155.012 E25.81787
G1 X158.184 Y155.908 E25.85021
G1 X157.580 Y156.677 E25.88252
G0 F12000 X156.519 Y156.143
G1 F1320 X156.852 Y155.739 E25.89982
G1 X157.145 Y155.303 E25.91717
G1 X157.406 Y154.817 E25.93540
G1 X157.742 Y153.909 E25.96739
G1 X157.858 Y153.348 E25.98632
G1 X157.915 Y152.849 E26.00292
G1 X157.923 Y152.323 E26.02030
G1 X157.878 Y151.780 E26.03830
G1 X157.782 Y151.262 E26.05571
G1 X157.638 Y150.759 E26.07300
G1 X157.447 Y150.271 E26.09032
G1 X157.207 Y149.802 E26.10772
G1 X156.923 Y149.359 E26.12511
G1 X156.557 Y148.897 E26.14459
G1 X155.956 Y148.318 E26.17216
G1 X155.427 Y147.931 E26.19382
G1 X154.874 Y147.624 E26.21472
G1 X154.054 Y147.302 E26.24383
G1 X153.503 Y147.167 E26.26257
G1 X152.979 Y147.095 E26.28005
G1 X152.455 Y147.075 E26.29738
G1 X151.910 Y147.107 E26.31542
G1 X151.390 Y147.189 E26.33281
G1 X150.881 Y147.322 E26.35019
G1 X150.392 Y147.502 E26.36741
G1 X149.919 Y147.728 E26.38473
G1 X149.469 Y148.001 E26.40212
G1 X149.051 Y148.314 E26.41938
G1 X148.662 Y148.665 E26.43669
G1 X148.309 Y149.055 E26.45407
G1 X147.998 Y149.475 E26.47134
G1 X147.725 Y149.924 E26.48870
G1 X147.500 Y150.397 E26.50601
G1 X147.320 Y150.888 E26.52329
G1 X147.190 Y151.393 E26.54052
G1 X147.108 Y151.891 E26.55720
G1 X147.075 Y152.437 E26.57527
G1 X147.094 Y152.961 E26.59260
G1 X147.164 Y153.482 E26.60997
G1 X147.284 Y153.992 E26.62728
G1 X147.452 Y154.487 E26.64455
G1 X147.666 Y154.963 E26.66180
G1 X147.921 Y155.412 E26.67886
G1 X148.303 Y155.931 E26.70015
G1 X148.560 Y156.231 E26.71321
G1 X149.032 Y156.673 E26.73457
G1 X149.715 Y157.157 E26.76223
G1 X150.310 Y157.465 E26.78437
G1 X151.057 Y157.725 E26.81051
G1 X151.760 Y157.875 E26.83426
G1 X152.283 Y157.922 E26.85161
G1 X152.828 Y157.915 E26.86962
G1 X153.351 Y157.859 E26.88700
G1 X153.865 Y157.751 E26.90435
G1 X154.367 Y157.595 E26.92172
G1 X154.849 Y157.389 E26.93904
G1 X155.308 Y157.141 E26.95628
G1 X155.743 Y156.849 E26.97359
G1 X156.149 Y156.515 E26.99096
G1 X156.519 Y156.143 E27.00830
G0 F12000 X156.148 Y155.807
G1 F1320 X156.450 Y155.440 E27.02401
G1 X156.716 Y155.045 E27.03974
G1 X156.949 Y154.611 E27.05602
G1 X157.260 Y153.771 E27.08561
G1 X157.363 Y153.269 E27.10255
G1 X157.415 Y152.817 E27.11758
G1 X157.422 Y152.340 E27.13334
G1 X157.381 Y151.846 E27.14972
G1 X157.295 Y151.377 E27.16548
G1 X157.164 Y150.919 E27.18122
G1 X156.991 Y150.476 E27.19693
G1 X156.773 Y150.052 E27.21269
G1 X156.515 Y149.650 E27.22847
G1 X156.186 Y149.234 E27.24599
G1 X155.634 Y148.702 E27.27133
G1 X155.157 Y148.353 E27.29086
G1 X154.653 Y148.073 E27.30991
G1 X153.913 Y147.783 E27.33617
G1 X153.410 Y147.659 E27.35329
G1 X152.935 Y147.594 E27.36913
G1 X152.460 Y147.575 E27.38484
G1 X151.964 Y147.604 E27.40125
G1 X151.492 Y147.679 E27.41705
G1 X151.031 Y147.800 E27.43279
G1 X150.586 Y147.963 E27.44845
G1 X150.157 Y148.168 E27.46416
G1 X149.749 Y148.416 E27.47994
G1 X149.369 Y148.700 E27.49562
G1 X149.016 Y149.019 E27.51134
G1 X148.696 Y149.373 E27.52710
G1 X148.413 Y149.754 E27.54279
G1 X148.166 Y150.162 E27.55855
G1 X147.962 Y150.591 E27.57424
G1 X147.798 Y151.037 E27.58994
G1 X147.679 Y151.496 E27.60561
G1 X147.606 Y151.947 E27.62071
G1 X147.575 Y152.443 E27.63713
G1 X147.593 Y152.918 E27.65284
G1 X147.657 Y153.391 E27.66861
G1 X147.765 Y153.854 E27.68432
G1 X147.918 Y154.304 E27.70002
G1 X148.112 Y154.737 E27.71570
G1 X148.342 Y155.140 E27.73103
G1 X148.694 Y155.620 E27.75070
G1 X148.922 Y155.885 E27.76225
G1 X149.349 Y156.284 E27.78156
G1 X149.976 Y156.729 E27.80697
G1 X150.508 Y157.005 E27.82677
G1 X151.207 Y157.248 E27.85122
G1 X151.363 Y157.292 E27.85658
G1 X151.828 Y157.379 E27.87221
G1 X152.303 Y157.421 E27.88797
G1 X152.799 Y157.416 E27.90436
G1 X153.272 Y157.365 E27.92008
G1 X153.739 Y157.267 E27.93584
G1 X154.194 Y157.125 E27.95159
G1 X154.632 Y156.938 E27.96733
G1 X155.049 Y156.713 E27.98299
G1 X155.444 Y156.447 E27.99872
G1 X155.812 Y156.145 E28.01445
G1 X156.148 Y155.807 E28.03020
G1 F2100 E27.43020
G0 F12000 X157.952 Y157.012
G1 F2100 E28.03020
G1 F1320 X157.003 Y158.053 E28.07674
G1 X155.791 Y158.764 E28.12317
G1 X154.811 Y159.252 E28.15935
G1 X153.432 Y159.515 E28.20573
G1 X152.365 Y159.633 E28.24121
G1 X152.366 Y159.645 E28.24160
G1 X150.980 Y159.412 E28.28804
G1 X149.933 Y159.155 E28.32367
G1 X149.930 Y159.167 E28.32407
G1 X148.708 Y158.475 E28.37048
G1 X147.809 Y157.875 E28.40619
G1 X147.802 Y157.885 E28.40659
G1 X146.899 Y156.825 E28.45261
G1 X146.253 Y155.950 E28.48854
G1 X145.754 Y154.637 E28.53496
G1 X145.457 Y153.627 E28.56974
G1 X145.423 Y152.542 E28.60561
G1 X145.480 Y151.152 E28.65158
G1 X145.955 Y149.806 E28.69874
G1 X146.384 Y148.833 E28.73388
G1 X147.048 Y147.988 E28.76939
G1 X147.997 Y146.947 E28.81593
G1 X149.209 Y146.236 E28.86236
G1 X150.159 Y145.763 E28.89743
G1 X151.214 Y145.540 E28.93306
G1 X152.620 Y145.353 E28.97993
G1 X154.020 Y145.588 E29.02683
G1 X155.067 Y145.845 E29.06246
G1 X155.070 Y145.833 E29.06286
G1 X156.292 Y146.525 E29.10927
G1 X157.191 Y147.125 E29.14498
G1 X157.198 Y147.115 E29.14538
G1 X158.097 Y148.171 E29.19121
G1 X158.747 Y149.050 E29.22733
G1 X159.243 Y150.354 E29.27343
G1 X159.543 Y151.373 E29.30853
G1 X159.577 Y152.458 E29.34440
G1 X159.522 Y153.844 E29.39023
G1 X159.045 Y155.194 E29.43754
G1 X158.616 Y156.167 E29.47268
G1 X157.952 Y157.012 E29.50819
G1 F2100 E28.90819
G0 F12000 X159.707 Y156.699
G1 F2100 E29.50819
G1 F1320 X159.888 Y156.792 E29.51491
G1 X159.925 Y156.825 E29.51655
G1 X159.819 Y157.013 E29.52368
G1 X159.712 Y156.962 E29.52760
G1 X158.793 Y156.271 E29.56559
G1 X159.707 Y156.699 E29.59894
G1 F2100 E28.99894
G0 F12000 X157.845 Y158.919
G1 F2100 E29.59894
G1 F1320 X158.001 Y159.100 E29.60684
G1 X157.831 Y159.247 E29.61426
G1 X157.766 Y159.182 E29.61730
G1 X157.076 Y158.128 E29.65892
G1 X157.845 Y158.919 E29.69538
G1 F2100 E29.09538
G0 F12000 X155.319 Y160.344
G1 F2100 E29.69538
G1 F1320 X155.410 Y160.575 E29.70358
G1 X155.411 Y160.585 E29.70391
G1 X155.199 Y160.664 E29.71139
G1 X155.056 Y160.123 E29.72988
G1 X154.890 Y159.421 E29.75371
G1 X155.319 Y160.344 E29.78735
G1 F2100 E29.18735
G0 F12000 X152.467 Y160.852
G1 F2100 E29.78735
G1 F1320 X152.479 Y161.021 E29.79294
G1 X152.469 Y161.099 E29.79554
G1 X152.246 Y161.094 E29.80291
G1 X152.238 Y161.027 E29.80514
G1 X152.381 Y159.824 E29.84517
G1 X152.467 Y160.852 E29.87926
G1 F2100 E29.27926
G0 F12000 X149.616 Y160.329
G1 F2100 E29.87926
G1 F1320 X149.535 Y160.564 E29.88747
G1 X149.323 Y160.490 E29.89489
G1 X149.346 Y160.403 E29.89786
G1 X149.881 Y159.346 E29.93701
G1 X149.616 Y160.329 E29.97065
G1 F2100 E29.37065
G0 F12000 X147.118 Y158.863
G1 F2100 E29.97065
G1 F1320 X146.954 Y159.063 E29.97920
G1 X146.784 Y158.924 E29.98645
G1 X146.851 Y158.831 E29.99024
G1 X147.692 Y158.042 E30.02834
G1 X147.118 Y158.863 E30.06144
G1 F2100 E29.46144
G0 F12000 X145.255 Y156.645
G1 F2100 E30.06144
G1 F1320 X145.114 Y156.739 E30.06704
G1 X145.043 Y156.769 E30.06959
G1 X144.932 Y156.581 E30.07680
G1 X145.029 Y156.515 E30.08068
G1 X146.107 Y156.052 E30.11945
G1 X145.255 Y156.645 E30.15375
G1 F2100 E29.55375
G0 F12000 X144.281 Y153.915
G1 F2100 E30.15375
G1 F1320 X144.033 Y153.968 E30.16213
G1 X143.992 Y153.747 E30.16955
G1 X144.106 Y153.718 E30.17344
G1 X145.275 Y153.651 E30.21213
G1 X144.281 Y153.915 E30.24611
G1 F2100 E29.64611
G0 F12000 X144.297 Y151.021
G1 F2100 E30.24611
G1 F1320 X144.043 Y150.980 E30.25461
G1 X144.080 Y150.759 E30.26202
G1 X144.171 Y150.766 E30.26503
G1 X145.299 Y151.109 E30.30399
G1 X144.297 Y151.021 E30.33723
G1 F2100 E29.73723
G0 F12000 X145.293 Y148.301
G1 F2100 E30.33723
G1 F1320 X145.112 Y148.208 E30.34395
G1 X145.075 Y148.175 E30.34559
G1 X145.181 Y147.987 E30.35272
G1 X145.288 Y148.038 E30.35664
G1 X146.207 Y148.729 E30.39463
G1 X145.293 Y148.301 E30.42798
G1 F2100 E29.82798
G0 F12000 X147.155 Y146.081
G1 F2100 E30.42798
G1 F1320 X146.999 Y145.900 E30.43587
G1 X147.169 Y145.753 E30.44330
G1 X147.234 Y145.818 E30.44634
G1 X147.924 Y146.872 E30.48796
G1 X147.155 Y146.081 E30.52442
G1 F2100 E29.92442
G0 F12000 X149.662 Y144.610
G1 F2100 E30.52442
G1 F1320 X149.612 Y144.504 E30.52829
G1 X149.591 Y144.414 E30.53134
G1 X149.801 Y144.336 E30.53874
G1 X149.814 Y144.362 E30.53970
G1 X149.941 Y144.866 E30.55688
G1 X150.112 Y145.586 E30.58133
G1 X149.662 Y144.610 E30.61684
G1 F2100 E30.01684
G0 F12000 X152.521 Y143.978
G1 F2100 E30.61684
G1 F1320 X152.531 Y143.901 E30.61941
G1 X152.754 Y143.906 E30.62678
G1 X152.762 Y143.973 E30.62901
G1 X152.612 Y145.236 E30.67104
G1 X152.521 Y143.978 E30.71271
G1 F2100 E30.11271
G0 F12000 X155.385 Y144.669
G1 F2100 E30.71271
G1 F1320 X155.465 Y144.436 E30.72085
G1 X155.677 Y144.510 E30.72827
G1 X155.654 Y144.597 E30.73124
G1 X155.119 Y145.654 E30.77039
G1 X155.385 Y144.669 E30.80410
G1 F2100 E30.20410
G0 F12000 X157.882 Y146.137
G1 F2100 E30.80410
G1 F1320 X158.046 Y145.937 E30.81265
G1 X158.216 Y146.076 E30.81990
G1 X158.149 Y146.169 E30.82369
G1 X157.309 Y146.957 E30.86175
G1 X157.882 Y146.137 E30.89480
G1 F2100 E30.29480
G0 F12000 X159.745 Y148.355
G1 F2100 E30.89480
G1 F1320 X159.886 Y148.261 E30.90040
G1 X159.957 Y148.231 E30.90295
G1 X160.068 Y148.419 E30.91016
G1 X159.971 Y148.485 E30.91404
G1 X158.893 Y148.948 E30.95281
G1 X159.745 Y148.355 E30.98711
G1 F2100 E30.38711
G0 F12000 X160.719 Y151.085
G1 F2100 E30.98711
G1 F1320 X160.966 Y151.032 E30.99545
G1 X161.008 Y151.253 E31.00289
G1 X160.894 Y151.282 E31.00677
G1 X159.725 Y151.349 E31.04546
G1 X160.719 Y151.085 E31.07945
G1 F2100 E30.47945
G0 F12000 X160.694 Y153.978
G1 F2100 E31.07945
G1 F1320 X160.957 Y154.020 E31.08825
G1 X160.920 Y154.241 E31.09565
G1 X160.829 Y154.234 E31.09867
G1 X159.642 Y153.873 E31.13966
G1 X160.694 Y153.978 E31.17460
G0 F12000 X160.772 Y153.484
;TYPE:WALL-OUTER
G1 F1320 X161.076 Y153.530 E31.18475
G1 X161.436 Y153.673 E31.19755
G1 X161.513 Y153.716 E31.20047
G1 X161.402 Y154.388 E31.22297
G1 X161.322 Y154.724 E31.23439
G1 X161.012 Y154.750 E31.24467
G1 X160.710 Y154.720 E31.25469
G1 X159.836 Y154.455 E31.28487
G1 X159.512 Y155.372 E31.31701
G1 X159.263 Y155.939 E31.33747
G1 X159.930 Y156.251 E31.36180
G1 X160.173 Y156.377 E31.37084
G1 X160.495 Y156.659 E31.38499
G1 X160.554 Y156.726 E31.38794
G1 X160.224 Y157.313 E31.41019
G1 X160.030 Y157.608 E31.42185
G1 X159.729 Y157.526 E31.43216
G1 X159.453 Y157.393 E31.44229
G1 X158.720 Y156.843 E31.47257
G1 X158.336 Y157.333 E31.49314
G1 X157.690 Y158.042 E31.52483
G1 X158.204 Y158.570 E31.54918
G1 X158.407 Y158.800 E31.55932
G1 X158.589 Y159.139 E31.57203
G1 X158.622 Y159.226 E31.57510
G1 X158.109 Y159.666 E31.59743
G1 X157.828 Y159.875 E31.60901
G1 X157.571 Y159.692 E31.61943
G1 X157.392 Y159.516 E31.62773
G1 X157.364 Y159.482 E31.62918
G1 X156.863 Y158.715 E31.65945
G1 X156.021 Y159.208 E31.69169
G1 X155.470 Y159.483 E31.71204
G1 X155.778 Y160.146 E31.73620
G1 X155.897 Y160.447 E31.74689
G1 X155.952 Y160.817 E31.75925
G1 X155.954 Y160.915 E31.76249
G1 X155.330 Y161.149 E31.78451
G1 X154.985 Y161.252 E31.79641
G1 X154.806 Y160.995 E31.80676
G1 X154.713 Y160.808 E31.81366
G1 X154.571 Y160.246 E31.83281
G1 X154.474 Y159.832 E31.84686
G1 X153.509 Y160.010 E31.87928
G1 X152.904 Y160.076 E31.89939
G1 X152.966 Y160.817 E31.92396
G1 X152.981 Y161.032 E31.93109
G1 X152.950 Y161.285 E31.93951
G1 X152.859 Y161.592 E31.95009
G1 X152.567 Y161.601 E31.95974
G1 X152.066 Y161.591 E31.97630
G1 X151.844 Y161.577 E31.98365
G1 X151.762 Y161.270 E31.99415
G1 X151.738 Y161.051 E32.00143
G1 X151.739 Y160.974 E32.00397
G1 X151.847 Y160.065 E32.03422
G1 X150.886 Y159.903 E32.06642
G1 X150.288 Y159.757 E32.08676
G1 X150.098 Y160.464 E32.11095
G1 X149.997 Y160.767 E32.12150
G1 X149.795 Y161.094 E32.13421
G1 X149.737 Y161.166 E32.13726
G1 X149.092 Y160.939 E32.15985
G1 X148.777 Y160.803 E32.17119
G1 X148.806 Y160.492 E32.18151
G1 X148.887 Y160.202 E32.19146
G1 X149.300 Y159.385 E32.22171
G1 X148.451 Y158.904 E32.25395
G1 X147.938 Y158.562 E32.27432
G1 X147.513 Y159.170 E32.29884
G1 X147.319 Y159.412 E32.30908
G1 X147.017 Y159.651 E32.32181
G1 X146.939 Y159.698 E32.32482
G1 X146.420 Y159.273 E32.34698
G1 X146.162 Y159.029 E32.35872
G1 X146.294 Y158.749 E32.36895
G1 X146.477 Y158.495 E32.37929
G1 X147.138 Y157.875 E32.40924
G1 X146.510 Y157.139 E32.44121
G1 X146.140 Y156.638 E32.46178
G1 X145.532 Y157.061 E32.48626
G1 X145.348 Y157.183 E32.49355
G1 X145.114 Y157.282 E32.50195
G1 X144.814 Y157.363 E32.51222
G1 X144.470 Y156.782 E32.53453
G1 X144.312 Y156.467 E32.54617
G1 X144.529 Y156.251 E32.55629
G1 X144.790 Y156.074 E32.56671
G1 X145.622 Y155.716 E32.59664
G1 X145.285 Y154.812 E32.62852
G1 X145.108 Y154.213 E32.64915
G1 X144.397 Y154.402 E32.67346
G1 X144.099 Y154.465 E32.68353
G1 X143.965 Y154.470 E32.68796
G1 X143.612 Y154.433 E32.69969
G1 X143.487 Y153.768 E32.72204
G1 X143.448 Y153.428 E32.73335
G1 X143.731 Y153.297 E32.74366
G1 X144.027 Y153.222 E32.75375
G1 X144.942 Y153.170 E32.78403
G1 X144.923 Y152.549 E32.80456
G1 X144.962 Y151.581 E32.83657
G1 X144.229 Y151.516 E32.86088
G1 X143.924 Y151.470 E32.87108
G1 X143.564 Y151.327 E32.88388
G1 X143.487 Y151.284 E32.88679
G1 X143.598 Y150.611 E32.90933
G1 X143.678 Y150.276 E32.92071
G1 X143.988 Y150.250 E32.93099
G1 X144.290 Y150.280 E32.94102
G1 X145.164 Y150.545 E32.97119
G1 X145.488 Y149.628 E33.00333
G1 X145.737 Y149.061 E33.02379
G1 X145.070 Y148.749 E33.04812
G1 X144.827 Y148.623 E33.05717
G1 X144.505 Y148.341 E33.07131
G1 X144.446 Y148.274 E33.07426
G1 X144.776 Y147.687 E33.09651
G1 X144.970 Y147.392 E33.10818
G1 X145.271 Y147.474 E33.11849
G1 X145.547 Y147.607 E33.12861
G1 X146.280 Y148.157 E33.15889
G1 X146.664 Y147.667 E33.17946
G1 X147.310 Y146.958 E33.21115
G1 X146.796 Y146.430 E33.23550
G1 X146.593 Y146.200 E33.24564
G1 X146.411 Y145.861 E33.25835
G1 X146.378 Y145.774 E33.26143
G1 X146.891 Y145.334 E33.28376
G1 X147.172 Y145.125 E33.29533
G1 X147.429 Y145.308 E33.30575
G1 X147.608 Y145.484 E33.31405
G1 X147.636 Y145.518 E33.31550
G1 X148.137 Y146.285 E33.34577
G1 X148.979 Y145.792 E33.37801
G1 X149.530 Y145.518 E33.39835
G1 X149.209 Y144.821 E33.42370
G1 X149.136 Y144.668 E33.42931
G1 X149.072 Y144.390 E33.43873
G1 X149.048 Y144.184 E33.44558
G1 X149.046 Y144.085 E33.44886
G1 X149.670 Y143.851 E33.47088
G1 X150.015 Y143.748 E33.48277
G1 X150.194 Y144.005 E33.49312
G1 X150.287 Y144.192 E33.50002
G1 X150.428 Y144.751 E33.51907
G1 X150.528 Y145.174 E33.53343
G1 X151.125 Y145.048 E33.55360
G1 X152.087 Y144.920 E33.58566
G1 X152.019 Y143.968 E33.61720
G1 X152.050 Y143.715 E33.62562
G1 X152.141 Y143.408 E33.63620
G1 X152.433 Y143.399 E33.64585
G1 X152.934 Y143.409 E33.66241
G1 X153.156 Y143.423 E33.66976
G1 X153.238 Y143.730 E33.68026
G1 X153.262 Y143.949 E33.68754
G1 X153.261 Y144.026 E33.69009
G1 X153.153 Y144.935 E33.72033
G1 X154.114 Y145.097 E33.75254
G1 X154.712 Y145.243 E33.77288
G1 X154.902 Y144.536 E33.79707
G1 X155.003 Y144.233 E33.80762
G1 X155.205 Y143.906 E33.82032
G1 X155.263 Y143.834 E33.82337
G1 X155.908 Y144.061 E33.84597
G1 X156.223 Y144.197 E33.85730
G1 X156.194 Y144.508 E33.86763
G1 X156.113 Y144.798 E33.87757
G1 X155.700 Y145.615 E33.90782
G1 X156.549 Y146.096 E33.94007
G1 X157.062 Y146.438 E33.96044
G1 X157.490 Y145.826 E33.98511
G1 X157.681 Y145.588 E33.99520
G1 X157.983 Y145.349 E34.00792
G1 X158.061 Y145.302 E34.01093
G1 X158.580 Y145.727 E34.03310
G1 X158.838 Y145.971 E34.04483
G1 X158.706 Y146.251 E34.05506
G1 X158.523 Y146.505 E34.06540
G1 X157.862 Y147.125 E34.09535
G1 X158.489 Y147.860 E34.12727
G1 X158.860 Y148.362 E34.14790
G1 X159.468 Y147.939 E34.17237
G1 X159.652 Y147.817 E34.17967
G1 X159.886 Y147.718 E34.18806
G1 X160.186 Y147.637 E34.19833
G1 X160.526 Y148.210 E34.22035
G1 X160.688 Y148.533 E34.23229
G1 X160.472 Y148.748 E34.24236
G1 X160.210 Y148.926 E34.25282
G1 X159.378 Y149.284 E34.28275
G1 X159.715 Y150.188 E34.31463
G1 X159.892 Y150.787 E34.33527
G1 X160.603 Y150.598 E34.35958
G1 X160.901 Y150.535 E34.36964
G1 X161.035 Y150.530 E34.37407
G1 X161.388 Y150.567 E34.38580
G1 X161.513 Y151.232 E34.40816
G1 X161.552 Y151.572 E34.41947
G1 X161.269 Y151.703 E34.42977
G1 X160.973 Y151.778 E34.43986
G1 X160.058 Y151.830 E34.47014
G1 X160.077 Y152.449 E34.49061
G1 X160.039 Y153.410 E34.52238
G1 X160.772 Y153.484 E34.54673
G1 F2100 E33.94673
G0 F12000 X156.869 Y153.190
G1 F2100 E34.54673
G1 F1320 X156.916 Y152.784 E34.56023
G1 X156.922 Y152.357 E34.57434
G1 X156.885 Y151.912 E34.58910
G1 X156.808 Y151.491 E34.60324
G1 X156.690 Y151.080 E34.61737
G1 X156.534 Y150.682 E34.63149
G1 X156.339 Y150.301 E34.64564
G1 X156.108 Y149.941 E34.65977
G1 X155.815 Y149.571 E34.67536
G1 X155.311 Y149.085 E34.69850
G1 X154.887 Y148.775 E34.71585
G1 X154.432 Y148.522 E34.73306
G1 X154.057 Y148.361 E34.74654
G1 X153.772 Y148.263 E34.75650
G1 X153.316 Y148.151 E34.77201
G1 X152.891 Y148.093 E34.78619
G1 X152.465 Y148.076 E34.80027
G1 X152.018 Y148.102 E34.81507
G1 X151.595 Y148.169 E34.82922
G1 X151.181 Y148.277 E34.84336
G1 X150.781 Y148.424 E34.85744
G1 X150.395 Y148.609 E34.87158
G1 X150.029 Y148.831 E34.88573
G1 X149.687 Y149.087 E34.89984
G1 X149.370 Y149.373 E34.91395
G1 X149.083 Y149.690 E34.92808
G1 X148.828 Y150.033 E34.94220
G1 X148.607 Y150.399 E34.95633
G1 X148.423 Y150.785 E34.97046
G1 X148.276 Y151.186 E34.98457
G1 X148.169 Y151.599 E34.99867
G1 X148.103 Y152.003 E35.01220
G1 X148.076 Y152.449 E35.02696
G1 X148.092 Y152.875 E35.04105
G1 X148.149 Y153.300 E35.05521
G1 X148.246 Y153.716 E35.06933
G1 X148.384 Y154.121 E35.08347
G1 X148.559 Y154.510 E35.09756
G1 X148.762 Y154.867 E35.11113
G1 X149.086 Y155.309 E35.12924
G1 X149.283 Y155.538 E35.13922
G1 X149.666 Y155.896 E35.15654
G1 X150.237 Y156.301 E35.17967
G1 X150.706 Y156.544 E35.19713
G1 X151.358 Y156.771 E35.21994
G1 X151.897 Y156.883 E35.23813
G1 X152.322 Y156.921 E35.25223
G1 X152.769 Y156.916 E35.26700
G1 X153.194 Y156.870 E35.28113
G1 X153.613 Y156.782 E35.29527
G1 X154.021 Y156.655 E35.30939
G1 X154.415 Y156.487 E35.32355
G1 X154.790 Y156.284 E35.33764
G1 X155.145 Y156.046 E35.35176
G1 X155.475 Y155.774 E35.36589
G1 X155.777 Y155.471 E35.38002
G1 X156.049 Y155.141 E35.39415
G1 X156.287 Y154.786 E35.40828
G1 X156.492 Y154.405 E35.42257
G1 X156.778 Y153.633 E35.44978
G1 X156.869 Y153.190 E35.46472
G0 F12000 X158.005 Y153.500
;TYPE:SKIN
G1 F1320 X158.867 Y153.250 E35.49283
G1 X158.084 Y152.750 E35.51936
G1 X158.892 Y152.250 E35.54585
G1 X158.036 Y151.750 E35.57285
G1 X158.801 Y151.250 E35.60153
G1 X157.806 Y150.750 E35.62935
G1 X158.485 Y150.250 E35.65755
G1 X157.362 Y149.750 E35.68687
G1 X158.206 Y149.500 E35.71596
G0 F12000 X157.872 Y149.000
G1 F1320 X156.861 Y149.000 E35.74937
G0 F12000 X156.397 Y148.500
G1 F1320 X157.491 Y148.500 E35.78551
G0 F12000 X157.065 Y148.000
G1 F1320 X155.817 Y148.000 E35.82675
G0 F12000 X156.537 Y147.500
G1 F1320 X155.011 Y147.500 E35.87717
G0 F12000 X155.762 Y147.000
G1 F1320 X153.559 Y147.000 E35.94997
G0 F12000 X154.878 Y146.500
G1 F1320 X150.191 Y146.500 E36.10484
G0 F12000 X149.987 Y147.500
G1 F1320 X148.406 Y147.500 E36.15708
G0 F12000 X147.949 Y148.000
G1 F1320 X149.176 Y148.000 E36.19762
G0 F12000 X148.581 Y148.500
G1 F1320 X147.502 Y148.500 E36.23327
G0 F12000 X147.110 Y149.000
G1 F1320 X148.129 Y149.000 E36.26694
G0 F12000 X147.775 Y149.500
G1 F1320 X146.717 Y149.750 E36.29827
G1 X147.383 Y150.250 E36.32755
G1 X146.338 Y150.750 E36.35557
G1 X147.051 Y151.250 E36.38394
G1 X146.131 Y151.750 E36.41203
G1 X146.913 Y152.250 E36.43859
G1 X146.106 Y152.750 E36.46507
G1 X146.955 Y153.250 E36.49183
G1 X146.197 Y153.750 E36.52033
G1 X147.188 Y154.250 E36.54791
G1 X146.514 Y154.750 E36.57598
G1 X147.630 Y155.250 E36.60515
G1 X146.793 Y155.500 E36.63402
G0 F12000 X147.128 Y156.000
G1 F1320 X148.136 Y156.000 E36.66732
G0 F12000 X148.592 Y156.500
G1 F1320 X147.509 Y156.500 E36.70311
G0 F12000 X147.935 Y157.000
G1 F1320 X149.192 Y157.000 E36.74464
G0 F12000 X148.464 Y157.500
G1 F1320 X150.000 Y157.500 E36.79539
G0 F12000 X149.240 Y158.000
G1 F1320 X151.510 Y158.000 E36.87040
G0 F12000 X150.124 Y158.500
G1 F1320 X154.803 Y158.500 E37.02501
G0 F12000 X155.008 Y157.500
G1 F1320 X156.590 Y157.500 E37.07728
G0 F12000 X157.046 Y157.000
G1 F1320 X155.830 Y157.000 E37.11746
G0 F12000 X156.409 Y156.500
G1 F1320 X157.494 Y156.500 E37.15331
G0 F12000 X157.887 Y156.000
G1 F1320 X156.862 Y156.000 E37.18718
G0 F12000 X157.222 Y155.500
G1 F1320 X158.280 Y155.250 E37.21850
G1 X157.607 Y154.750 E37.24776
G1 X158.659 Y154.250 E37.27624
G1 X157.894 Y154.000 E37.30283
G1 F2100 E36.70283
G0 F12000 X155.756 Y158.000
G1 F2100 E37.30283
G1 F1320 X153.528 Y158.000 E37.37645
G1 F2100 E36.77645
G0 F12000 X151.458 Y147.000
G1 F2100 E37.37645
G1 F1320 X149.239 Y147.000 E37.44977
;LAYER:2
G0 F12000 X149.441 Y146.679 Z0.500
;TYPE:WALL-INNER
G1 F1500 X150.380 Y146.211 E37.48444
G1 X151.624 Y145.983 E37.52623
G1 X152.659 Y145.866 E37.56065
G1 X153.904 Y146.076 E37.60237
G1 X154.920 Y146.323 E37.63691
G1 X156.027 Y146.949 E37.67894
G1 X156.889 Y147.524 E37.71317
G1 X157.708 Y148.486 E37.75492
G1 X158.321 Y149.313 E37.78893
G1 X158.765 Y150.503 E37.83090
G1 X159.046 Y151.450 E37.86354
G1 X159.076 Y152.444 E37.89640
G1 X159.051 Y153.091 E37.91780
G1 X158.969 Y153.906 E37.94486
G1 X158.583 Y154.998 E37.98313
G1 X158.162 Y155.959 E38.01780
G1 X157.355 Y156.934 E38.05962
G1 X156.642 Y157.686 E38.09386
G1 X155.559 Y158.321 E38.13534
G1 X154.620 Y158.789 E38.17001
G1 X153.376 Y159.017 E38.21180
G1 X152.341 Y159.134 E38.24622
G1 X151.096 Y158.924 E38.28794
G1 X150.080 Y158.677 E38.32249
G1 X148.973 Y158.051 E38.36451
G1 X148.111 Y157.476 E38.39875
G1 X147.288 Y156.509 E38.44070
G1 X146.679 Y155.687 E38.47451
G1 X146.234 Y154.494 E38.51658
G1 X145.954 Y153.550 E38.54911
G1 X145.923 Y152.544 E38.58237
G1 X145.995 Y151.195 E38.62701
G1 X146.418 Y149.999 E38.66893
G1 X146.838 Y149.041 E38.70349
G1 X147.647 Y148.063 E38.74543
G1 X148.358 Y147.314 E38.77955
G1 X149.441 Y146.679 E38.82104
G0 F12000 X149.942 Y147.715
G1 F1500 X149.485 Y147.988 E38.83862
G1 X149.040 Y148.323 E38.85703
G1 X148.656 Y148.672 E38.87418
G1 X148.321 Y149.039 E38.89059
G1 X147.990 Y149.487 E38.90900
G1 X147.719 Y149.937 E38.92636
G1 X147.495 Y150.411 E38.94368
G1 X147.317 Y150.903 E38.96097
G1 X147.189 Y151.405 E38.97809
G1 X147.108 Y151.891 E38.99437
G1 X147.075 Y152.450 E39.01287
G1 X147.095 Y152.975 E39.03023
G1 X147.167 Y153.495 E39.04758
G1 X147.288 Y154.006 E39.06493
G1 X147.457 Y154.498 E39.08212
G1 X147.656 Y154.944 E39.09825
G1 X147.915 Y155.400 E39.11558
G1 X148.216 Y155.828 E39.13287
G1 X148.553 Y156.222 E39.15000
G1 X149.099 Y156.724 E39.17451
G1 X149.705 Y157.152 E39.19902
G1 X150.559 Y157.566 E39.23038
G1 X151.234 Y157.776 E39.25374
G1 X151.760 Y157.875 E39.27143
G1 X152.285 Y157.922 E39.28884
G1 X152.844 Y157.914 E39.30732
G1 X153.365 Y157.856 E39.32464
G1 X153.877 Y157.748 E39.34193
G1 X154.380 Y157.590 E39.35935
G1 X154.863 Y157.383 E39.37671
G1 X155.321 Y157.133 E39.39395
G1 X155.755 Y156.839 E39.41128
G1 X156.158 Y156.505 E39.42857
G1 X156.547 Y156.115 E39.44677
G1 X157.121 Y155.348 E39.47843
G1 X157.412 Y154.806 E39.49875
G1 X157.743 Y153.906 E39.53044
G1 X157.859 Y153.335 E39.54969
G1 X157.915 Y152.849 E39.56586
G1 X157.923 Y152.322 E39.58327
G1 X157.873 Y151.739 E39.60261
G1 X157.657 Y150.806 E39.63425
G1 X157.431 Y150.233 E39.65460
G1 X156.946 Y149.384 E39.68691
G1 X156.361 Y148.685 E39.71703
G1 X155.834 Y148.218 E39.74030
G1 X155.422 Y147.928 E39.75694
G1 X154.984 Y147.676 E39.77364
G1 X154.350 Y147.400 E39.79649
G1 X153.627 Y147.192 E39.82135
G1 X152.987 Y147.096 E39.84273
G1 X152.454 Y147.075 E39.86036
G1 X151.895 Y147.108 E39.87886
G1 X151.375 Y147.193 E39.89627
G1 X150.868 Y147.327 E39.91360
G1 X150.383 Y147.507 E39.93069
G1 X149.942 Y147.715 E39.94680
G0 F12000 X150.177 Y148.157
G1 F1500 X149.765 Y148.404 E39.96268
G1 X149.359 Y148.709 E39.97945
G1 X149.010 Y149.027 E39.99506
G1 X148.708 Y149.357 E40.00984
G1 X148.406 Y149.766 E40.02664
G1 X148.160 Y150.173 E40.04235
G1 X147.957 Y150.604 E40.05809
G1 X147.795 Y151.050 E40.07377
G1 X147.678 Y151.508 E40.08939
G1 X147.606 Y151.947 E40.10409
G1 X147.575 Y152.455 E40.12091
G1 X147.594 Y152.931 E40.13665
G1 X147.659 Y153.403 E40.15239
G1 X147.769 Y153.867 E40.16815
G1 X147.923 Y154.314 E40.18377
G1 X148.103 Y154.718 E40.19838
G1 X148.338 Y155.133 E40.21414
G1 X148.611 Y155.521 E40.22982
G1 X148.917 Y155.879 E40.24538
G1 X149.404 Y156.327 E40.26724
G1 X149.960 Y156.720 E40.28974
G1 X150.743 Y157.099 E40.31849
G1 X151.355 Y157.290 E40.33967
G1 X151.828 Y157.379 E40.35557
G1 X152.304 Y157.421 E40.37136
G1 X152.812 Y157.414 E40.38815
G1 X153.285 Y157.361 E40.40388
G1 X153.750 Y157.263 E40.41958
G1 X154.206 Y157.120 E40.43537
G1 X154.644 Y156.932 E40.45112
G1 X155.061 Y156.705 E40.46681
G1 X155.455 Y156.439 E40.48252
G1 X155.820 Y156.136 E40.49819
G1 X156.168 Y155.787 E40.51448
G1 X156.698 Y155.078 E40.54372
G1 X156.955 Y154.600 E40.56166
G1 X157.261 Y153.769 E40.59092
G1 X157.364 Y153.257 E40.60817
G1 X157.415 Y152.817 E40.62281
G1 X157.422 Y152.340 E40.63857
G1 X157.378 Y151.817 E40.65592
G1 X157.178 Y150.955 E40.68516
G1 X156.979 Y150.450 E40.70309
G1 X156.534 Y149.671 E40.73273
G1 X156.001 Y149.035 E40.76015
G1 X155.523 Y148.611 E40.78127
G1 X155.153 Y148.350 E40.79623
G1 X154.759 Y148.123 E40.81125
G1 X154.180 Y147.872 E40.83210
G1 X153.520 Y147.682 E40.85480
G1 X152.940 Y147.594 E40.87418
G1 X152.459 Y147.575 E40.89009
G1 X151.951 Y147.606 E40.90690
G1 X151.479 Y147.683 E40.92271
G1 X151.019 Y147.804 E40.93842
G1 X150.577 Y147.968 E40.95400
G1 X150.177 Y148.157 E40.96862
G1 F2100 E40.36862
G0 F12000 X149.211 Y146.235
G1 F2100 E40.96862
G1 F1500 X150.188 Y145.748 E41.00469
G1 X151.562 Y145.486 E41.05091
G1 X152.636 Y145.366 E41.08662
G1 X152.635 Y145.355 E41.08698
G1 X154.011 Y145.587 E41.13309
G1 X155.067 Y145.844 E41.16900
G1 X155.070 Y145.833 E41.16938
G1 X156.284 Y146.520 E41.21547
G1 X157.191 Y147.125 E41.25150
G1 X157.198 Y147.115 E41.25190
G1 X158.093 Y148.167 E41.29754
G1 X158.748 Y149.050 E41.33386
G1 X159.245 Y150.360 E41.38016
G1 X159.543 Y151.373 E41.41505
G1 X159.577 Y152.463 E41.45109
G1 X159.550 Y153.126 E41.47301
G1 X159.475 Y153.871 E41.49775
G1 X159.511 Y153.874 E41.49895
G1 X159.050 Y155.180 E41.54471
G1 X158.609 Y156.185 E41.58097
G1 X158.620 Y156.190 E41.58137
G1 X157.735 Y157.259 E41.62723
G1 X156.981 Y158.054 E41.66343
G1 X156.989 Y158.062 E41.66381
G1 X155.788 Y158.765 E41.70979
G1 X154.811 Y159.253 E41.74588
G1 X153.438 Y159.514 E41.79205
G1 X152.364 Y159.634 E41.82776
G1 X152.365 Y159.645 E41.82813
G1 X150.989 Y159.413 E41.87424
G1 X149.933 Y159.156 E41.91015
G1 X149.930 Y159.167 E41.91052
G1 X148.716 Y158.480 E41.95662
G1 X147.809 Y157.875 E41.99264
G1 X147.802 Y157.885 E41.99304
G1 X146.902 Y156.827 E42.03894
G1 X146.252 Y155.950 E42.07501
G1 X145.755 Y154.640 E42.12131
G1 X145.457 Y153.627 E42.15620
G1 X145.424 Y152.544 E42.19200
G1 X145.499 Y151.126 E42.23892
G1 X145.950 Y149.820 E42.28457
G1 X146.391 Y148.815 E42.32084
G1 X146.380 Y148.810 E42.32124
G1 X147.265 Y147.741 E42.36709
G1 X148.019 Y146.946 E42.40330
G1 X148.011 Y146.938 E42.40367
G1 X149.211 Y146.235 E42.44963
G1 F2100 E41.84963
G0 F12000 X149.604 Y144.490
G1 F2100 E42.44963
G1 F1500 X149.562 Y144.263 E42.45725
G1 X149.717 Y144.204 E42.46273
G1 X149.820 Y144.386 E42.46964
G1 X150.110 Y145.580 E42.51024
G1 X149.604 Y144.490 E42.54995
G1 F2100 E41.94995
G0 F12000 X152.519 Y143.997
G1 F2100 E42.54995
G1 F1500 X152.527 Y143.884 E42.55369
G1 X152.566 Y143.752 E42.55824
G1 X152.733 Y143.757 E42.56376
G1 X152.743 Y143.802 E42.56529
G1 X152.762 Y143.973 E42.57097
G1 X152.620 Y145.180 E42.61113
G1 X152.519 Y143.997 E42.65036
G1 F2100 E42.05036
G0 F12000 X155.423 Y144.528
G1 F2100 E42.65036
G1 F1500 X155.490 Y144.383 E42.65564
G1 X155.545 Y144.301 E42.65890
G1 X155.708 Y144.359 E42.66462
G1 X155.643 Y144.619 E42.67347
G1 X155.116 Y145.662 E42.71209
G1 X155.423 Y144.528 E42.75090
G1 F2100 E42.15090
G0 F12000 X157.968 Y146.014
G1 F2100 E42.75090
G1 F1500 X158.080 Y145.904 E42.75609
G1 X158.171 Y145.843 E42.75971
G1 X158.299 Y145.948 E42.76518
G1 X158.266 Y146.010 E42.76750
G1 X158.177 Y146.143 E42.77279
G1 X157.305 Y146.962 E42.81232
G1 X157.968 Y146.014 E42.85054
G1 F2100 E42.25054
G0 F12000 X159.862 Y148.273
G1 F2100 E42.85054
G1 F1500 X160.102 Y148.176 E42.85910
G1 X160.189 Y148.323 E42.86474
G1 X160.001 Y148.472 E42.87267
G1 X158.902 Y148.942 E42.91216
G1 X159.862 Y148.273 E42.95083
G1 F2100 E42.35083
G0 F12000 X160.881 Y151.042
G1 F2100 E42.95083
G1 F1500 X160.999 Y151.030 E42.95475
G1 X161.124 Y151.044 E42.95890
G1 X161.154 Y151.207 E42.96438
G1 X160.932 Y151.280 E42.97210
G1 X159.729 Y151.348 E43.01191
G1 X160.881 Y151.042 E43.05130
G1 F2100 E42.45130
G0 F12000 X160.874 Y153.995
G1 F2100 E43.05130
G1 F1500 X161.101 Y154.081 E43.05932
G1 X161.074 Y154.247 E43.06488
G1 X161.031 Y154.249 E43.06630
G1 X160.806 Y154.226 E43.07377
G1 X159.693 Y153.890 E43.11219
G1 X160.874 Y153.995 E43.15137
G1 F2100 E42.55137
G0 F12000 X159.858 Y156.769
G1 F2100 E43.15137
G1 F1500 X159.903 Y156.797 E43.15312
G1 X160.048 Y156.925 E43.15951
G1 X159.957 Y157.073 E43.16525
G1 X159.734 Y156.979 E43.17325
G1 X158.787 Y156.268 E43.21237
G1 X159.858 Y156.769 E43.25144
G1 F2100 E42.65144
G0 F12000 X157.954 Y159.029
G1 F2100 E43.25144
G1 F1500 X158.077 Y159.235 E43.25937
G1 X157.946 Y159.348 E43.26509
G1 X157.767 Y159.185 E43.27309
G1 X157.118 Y158.191 E43.31231
G1 X157.954 Y159.029 E43.35142
G1 F2100 E42.75142
G0 F12000 X155.391 Y160.499
G1 F2100 E43.35142
G1 F1500 X155.425 Y160.624 E43.35571
G1 X155.438 Y160.737 E43.35946
G1 X155.283 Y160.796 E43.36494
G1 X155.180 Y160.614 E43.37185
G1 X154.891 Y159.424 E43.41232
G1 X155.391 Y160.499 E43.45149
G1 F2100 E42.85149
G0 F12000 X152.481 Y161.003
G1 F2100 E43.45149
G1 F1500 X152.473 Y161.116 E43.45524
G1 X152.434 Y161.248 E43.45978
G1 X152.267 Y161.243 E43.46530
G1 X152.257 Y161.197 E43.46686
G1 X152.238 Y161.027 E43.47251
G1 X152.380 Y159.820 E43.51267
G1 X152.481 Y161.003 E43.55190
G1 F2100 E42.95190
G0 F12000 X149.577 Y160.472
G1 F2100 E43.55190
G1 F1500 X149.510 Y160.617 E43.55718
G1 X149.455 Y160.699 E43.56044
G1 X149.292 Y160.641 E43.56616
G1 X149.357 Y160.381 E43.57501
G1 X149.884 Y159.338 E43.61363
G1 X149.577 Y160.472 E43.65245
G1 F2100 E43.05245
G0 F12000 X147.032 Y158.986
G1 F2100 E43.65245
G1 F1500 X146.920 Y159.096 E43.65763
G1 X146.829 Y159.157 E43.66125
G1 X146.701 Y159.052 E43.66672
G1 X146.823 Y158.857 E43.67432
G1 X147.695 Y158.038 E43.71385
G1 X147.032 Y158.986 E43.75208
G1 F2100 E43.15208
G0 F12000 X145.138 Y156.727
G1 F2100 E43.75208
G1 F1500 X144.898 Y156.824 E43.76063
G1 X144.811 Y156.677 E43.76627
G1 X144.999 Y156.528 E43.77420
G1 X146.098 Y156.058 E43.81370
G1 X145.138 Y156.727 E43.85236
G1 F2100 E43.25236
G0 F12000 X144.119 Y153.958
G1 F2100 E43.85236
G1 F1500 X144.001 Y153.970 E43.85628
G1 X143.876 Y153.956 E43.86043
G1 X143.846 Y153.793 E43.86591
G1 X144.068 Y153.720 E43.87363
G1 X145.271 Y153.652 E43.91345
G1 X144.119 Y153.958 E43.95283
G1 F2100 E43.35283
G0 F12000 X144.126 Y151.005
G1 F2100 E43.95283
G1 F1500 X143.899 Y150.919 E43.96085
G1 X143.927 Y150.753 E43.96642
G1 X143.969 Y150.751 E43.96780
G1 X144.194 Y150.774 E43.97528
G1 X145.304 Y151.109 E44.01359
G1 X144.126 Y151.005 E44.05266
G1 F2100 E43.45266
G0 F12000 X145.142 Y148.231
G1 F2100 E44.05266
G1 F1500 X145.097 Y148.203 E44.05442
G1 X144.952 Y148.075 E44.06081
G1 X145.043 Y147.927 E44.06655
G1 X145.266 Y148.021 E44.07454
G1 X146.213 Y148.732 E44.11367
G1 X145.142 Y148.231 E44.15274
G1 F2100 E43.55274
G0 F12000 X147.046 Y145.971
G1 F2100 E44.15274
G1 F1500 X146.923 Y145.765 E44.16067
G1 X147.054 Y145.652 E44.16639
G1 X147.232 Y145.814 E44.17434
G1 X147.882 Y146.809 E44.21361
G1 X147.046 Y145.971 E44.25272
G0 F12000 X146.757 Y145.248
;TYPE:WALL-OUTER
G1 F1500 X147.039 Y145.034 E44.26442
G1 X147.436 Y145.314 E44.28047
G1 X147.585 Y145.457 E44.28730
G1 X147.635 Y145.517 E44.28988
G1 X148.137 Y146.285 E44.32019
G1 X148.968 Y145.798 E44.35202
G1 X149.530 Y145.517 E44.37278
G1 X149.136 Y144.667 E44.40374
G1 X149.080 Y144.454 E44.41102
G1 X149.048 Y144.177 E44.42023
G1 X149.044 Y143.923 E44.42862
G1 X149.577 Y143.723 E44.44743
G1 X149.915 Y143.620 E44.45911
G1 X150.066 Y143.806 E44.46703
G1 X150.288 Y144.198 E44.48191
G1 X150.526 Y145.168 E44.51491
G1 X151.489 Y144.991 E44.54727
G1 X152.097 Y144.923 E44.56748
G1 X152.018 Y144.006 E44.59789
G1 X152.038 Y143.777 E44.60549
G1 X152.190 Y143.255 E44.62345
G1 X152.455 Y143.249 E44.63221
G1 X153.037 Y143.264 E44.65145
G1 X153.109 Y143.268 E44.65383
G1 X153.237 Y143.721 E44.66939
G1 X153.262 Y143.949 E44.67697
G1 X153.261 Y144.025 E44.67948
G1 X153.153 Y144.935 E44.70976
G1 X154.114 Y145.097 E44.74196
G1 X154.712 Y145.243 E44.76230
G1 X154.950 Y144.360 E44.79252
G1 X155.055 Y144.132 E44.80081
G1 X155.224 Y143.882 E44.81078
G1 X155.371 Y143.711 E44.81823
G1 X155.909 Y143.900 E44.83707
G1 X156.235 Y144.037 E44.84876
G1 X156.225 Y144.272 E44.85653
G1 X156.189 Y144.531 E44.86517
G1 X156.111 Y144.802 E44.87449
G1 X155.700 Y145.615 E44.90459
G1 X156.546 Y146.094 E44.93671
G1 X157.062 Y146.438 E44.95721
G1 X157.586 Y145.689 E44.98741
G1 X157.764 Y145.513 E44.99568
G1 X158.201 Y145.221 E45.01305
G1 X158.644 Y145.584 E45.03197
G1 X158.904 Y145.826 E45.04371
G1 X158.695 Y146.270 E45.05992
G1 X158.528 Y146.500 E45.06931
G1 X157.862 Y147.125 E45.09949
G1 X158.487 Y147.858 E45.13132
G1 X158.861 Y148.362 E45.15206
G1 X159.613 Y147.837 E45.18237
G1 X159.834 Y147.734 E45.19042
G1 X160.122 Y147.651 E45.20033
G1 X160.350 Y147.613 E45.20796
G1 X160.639 Y148.102 E45.22673
G1 X160.801 Y148.418 E45.23847
G1 X160.466 Y148.754 E45.25414
G1 X160.222 Y148.921 E45.26391
G1 X159.377 Y149.283 E45.29429
G1 X159.714 Y150.185 E45.32610
G1 X159.892 Y150.787 E45.34685
G1 X160.782 Y150.551 E45.37727
G1 X160.899 Y150.534 E45.38118
G1 X161.021 Y150.530 E45.38521
G1 X161.548 Y150.588 E45.40273
G1 X161.652 Y151.152 E45.42168
G1 X161.696 Y151.506 E45.43347
G1 X161.246 Y151.710 E45.44979
G1 X160.983 Y151.778 E45.45877
G1 X160.058 Y151.830 E45.48938
G1 X160.077 Y152.454 E45.51001
G1 X160.049 Y153.156 E45.53322
G1 X160.023 Y153.418 E45.54192
G1 X160.953 Y153.500 E45.57277
G1 X161.049 Y153.521 E45.57602
G1 X161.463 Y153.689 E45.59078
G1 X161.655 Y153.801 E45.59813
G1 X161.564 Y154.347 E45.61642
G1 X161.481 Y154.709 E45.62869
G1 X161.273 Y154.738 E45.63563
G1 X161.018 Y154.750 E45.64406
G1 X160.703 Y154.718 E45.65453
G1 X159.836 Y154.456 E45.68445
G1 X159.513 Y155.369 E45.71645
G1 X159.263 Y155.939 E45.73702
G1 X160.098 Y156.329 E45.76747
G1 X160.297 Y156.470 E45.77553
G1 X160.662 Y156.851 E45.79296
G1 X160.234 Y157.576 E45.82078
G1 X160.189 Y157.644 E45.82348
G1 X159.953 Y157.595 E45.83144
G1 X159.729 Y157.526 E45.83919
G1 X159.462 Y157.399 E45.84896
G1 X158.725 Y156.847 E45.87938
G1 X158.107 Y157.595 E45.91144
G1 X157.679 Y158.045 E45.93196
G1 X158.330 Y158.698 E45.96243
G1 X158.468 Y158.897 E45.97043
G1 X158.600 Y159.168 E45.98039
G1 X158.676 Y159.381 E45.98786
G1 X158.243 Y159.752 E46.00671
G1 X157.961 Y159.966 E46.01840
G1 X157.564 Y159.686 E46.03445
G1 X157.364 Y159.482 E46.04389
G1 X156.863 Y158.715 E46.07417
G1 X156.032 Y159.202 E46.10599
G1 X155.470 Y159.483 E46.12675
G1 X155.860 Y160.323 E46.15736
G1 X155.892 Y160.422 E46.16079
G1 X155.920 Y160.546 E46.16499
G1 X155.952 Y160.823 E46.17421
G1 X155.956 Y161.077 E46.18260
G1 X155.423 Y161.277 E46.20141
G1 X155.085 Y161.380 E46.21309
G1 X154.934 Y161.194 E46.22100
G1 X154.712 Y160.802 E46.23589
G1 X154.474 Y159.832 E46.26889
G1 X153.511 Y160.009 E46.30124
G1 X152.903 Y160.077 E46.32146
G1 X152.982 Y160.994 E46.35187
G1 X152.978 Y161.106 E46.35557
G1 X152.962 Y161.223 E46.35948
G1 X152.810 Y161.745 E46.37744
G1 X152.545 Y161.751 E46.38620
G1 X151.963 Y161.736 E46.40544
G1 X151.891 Y161.732 E46.40782
G1 X151.815 Y161.503 E46.41579
G1 X151.762 Y161.273 E46.42359
G1 X151.738 Y161.051 E46.43097
G1 X151.739 Y160.975 E46.43348
G1 X151.847 Y160.065 E46.46376
G1 X150.886 Y159.903 E46.49596
G1 X150.288 Y159.757 E46.51630
G1 X150.050 Y160.640 E46.54652
G1 X149.945 Y160.868 E46.55481
G1 X149.778 Y161.115 E46.56467
G1 X149.629 Y161.289 E46.57224
G1 X149.091 Y161.100 E46.59108
G1 X148.765 Y160.963 E46.60276
G1 X148.775 Y160.726 E46.61060
G1 X148.811 Y160.469 E46.61917
G1 X148.889 Y160.198 E46.62849
G1 X149.300 Y159.385 E46.65859
G1 X148.454 Y158.906 E46.69072
G1 X147.938 Y158.562 E46.71121
G1 X147.414 Y159.311 E46.74141
G1 X147.236 Y159.487 E46.74968
G1 X146.799 Y159.779 E46.76705
G1 X146.356 Y159.416 E46.78598
G1 X146.096 Y159.174 E46.79771
G1 X146.305 Y158.730 E46.81393
G1 X146.472 Y158.500 E46.82332
G1 X147.138 Y157.875 E46.85350
G1 X146.512 Y157.141 E46.88537
G1 X146.139 Y156.638 E46.90606
G1 X145.387 Y157.163 E46.93637
G1 X145.166 Y157.266 E46.94443
G1 X144.878 Y157.349 E46.95433
G1 X144.650 Y157.387 E46.96197
G1 X144.361 Y156.898 E46.98074
G1 X144.199 Y156.582 E46.99247
G1 X144.534 Y156.246 E47.00815
G1 X144.778 Y156.079 E47.01792
G1 X145.623 Y155.717 E47.04829
G1 X145.284 Y154.809 E47.08032
G1 X145.108 Y154.213 E47.10085
G1 X144.218 Y154.449 E47.13128
G1 X144.101 Y154.466 E47.13518
G1 X143.979 Y154.470 E47.13922
G1 X143.452 Y154.412 E47.15673
G1 X143.348 Y153.848 E47.17568
G1 X143.304 Y153.494 E47.18747
G1 X143.754 Y153.290 E47.20380
G1 X144.017 Y153.222 E47.21277
G1 X144.942 Y153.170 E47.24339
G1 X144.923 Y152.552 E47.26382
G1 X144.939 Y152.033 E47.28097
G1 X144.968 Y151.581 E47.29594
G1 X144.047 Y151.500 E47.32649
G1 X143.951 Y151.479 E47.32974
G1 X143.537 Y151.311 E47.34450
G1 X143.345 Y151.199 E47.35184
G1 X143.436 Y150.653 E47.37013
G1 X143.519 Y150.291 E47.38241
G1 X143.727 Y150.262 E47.38934
G1 X143.982 Y150.250 E47.39778
G1 X144.297 Y150.282 E47.40824
G1 X145.164 Y150.544 E47.43817
G1 X145.487 Y149.631 E47.47017
G1 X145.737 Y149.061 E47.49074
G1 X144.902 Y148.671 E47.52119
G1 X144.703 Y148.530 E47.52925
G1 X144.338 Y148.149 E47.54668
G1 X144.766 Y147.424 E47.57450
G1 X144.811 Y147.356 E47.57719
G1 X145.047 Y147.405 E47.58516
G1 X145.271 Y147.474 E47.59290
G1 X145.538 Y147.601 E47.60267
G1 X146.275 Y148.153 E47.63310
G1 X146.900 Y147.397 E47.66551
G1 X147.321 Y146.955 E47.68568
G1 X146.670 Y146.302 E47.71615
G1 X146.529 Y146.098 E47.72434
G1 X146.400 Y145.832 E47.73411
G1 X146.324 Y145.619 E47.74158
G1 X146.757 Y145.248 E47.76042
G1 F2100 E47.16042
G0 F12000 X149.678 Y149.094
G1 F2100 E47.76042
G1 F1500 X149.363 Y149.381 E47.77450
G1 X149.095 Y149.675 E47.78765
G1 X148.822 Y150.044 E47.80281
G1 X148.601 Y150.410 E47.81694
G1 X148.419 Y150.796 E47.83104
G1 X148.274 Y151.197 E47.84513
G1 X148.168 Y151.611 E47.85925
G1 X148.103 Y152.003 E47.87238
G1 X148.076 Y152.460 E47.88751
G1 X148.093 Y152.887 E47.90163
G1 X148.151 Y153.311 E47.91577
G1 X148.250 Y153.728 E47.92993
G1 X148.388 Y154.131 E47.94401
G1 X148.550 Y154.493 E47.95711
G1 X148.761 Y154.865 E47.97124
G1 X149.006 Y155.214 E47.98533
G1 X149.282 Y155.536 E47.99935
G1 X149.568 Y155.813 E48.01250
G1 X149.709 Y155.930 E48.01856
G1 X150.215 Y156.288 E48.03904
G1 X150.928 Y156.633 E48.06521
G1 X151.476 Y156.804 E48.08418
G1 X151.897 Y156.883 E48.09833
G1 X152.323 Y156.921 E48.11246
G1 X152.781 Y156.915 E48.12760
G1 X153.206 Y156.867 E48.14173
G1 X153.623 Y156.779 E48.15581
G1 X154.032 Y156.651 E48.16997
G1 X154.425 Y156.482 E48.18411
G1 X154.800 Y156.278 E48.19822
G1 X155.154 Y156.038 E48.21235
G1 X155.483 Y155.766 E48.22645
G1 X155.789 Y155.459 E48.24077
G1 X156.275 Y154.809 E48.26759
G1 X156.498 Y154.395 E48.28313
G1 X156.778 Y153.632 E48.30999
G1 X156.870 Y153.178 E48.32529
G1 X156.916 Y152.784 E48.33840
G1 X156.922 Y152.357 E48.35251
G1 X156.883 Y151.895 E48.36783
G1 X156.699 Y151.104 E48.39466
G1 X156.527 Y150.667 E48.41018
G1 X156.122 Y149.958 E48.43716
G1 X155.642 Y149.384 E48.46189
G1 X155.212 Y149.004 E48.48085
G1 X154.884 Y148.772 E48.49412
G1 X154.534 Y148.570 E48.50747
G1 X154.011 Y148.343 E48.52631
G1 X153.413 Y148.171 E48.54687
G1 X152.893 Y148.093 E48.56425
G1 X152.464 Y148.076 E48.57843
G1 X152.006 Y148.103 E48.59359
G1 X151.584 Y148.172 E48.60772
G1 X151.170 Y148.281 E48.62187
G1 X150.771 Y148.429 E48.63593
G1 X150.413 Y148.598 E48.64901
G1 X150.044 Y148.819 E48.66322
G1 X149.678 Y149.094 E48.67835
G0 F12000 X149.000 Y148.134
;TYPE:SKIN
G1 F1500 X149.000 Y147.140 E48.71120
G0 F12000 X148.500 Y147.434
G1 F1500 X148.500 Y148.584 E48.74919
G0 F12000 X148.000 Y149.180
G1 F1500 X148.000 Y147.944 E48.79004
G0 F12000 X147.500 Y148.515
G1 F1500 X147.500 Y149.991 E48.83881
G0 F12000 X147.000 Y149.120
G1 F1500 X147.000 Y151.474 E48.91659
G0 F12000 X146.500 Y150.291
G1 F1500 X146.500 Y154.707 E49.06250
G0 F12000 X147.500 Y155.024
G1 F1500 X147.500 Y156.487 E49.11085
G0 F12000 X148.000 Y157.075
G1 F1500 X148.000 Y155.826 E49.15212
G0 F12000 X148.500 Y156.412
G1 F1500 X148.500 Y157.525 E49.18889
G0 F12000 X149.000 Y157.858
G1 F1500 X149.250 Y157.045 E49.22155
G1 X149.750 Y158.288 E49.25210
G1 X150.250 Y157.610 E49.28311
G1 X150.750 Y158.659 E49.31175
G1 X151.250 Y157.945 E49.33928
G1 X151.750 Y158.856 E49.36600
G1 X152.250 Y158.082 E49.39328
G1 X152.750 Y158.912 E49.42133
G1 X153.250 Y158.039 E49.44812
G1 X153.750 Y158.771 E49.47489
G1 X154.250 Y157.810 E49.50238
G1 X154.750 Y158.519 E49.53231
G1 X155.250 Y157.365 E49.56190
G1 X155.750 Y158.007 E49.59266
G1 X156.000 Y156.862 E49.63138
G0 F12000 X156.500 Y156.410
G1 F1500 X156.500 Y157.567 E49.66961
G0 F12000 X157.000 Y157.055
G1 F1500 X157.000 Y155.802 E49.71102
G0 F12000 X157.500 Y156.484
G1 F1500 X157.500 Y155.012 E49.75966
G0 F12000 X158.000 Y155.880
G1 F1500 X158.000 Y153.521 E49.83760
G0 F12000 X158.500 Y154.708
G1 F1500 X158.500 Y150.293 E49.98349
G0 F12000 X157.500 Y150.000
G1 F1500 X157.500 Y148.511 E50.03269
G0 F12000 X157.000 Y147.924
G1 F1500 X157.000 Y149.176 E50.07405
G0 F12000 X156.500 Y148.578
G1 F1500 X156.500 Y147.475 E50.11050
G0 F12000 X156.000 Y147.142
G1 F1500 X155.750 Y147.950 E50.14320
G1 X155.250 Y146.712 E50.17346
G1 X154.750 Y147.382 E50.20385
G1 X154.250 Y146.341 E50.23262
G1 X153.750 Y147.055 E50.26021
G1 X153.250 Y146.144 E50.28693
G1 X152.750 Y146.911 E50.31397
G1 X152.250 Y146.087 E50.34181
G1 X151.750 Y146.961 E50.36863
G1 X151.250 Y146.229 E50.39546
G1 X150.750 Y147.194 E50.42311
G1 X150.250 Y146.481 E50.45321
G1 X149.750 Y147.635 E50.48288
G1 X149.500 Y146.846 E50.51023
G1 F2100 E49.91023
G0 F12000 X147.000 Y153.550
G1 F2100 E50.51023
G1 F1500 X147.000 Y155.826 E50.58543
G1 F2100 E49.98543
G0 F12000 X158.000 Y151.512
G1 F2100 E50.58543
G1 F1500 X158.000 Y149.174 E50.66268
;LAYER:3
G0 F12000 X157.702 Y148.478 Z0.650
;TYPE:WALL-INNER
G1 F1620 X158.322 Y149.315 E50.69710
G1 X158.765 Y150.503 E50.73900
G1 X159.046 Y151.453 E50.77173
G1 X159.076 Y152.449 E50.80466
G1 X159.050 Y153.114 E50.82665
G1 X158.994 Y153.837 E50.85061
G1 X158.580 Y155.008 E50.89165
G1 X158.163 Y155.958 E50.92593
G1 X157.356 Y156.933 E50.96775
G1 X156.641 Y157.686 E51.00206
G1 X155.545 Y158.329 E51.04405
G1 X154.619 Y158.789 E51.07821
G1 X153.375 Y159.018 E51.12001
G1 X152.390 Y159.128 E51.15276
G1 X151.397 Y158.984 E51.18591
G1 X150.894 Y158.876 E51.20291
G1 X150.084 Y158.679 E51.23046
G1 X148.975 Y158.052 E51.27255
G1 X148.109 Y157.473 E51.30697
G1 X147.298 Y156.522 E51.34827
G1 X146.678 Y155.685 E51.38269
G1 X146.235 Y154.497 E51.42458
G1 X145.954 Y153.547 E51.45732
G1 X145.923 Y152.538 E51.49067
G1 X145.999 Y151.184 E51.53548
G1 X146.420 Y149.992 E51.57726
G1 X146.837 Y149.042 E51.61154
G1 X147.644 Y148.067 E51.65336
G1 X148.359 Y147.314 E51.68767
G1 X149.459 Y146.669 E51.72980
G1 X150.380 Y146.211 E51.76379
G1 X151.625 Y145.982 E51.80562
G1 X152.610 Y145.872 E51.83837
G1 X153.599 Y146.016 E51.87139
G1 X154.197 Y146.147 E51.89162
G1 X155.094 Y146.422 E51.92262
G1 X156.025 Y146.948 E51.95795
G1 X156.891 Y147.527 E51.99237
G1 X157.702 Y148.478 E52.03367
G0 F12000 X156.899 Y149.326
G1 F1620 X156.386 Y148.712 E52.06011
G1 X155.812 Y148.200 E52.08552
G1 X155.249 Y147.826 E52.10786
G1 X154.574 Y147.484 E52.13286
G1 X153.837 Y147.241 E52.15850
G1 X153.001 Y147.096 E52.18654
G1 X152.452 Y147.074 E52.20469
G1 X151.881 Y147.110 E52.22360
G1 X151.361 Y147.197 E52.24102
G1 X150.856 Y147.332 E52.25829
G1 X150.366 Y147.513 E52.27555
G1 X149.895 Y147.742 E52.29286
G1 X149.446 Y148.017 E52.31026
G1 X149.034 Y148.329 E52.32733
G1 X148.674 Y148.651 E52.34329
G1 X148.292 Y149.078 E52.36222
G1 X147.984 Y149.498 E52.37943
G1 X147.713 Y149.949 E52.39682
G1 X147.489 Y150.425 E52.41420
G1 X147.313 Y150.917 E52.43147
G1 X147.186 Y151.418 E52.44854
G1 X147.109 Y151.889 E52.46431
G1 X147.074 Y152.418 E52.48183
G1 X147.097 Y152.982 E52.50048
G1 X147.159 Y153.457 E52.51631
G1 X147.277 Y153.973 E52.53380
G1 X147.463 Y154.512 E52.55264
G1 X147.679 Y154.985 E52.56982
G1 X147.926 Y155.421 E52.58638
G1 X148.421 Y156.072 E52.61340
G1 X148.884 Y156.545 E52.63527
G1 X149.281 Y156.868 E52.65219
G1 X149.898 Y157.260 E52.67634
G1 X150.355 Y157.484 E52.69316
G1 X150.944 Y157.694 E52.71382
G1 X151.253 Y157.781 E52.72443
G1 X151.761 Y157.875 E52.74150
G1 X152.286 Y157.922 E52.75891
G1 X152.857 Y157.913 E52.77778
G1 X153.380 Y157.853 E52.79518
G1 X153.891 Y157.742 E52.81246
G1 X154.416 Y157.576 E52.83065
G1 X155.292 Y157.157 E52.86274
G1 X156.113 Y156.551 E52.89645
G1 X156.533 Y156.128 E52.91615
G1 X156.842 Y155.755 E52.93215
G1 X157.157 Y155.280 E52.95099
G1 X157.405 Y154.816 E52.96837
G1 X157.615 Y154.307 E52.98656
G1 X157.852 Y153.399 E53.01757
G1 X157.915 Y152.849 E53.03587
G1 X157.923 Y152.320 E53.05335
G1 X157.873 Y151.753 E53.07215
G1 X157.775 Y151.235 E53.08957
G1 X157.628 Y150.733 E53.10686
G1 X157.434 Y150.245 E53.12421
G1 X157.192 Y149.778 E53.14159
G1 X156.899 Y149.326 E53.15939
G0 F12000 X156.496 Y149.623
G1 F1620 X156.026 Y149.061 E53.18360
G1 X155.505 Y148.597 E53.20665
G1 X154.997 Y148.259 E53.22681
G1 X154.381 Y147.947 E53.24963
G1 X153.716 Y147.727 E53.27277
G1 X152.948 Y147.595 E53.29852
G1 X152.458 Y147.575 E53.31472
G1 X151.938 Y147.608 E53.33194
G1 X151.467 Y147.686 E53.34772
G1 X151.007 Y147.809 E53.36345
G1 X150.563 Y147.974 E53.37910
G1 X150.136 Y148.181 E53.39478
G1 X149.728 Y148.431 E53.41059
G1 X149.353 Y148.715 E53.42613
G1 X149.029 Y149.005 E53.44050
G1 X148.681 Y149.394 E53.45775
G1 X148.400 Y149.776 E53.47342
G1 X148.154 Y150.184 E53.48916
G1 X147.952 Y150.616 E53.50492
G1 X147.792 Y151.063 E53.52061
G1 X147.676 Y151.520 E53.53619
G1 X147.606 Y151.946 E53.55045
G1 X147.575 Y152.424 E53.56628
G1 X147.596 Y152.940 E53.58334
G1 X147.652 Y153.369 E53.59764
G1 X147.759 Y153.835 E53.61344
G1 X147.928 Y154.326 E53.63059
G1 X148.125 Y154.758 E53.64628
G1 X148.345 Y155.145 E53.66099
G1 X148.800 Y155.745 E53.68587
G1 X149.221 Y156.175 E53.70576
G1 X149.574 Y156.462 E53.72079
G1 X150.143 Y156.823 E53.74306
G1 X150.549 Y157.022 E53.75800
G1 X151.096 Y157.217 E53.77718
G1 X151.367 Y157.293 E53.78648
G1 X151.829 Y157.379 E53.80201
G1 X152.304 Y157.422 E53.81777
G1 X152.825 Y157.413 E53.83499
G1 X153.298 Y157.359 E53.85072
G1 X153.763 Y157.259 E53.86644
G1 X154.231 Y157.110 E53.88267
G1 X155.033 Y156.727 E53.91203
G1 X155.785 Y156.171 E53.94293
G1 X156.162 Y155.792 E53.96060
G1 X156.440 Y155.456 E53.97501
G1 X156.728 Y155.023 E53.99219
G1 X156.952 Y154.602 E54.00795
G1 X157.140 Y154.148 E54.02418
G1 X157.359 Y153.307 E54.05290
G1 X157.415 Y152.816 E54.06923
G1 X157.422 Y152.339 E54.08499
G1 X157.377 Y151.821 E54.10217
G1 X157.288 Y151.352 E54.11795
G1 X157.155 Y150.896 E54.13364
G1 X156.979 Y150.453 E54.14939
G1 X156.759 Y150.029 E54.16518
G1 X156.496 Y149.623 E54.18116
G1 F2100 E53.58116
G0 F12000 X158.099 Y148.174
G1 F2100 E54.18116
G1 F1620 X158.748 Y149.050 E54.21718
G1 X159.243 Y150.354 E54.26327
G1 X159.543 Y151.369 E54.29824
G1 X159.577 Y152.469 E54.33461
G1 X159.550 Y153.120 E54.35614
G1 X159.492 Y153.873 E54.38109
G1 X159.510 Y153.875 E54.38169
G1 X159.051 Y155.178 E54.42734
G1 X158.609 Y156.185 E54.46368
G1 X158.619 Y156.190 E54.46405
G1 X157.737 Y157.257 E54.50979
G1 X156.981 Y158.054 E54.54609
G1 X155.791 Y158.764 E54.59187
G1 X154.810 Y159.252 E54.62808
G1 X153.437 Y159.514 E54.67426
G1 X152.382 Y159.632 E54.70934
G1 X151.308 Y159.476 E54.74520
G1 X150.800 Y159.367 E54.76237
G1 X149.933 Y159.156 E54.79185
G1 X149.930 Y159.167 E54.79223
G1 X148.715 Y158.480 E54.83835
G1 X147.810 Y157.875 E54.87432
G1 X147.803 Y157.885 E54.87472
G1 X146.898 Y156.822 E54.92085
G1 X146.252 Y155.950 E54.95671
G1 X145.757 Y154.646 E55.00280
G1 X145.457 Y153.631 E55.03777
G1 X145.424 Y152.538 E55.07390
G1 X145.442 Y151.994 E55.09189
G1 X145.502 Y151.127 E55.12060
G1 X145.489 Y151.126 E55.12103
G1 X145.949 Y149.822 E55.16672
G1 X146.391 Y148.815 E55.20306
G1 X146.381 Y148.810 E55.20343
G1 X147.263 Y147.743 E55.24917
G1 X148.019 Y146.946 E55.28547
G1 X149.209 Y146.236 E55.33126
G1 X150.189 Y145.748 E55.36743
G1 X151.563 Y145.486 E55.41365
G1 X152.618 Y145.368 E55.44873
G1 X153.682 Y145.522 E55.48425
G1 X154.330 Y145.664 E55.50617
G1 X155.056 Y145.887 E55.53127
G1 X155.070 Y145.834 E55.53308
G1 X156.285 Y146.520 E55.57918
G1 X157.190 Y147.125 E55.61515
G1 X157.197 Y147.115 E55.61556
G1 X158.099 Y148.174 E55.66152
G1 F2100 E55.06152
G0 F12000 X159.860 Y148.274
G1 F2100 E55.66152
G1 F1620 X160.025 Y148.199 E55.66751
G1 X160.254 Y148.135 E55.67537
G1 X160.304 Y148.221 E55.67865
G1 X160.169 Y148.349 E55.68480
G1 X159.971 Y148.485 E55.69274
G1 X158.902 Y148.942 E55.73115
G1 X159.860 Y148.274 E55.76974
G1 F2100 E55.16974
G0 F12000 X160.878 Y151.043
G1 F2100 E55.76974
G1 F1620 X161.022 Y151.030 E55.77452
G1 X161.279 Y151.050 E55.78304
G1 X161.297 Y151.146 E55.78626
G1 X160.911 Y151.281 E55.79978
G1 X159.730 Y151.347 E55.83886
G1 X160.878 Y151.043 E55.87810
G1 F2100 E55.27810
G0 F12000 X160.853 Y153.993
G1 F2100 E55.87810
G1 F1620 X161.032 Y154.043 E55.88424
G1 X161.246 Y154.140 E55.89201
G1 X161.229 Y154.239 E55.89533
G1 X161.007 Y154.248 E55.90267
G1 X160.805 Y154.226 E55.90938
G1 X159.695 Y153.891 E55.94769
G1 X160.853 Y153.993 E55.98610
G1 F2100 E55.38610
G0 F12000 X159.847 Y156.764
G1 F2100 E55.98610
G1 F1620 X159.987 Y156.865 E55.99181
G1 X160.158 Y157.033 E55.99973
G1 X160.109 Y157.118 E56.00297
G1 X159.888 Y157.049 E56.01062
G1 X159.715 Y156.964 E56.01699
G1 X158.785 Y156.267 E56.05539
G1 X159.847 Y156.764 E56.09413
G1 F2100 E55.49413
G0 F12000 X157.954 Y159.029
G1 F2100 E56.09413
G1 F1620 X158.144 Y159.379 E56.10729
G1 X158.078 Y159.436 E56.11018
G1 X157.897 Y159.311 E56.11744
G1 X157.767 Y159.184 E56.12345
G1 X157.119 Y158.193 E56.16257
G1 X157.954 Y159.029 E56.20162
G1 F2100 E55.60162
G0 F12000 X155.382 Y160.480
G1 F2100 E56.20162
G1 F1620 X155.430 Y160.668 E56.20803
G1 X155.453 Y160.862 E56.21448
G1 X155.453 Y160.894 E56.21554
G1 X155.361 Y160.929 E56.21879
G1 X155.237 Y160.734 E56.22643
G1 X155.156 Y160.554 E56.23295
G1 X154.895 Y159.435 E56.27092
G1 X155.382 Y160.480 E56.30901
G1 F2100 E55.70901
G0 F12000 X152.481 Y161.008
G1 F2100 E56.30901
G1 F1620 X152.480 Y161.047 E56.31030
G1 X152.402 Y161.397 E56.32215
G1 X152.305 Y161.394 E56.32536
G1 X152.238 Y161.029 E56.33762
G1 X152.239 Y161.008 E56.33831
G1 X152.380 Y159.821 E56.37781
G1 X152.481 Y161.008 E56.41717
G1 F2100 E55.81717
G0 F12000 X149.579 Y160.467
G1 F2100 E56.41717
G1 F1620 X149.505 Y160.622 E56.42285
G1 X149.356 Y160.825 E56.43117
G1 X149.281 Y160.798 E56.43380
G1 X149.299 Y160.585 E56.44087
G1 X149.344 Y160.407 E56.44693
G1 X149.884 Y159.336 E56.48656
G1 X149.579 Y160.467 E56.52527
G1 F2100 E55.92527
G0 F12000 X147.031 Y158.987
G1 F2100 E56.52527
G1 F1620 X146.899 Y159.116 E56.53137
G1 X146.704 Y159.252 E56.53923
G1 X146.631 Y159.191 E56.54237
G1 X146.735 Y158.990 E56.54985
G1 X146.854 Y158.827 E56.55652
G1 X147.696 Y158.038 E56.59464
G1 X147.031 Y158.987 E56.63293
G1 F2100 E56.03293
G0 F12000 X145.140 Y156.726
G1 F2100 E56.63293
G1 F1620 X144.975 Y156.801 E56.63892
G1 X144.747 Y156.865 E56.64675
G1 X144.696 Y156.779 E56.65005
G1 X144.831 Y156.651 E56.65620
G1 X145.029 Y156.515 E56.66413
G1 X146.098 Y156.058 E56.70255
G1 X145.140 Y156.726 E56.74114
G1 F2100 E56.14114
G0 F12000 X144.122 Y153.957
G1 F2100 E56.74114
G1 F1620 X143.978 Y153.970 E56.74592
G1 X143.721 Y153.950 E56.75443
G1 X143.703 Y153.854 E56.75766
G1 X144.089 Y153.719 E56.77117
G1 X145.270 Y153.653 E56.81026
G1 X144.122 Y153.957 E56.84950
G1 F2100 E56.24950
G0 F12000 X144.147 Y151.007
G1 F2100 E56.84950
G1 F1620 X143.968 Y150.957 E56.85564
G1 X143.754 Y150.860 E56.86340
G1 X143.771 Y150.761 E56.86672
G1 X143.993 Y150.752 E56.87406
G1 X144.195 Y150.774 E56.88078
G1 X145.307 Y151.110 E56.91916
G1 X144.147 Y151.007 E56.95764
G1 F2100 E56.35764
G0 F12000 X145.153 Y148.236
G1 F2100 E56.95764
G1 F1620 X145.013 Y148.135 E56.96335
G1 X144.842 Y147.967 E56.97127
G1 X144.891 Y147.882 E56.97451
G1 X145.112 Y147.951 E56.98216
G1 X145.285 Y148.036 E56.98853
G1 X146.215 Y148.733 E57.02693
G1 X145.153 Y148.236 E57.06567
G1 F2100 E56.46567
G0 F12000 X147.046 Y145.971
G1 F2100 E57.06567
G1 F1620 X146.864 Y145.645 E57.07801
G1 X146.856 Y145.621 E57.07885
G1 X146.922 Y145.564 E57.08173
G1 X147.103 Y145.689 E57.08900
G1 X147.233 Y145.815 E57.09498
G1 X147.881 Y146.807 E57.13413
G1 X147.046 Y145.971 E57.17317
G1 F2100 E56.57317
G0 F12000 X149.613 Y144.509
G1 F2100 E57.17317
G1 F1620 X149.570 Y144.336 E57.17906
G1 X149.547 Y144.138 E57.18565
G1 X149.547 Y144.106 E57.18671
G1 X149.638 Y144.071 E57.18993
G1 X149.763 Y144.266 E57.19758
G1 X149.844 Y144.446 E57.20410
G1 X150.106 Y145.569 E57.24221
G1 X149.613 Y144.509 E57.28084
G1 F2100 E56.68084
G0 F12000 X152.519 Y143.990
G1 F2100 E57.28084
G1 F1620 X152.520 Y143.953 E57.28206
G1 X152.598 Y143.603 E57.29391
G1 X152.695 Y143.606 E57.29711
G1 X152.762 Y143.971 E57.30938
G1 X152.762 Y143.988 E57.30994
G1 X152.620 Y145.179 E57.34957
G1 X152.519 Y143.990 E57.38900
G1 F2100 E56.78900
G0 F12000 X155.422 Y144.533
G1 F2100 E57.38900
G1 F1620 X155.495 Y144.378 E57.39466
G1 X155.644 Y144.175 E57.40298
G1 X155.719 Y144.202 E57.40561
G1 X155.701 Y144.415 E57.41268
G1 X155.657 Y144.591 E57.41867
G1 X155.117 Y145.662 E57.45830
G1 X155.422 Y144.533 E57.49695
G1 F2100 E56.89695
G0 F12000 X157.969 Y146.013
G1 F2100 E57.49695
G1 F1620 X158.101 Y145.884 E57.50305
G1 X158.296 Y145.748 E57.51090
G1 X158.369 Y145.809 E57.51404
G1 X158.265 Y146.010 E57.52152
G1 X158.146 Y146.173 E57.52819
G1 X157.304 Y146.962 E57.56632
G1 X157.969 Y146.013 E57.60461
G0 F12000 X157.784 Y145.496
;TYPE:WALL-OUTER
G1 F1620 X157.980 Y145.351 E57.61266
G1 X158.349 Y145.144 E57.62664
G1 X158.955 Y145.667 E57.65309
G1 X158.841 Y145.985 E57.66426
G1 X158.691 Y146.275 E57.67504
G1 X158.522 Y146.505 E57.68448
G1 X157.862 Y147.125 E57.71440
G1 X158.485 Y147.855 E57.74611
G1 X158.861 Y148.362 E57.76696
G1 X159.612 Y147.838 E57.79722
G1 X159.851 Y147.729 E57.80590
G1 X160.149 Y147.645 E57.81613
G1 X160.512 Y147.589 E57.82827
G1 X160.903 Y148.290 E57.85479
G1 X160.649 Y148.586 E57.86768
G1 X160.480 Y148.743 E57.87530
G1 X160.214 Y148.925 E57.88595
G1 X159.377 Y149.283 E57.91603
G1 X159.713 Y150.182 E57.94774
G1 X159.892 Y150.787 E57.96859
G1 X160.783 Y150.551 E57.99905
G1 X160.906 Y150.535 E58.00315
G1 X161.042 Y150.529 E58.00764
G1 X161.570 Y150.589 E58.02520
G1 X161.709 Y150.623 E58.02993
G1 X161.790 Y151.058 E58.04455
G1 X161.837 Y151.420 E58.05661
G1 X161.733 Y151.486 E58.06068
G1 X161.473 Y151.618 E58.07032
G1 X161.022 Y151.771 E58.08605
G1 X160.058 Y151.830 E58.11797
G1 X160.077 Y152.460 E58.13879
G1 X160.048 Y153.168 E58.16221
G1 X160.029 Y153.418 E58.17049
G1 X160.942 Y153.499 E58.20078
G1 X161.202 Y153.571 E58.20969
G1 X161.473 Y153.693 E58.21951
G1 X161.795 Y153.892 E58.23202
G1 X161.644 Y154.677 E58.25843
G1 X161.515 Y154.705 E58.26280
G1 X161.268 Y154.737 E58.27103
G1 X160.986 Y154.749 E58.28035
G1 X160.703 Y154.718 E58.28976
G1 X159.836 Y154.456 E58.31969
G1 X159.514 Y155.367 E58.35161
G1 X159.263 Y155.939 E58.37225
G1 X160.103 Y156.332 E58.40290
G1 X160.309 Y156.481 E58.41130
G1 X160.528 Y156.695 E58.42141
G1 X160.758 Y156.987 E58.43370
G1 X160.350 Y157.671 E58.46001
G1 X160.021 Y157.614 E58.47105
G1 X159.697 Y157.513 E58.48226
G1 X159.454 Y157.393 E58.49121
G1 X158.725 Y156.847 E58.52131
G1 X158.104 Y157.598 E58.55351
G1 X157.679 Y158.045 E58.57389
G1 X158.331 Y158.699 E58.60440
G1 X158.375 Y158.755 E58.60676
G1 X158.594 Y159.150 E58.62168
G1 X158.729 Y159.537 E58.63522
G1 X158.103 Y160.047 E58.66190
G1 X157.998 Y159.990 E58.66585
G1 X157.583 Y159.702 E58.68254
G1 X157.398 Y159.523 E58.69105
G1 X157.364 Y159.481 E58.69283
G1 X156.863 Y158.715 E58.72308
G1 X156.020 Y159.209 E58.75536
G1 X155.469 Y159.483 E58.77570
G1 X155.857 Y160.315 E58.80603
G1 X155.923 Y160.574 E58.81486
G1 X155.952 Y160.827 E58.82328
G1 X155.957 Y161.112 E58.83270
G1 X155.948 Y161.242 E58.83700
G1 X155.520 Y161.403 E58.85211
G1 X155.190 Y161.507 E58.86354
G1 X154.974 Y161.251 E58.87461
G1 X154.791 Y160.964 E58.88586
G1 X154.680 Y160.716 E58.89484
G1 X154.474 Y159.832 E58.92483
G1 X153.514 Y160.009 E58.95708
G1 X152.903 Y160.077 E58.97740
G1 X152.981 Y160.993 E59.00777
G1 X152.977 Y161.112 E59.01171
G1 X152.880 Y161.550 E59.02653
G1 X152.750 Y161.897 E59.03878
G1 X152.523 Y161.901 E59.04628
G1 X151.944 Y161.885 E59.06542
G1 X151.810 Y161.485 E59.07936
G1 X151.759 Y161.242 E59.08756
G1 X151.739 Y161.062 E59.09354
G1 X151.738 Y161.032 E59.09454
G1 X151.739 Y160.975 E59.09642
G1 X151.848 Y160.060 E59.12687
G1 X151.220 Y159.969 E59.14783
G1 X150.681 Y159.853 E59.16605
G1 X150.288 Y159.757 E59.17942
G1 X150.050 Y160.639 E59.20961
G1 X149.935 Y160.882 E59.21849
G1 X149.616 Y161.316 E59.23629
G1 X149.522 Y161.414 E59.24077
G1 X149.098 Y161.263 E59.25565
G1 X148.768 Y161.126 E59.26745
G1 X148.763 Y161.000 E59.27162
G1 X148.804 Y160.498 E59.28826
G1 X148.887 Y160.202 E59.29842
G1 X149.300 Y159.385 E59.32867
G1 X148.456 Y158.908 E59.36070
G1 X147.939 Y158.562 E59.38126
G1 X147.415 Y159.310 E59.41143
G1 X147.216 Y159.504 E59.42062
G1 X147.020 Y159.649 E59.42867
G1 X146.651 Y159.856 E59.44265
G1 X146.045 Y159.333 E59.46910
G1 X146.159 Y159.015 E59.48027
G1 X146.309 Y158.725 E59.49105
G1 X146.478 Y158.495 E59.50048
G1 X147.138 Y157.875 E59.53041
G1 X146.514 Y157.144 E59.56216
G1 X146.139 Y156.638 E59.58297
G1 X145.388 Y157.162 E59.61323
G1 X145.149 Y157.271 E59.62191
G1 X144.851 Y157.355 E59.63214
G1 X144.488 Y157.411 E59.64428
G1 X144.097 Y156.710 E59.67080
G1 X144.351 Y156.414 E59.68369
G1 X144.520 Y156.257 E59.69131
G1 X144.786 Y156.075 E59.70196
G1 X145.623 Y155.717 E59.73204
G1 X145.287 Y154.818 E59.76375
G1 X145.108 Y154.213 E59.78460
G1 X144.217 Y154.449 E59.81506
G1 X144.094 Y154.465 E59.81916
G1 X143.958 Y154.471 E59.82365
G1 X143.430 Y154.411 E59.84121
G1 X143.291 Y154.377 E59.84594
G1 X143.163 Y153.580 E59.87261
G1 X143.267 Y153.514 E59.87668
G1 X143.527 Y153.382 E59.88632
G1 X143.978 Y153.229 E59.90205
G1 X144.942 Y153.170 E59.93397
G1 X144.923 Y152.546 E59.95459
G1 X144.942 Y151.977 E59.97341
G1 X144.969 Y151.582 E59.98649
G1 X144.058 Y151.501 E60.01671
G1 X143.798 Y151.429 E60.02562
G1 X143.527 Y151.307 E60.03544
G1 X143.205 Y151.108 E60.04795
G1 X143.356 Y150.323 E60.07437
G1 X143.485 Y150.295 E60.07873
G1 X143.732 Y150.263 E60.08696
G1 X144.014 Y150.251 E60.09628
G1 X144.297 Y150.282 E60.10569
G1 X145.164 Y150.544 E60.13562
G1 X145.486 Y149.633 E60.16754
G1 X145.737 Y149.061 E60.18818
G1 X144.897 Y148.668 E60.21883
G1 X144.691 Y148.519 E60.22723
G1 X144.472 Y148.305 E60.23735
G1 X144.242 Y148.013 E60.24963
G1 X144.650 Y147.329 E60.27594
G1 X144.979 Y147.386 E60.28698
G1 X145.303 Y147.487 E60.29819
G1 X145.546 Y147.607 E60.30715
G1 X146.275 Y148.153 E60.33724
G1 X146.898 Y147.399 E60.36956
G1 X147.321 Y146.955 E60.38982
G1 X146.669 Y146.301 E60.42034
G1 X146.625 Y146.245 E60.42269
G1 X146.406 Y145.850 E60.43761
G1 X146.271 Y145.463 E60.45116
G1 X146.897 Y144.953 E60.47784
G1 X147.002 Y145.010 E60.48178
G1 X147.417 Y145.298 E60.49848
G1 X147.635 Y145.517 E60.50869
G1 X148.137 Y146.285 E60.53900
G1 X148.980 Y145.791 E60.57129
G1 X149.530 Y145.517 E60.59159
G1 X149.140 Y144.678 E60.62216
G1 X149.077 Y144.423 E60.63084
G1 X149.048 Y144.173 E60.63916
G1 X149.043 Y143.888 E60.64858
G1 X149.052 Y143.758 E60.65288
G1 X149.480 Y143.597 E60.66799
G1 X149.810 Y143.493 E60.67943
G1 X150.026 Y143.749 E60.69049
G1 X150.208 Y144.033 E60.70164
G1 X150.320 Y144.284 E60.71072
G1 X150.526 Y145.168 E60.74071
G1 X151.486 Y144.991 E60.77297
G1 X152.097 Y144.923 E60.79328
G1 X152.019 Y144.007 E60.82366
G1 X152.023 Y143.886 E60.82766
G1 X152.120 Y143.450 E60.84242
G1 X152.250 Y143.103 E60.85466
G1 X152.477 Y143.099 E60.86216
G1 X153.056 Y143.115 E60.88130
G1 X153.189 Y143.510 E60.89507
G1 X153.241 Y143.758 E60.90345
G1 X153.261 Y143.938 E60.90943
G1 X153.262 Y143.968 E60.91042
G1 X153.261 Y144.025 E60.91231
G1 X153.152 Y144.940 E60.94275
G1 X153.776 Y145.031 E60.96359
G1 X154.452 Y145.178 E60.98645
G1 X154.708 Y145.257 E60.99530
G1 X154.950 Y144.361 E61.02597
G1 X155.065 Y144.118 E61.03485
G1 X155.384 Y143.684 E61.05265
G1 X155.478 Y143.586 E61.05714
G1 X155.902 Y143.737 E61.07201
G1 X156.232 Y143.874 E61.08382
G1 X156.237 Y144.000 E61.08798
G1 X156.196 Y144.502 E61.10462
G1 X156.115 Y144.794 E61.11464
G1 X155.700 Y145.615 E61.14503
G1 X156.544 Y146.092 E61.17707
G1 X157.061 Y146.438 E61.19762
G1 X157.585 Y145.690 E61.22780
G1 X157.784 Y145.496 E61.23698
G1 F2100 E60.63698
G0 F12000 X155.199 Y148.994
G1 F2100 E61.23698
G1 F1620 X154.745 Y148.692 E61.25500
G1 X154.189 Y148.410 E61.27560
G1 X153.594 Y148.214 E61.29630
G1 X152.895 Y148.093 E61.31974
G1 X152.464 Y148.076 E61.33399
G1 X151.995 Y148.105 E61.34952
G1 X151.572 Y148.175 E61.36369
G1 X151.159 Y148.286 E61.37782
G1 X150.760 Y148.434 E61.39188
G1 X150.376 Y148.620 E61.40598
G1 X150.010 Y148.844 E61.42016
G1 X149.671 Y149.101 E61.43421
G1 X149.383 Y149.359 E61.44699
G1 X149.070 Y149.709 E61.46250
G1 X148.817 Y150.053 E61.47661
G1 X148.596 Y150.420 E61.49077
G1 X148.415 Y150.807 E61.50489
G1 X148.271 Y151.209 E61.51900
G1 X148.166 Y151.622 E61.53308
G1 X148.103 Y152.003 E61.54584
G1 X148.076 Y152.430 E61.55997
G1 X148.095 Y152.897 E61.57542
G1 X148.145 Y153.280 E61.58818
G1 X148.240 Y153.698 E61.60234
G1 X148.393 Y154.141 E61.61783
G1 X148.570 Y154.530 E61.63195
G1 X148.763 Y154.869 E61.64484
G1 X149.179 Y155.418 E61.66760
G1 X149.558 Y155.805 E61.68550
G1 X149.867 Y156.055 E61.69863
G1 X150.388 Y156.386 E61.71903
G1 X150.744 Y156.561 E61.73214
G1 X151.248 Y156.740 E61.74981
G1 X151.480 Y156.806 E61.75778
G1 X151.897 Y156.883 E61.77179
G1 X152.323 Y156.921 E61.78592
G1 X152.792 Y156.914 E61.80142
G1 X153.217 Y156.865 E61.81556
G1 X153.634 Y156.775 E61.82965
G1 X154.047 Y156.644 E61.84397
G1 X154.774 Y156.296 E61.87060
G1 X155.457 Y155.792 E61.89865
G1 X155.791 Y155.455 E61.91433
G1 X156.038 Y155.157 E61.92712
G1 X156.298 Y154.766 E61.94263
G1 X156.499 Y154.389 E61.95675
G1 X156.665 Y153.989 E61.97106
G1 X156.866 Y153.215 E61.99748
G1 X156.916 Y152.784 E62.01182
G1 X156.922 Y152.357 E62.02593
G1 X156.881 Y151.890 E62.04142
G1 X156.801 Y151.469 E62.05558
G1 X156.682 Y151.059 E62.06969
G1 X156.524 Y150.661 E62.08384
G1 X156.326 Y150.281 E62.09799
G1 X156.093 Y149.920 E62.11219
G1 X155.666 Y149.410 E62.13417
G1 X155.199 Y148.994 E62.15483
G0 F12000 X155.826 Y148.000
;TYPE:SKIN
G1 F1620 X157.065 Y148.000 E62.19577
G0 F12000 X157.492 Y148.500
G1 F1620 X156.411 Y148.500 E62.23149
G0 F12000 X156.854 Y149.000
G1 F1620 X157.871 Y149.000 E62.26510
G0 F12000 X158.205 Y149.500
G1 F1620 X157.361 Y149.750 E62.29762
G1 X158.484 Y150.250 E62.32694
G1 X157.804 Y150.750 E62.35517
G1 X158.800 Y151.250 E62.38293
G1 X158.035 Y151.750 E62.41168
G1 X158.892 Y152.250 E62.43869
G1 X158.084 Y152.750 E62.46519
G1 X158.860 Y153.250 E62.49179
G1 X157.940 Y153.750 E62.51947
G1 X158.660 Y154.250 E62.54832
G1 X157.614 Y154.750 E62.57628
G1 X158.281 Y155.250 E62.60559
G1 X157.220 Y155.500 E62.64161
G0 F12000 X156.864 Y156.000
G1 F1620 X157.898 Y156.000 E62.67578
G0 F12000 X157.484 Y156.500
G1 F1620 X156.409 Y156.500 E62.71130
G0 F12000 X155.798 Y157.000
G1 F1620 X157.048 Y157.000 E62.75260
G0 F12000 X156.573 Y157.500
G1 F1620 X154.977 Y157.500 E62.80534
G0 F12000 X155.756 Y158.000
G1 F1620 X153.522 Y158.000 E62.87915
G0 F12000 X154.804 Y158.500
G1 F1620 X150.125 Y158.500 E63.03376
G0 F12000 X149.991 Y157.500
G1 F1620 X148.464 Y157.500 E63.08421
G0 F12000 X147.934 Y157.000
G1 F1620 X149.167 Y157.000 E63.12496
G0 F12000 X148.595 Y156.500
G1 F1620 X147.507 Y156.500 E63.16091
G0 F12000 X147.128 Y156.000
G1 F1620 X148.146 Y156.000 E63.19454
G0 F12000 X147.769 Y155.500
G1 F1620 X146.701 Y155.250 E63.22673
G1 X147.383 Y154.750 E63.25596
G1 X146.345 Y154.250 E63.28413
G1 X147.046 Y153.750 E63.31161
G1 X146.118 Y153.250 E63.34010
G1 X146.912 Y152.750 E63.36689
G1 X146.114 Y152.250 E63.39340
G1 X146.959 Y151.750 E63.41975
G1 X146.202 Y151.250 E63.44738
G1 X147.192 Y150.750 E63.47582
G1 X146.515 Y150.250 E63.50391
G1 X147.635 Y149.750 E63.53325
G1 X146.826 Y149.500 E63.56123
G0 F12000 X147.098 Y149.000
G1 F1620 X148.130 Y149.000 E63.59533
G0 F12000 X148.578 Y148.500
G1 F1620 X147.512 Y148.500 E63.63055
G0 F12000 X147.947 Y148.000
G1 F1620 X149.176 Y148.000 E63.67116
G0 F12000 X148.423 Y147.500
G1 F1620 X149.988 Y147.500 E63.72287
G0 F12000 X149.239 Y147.000
G1 F1620 X151.468 Y147.000 E63.79653
G0 F12000 X150.190 Y146.500
G1 F1620 X154.755 Y146.500 E63.94737
G0 F12000 X154.993 Y147.500
G1 F1620 X156.537 Y147.500 E63.99838
G0 F12000 X155.762 Y147.000
G1 F1620 X153.473 Y147.000 E64.07402
G1 F2100 E63.47402
G0 F12000 X151.481 Y158.000
G1 F2100 E64.07402
G1 F1620 X149.240 Y158.000 E64.14807
;LAYER:4
M106 S2
G0 F12000 X148.993 Y158.063 Z0.800
;TYPE:WALL-INNER
G1 F1800 X148.112 Y157.477 E64.18303
G1 X147.291 Y156.513 E64.22487
G1 X146.679 Y155.688 E64.25881
G1 X146.235 Y154.497 E64.30081
G1 X145.954 Y153.547 E64.33354
G1 X145.923 Y152.541 E64.36680
G1 X145.944 Y151.977 E64.38545
G1 X145.997 Y151.189 E64.41155
G1 X146.417 Y150.000 E64.45321
G1 X146.816 Y149.092 E64.48598
G1 X147.440 Y148.300 E64.51930
G1 X147.882 Y147.816 E64.54096
G1 X148.319 Y147.339 E64.56233
G1 X149.443 Y146.677 E64.60544
G1 X150.343 Y146.231 E64.63863
G1 X151.312 Y146.032 E64.67131
G1 X151.977 Y145.943 E64.69348
G1 X152.580 Y145.867 E64.71356
G1 X153.599 Y146.016 E64.74759
G1 X154.233 Y146.155 E64.76904
G1 X154.934 Y146.330 E64.79291
G1 X156.007 Y146.937 E64.83365
G1 X156.888 Y147.523 E64.86861
G1 X157.709 Y148.487 E64.91045
G1 X158.321 Y149.312 E64.94439
G1 X158.763 Y150.497 E64.98618
G1 X159.046 Y151.453 E65.01912
G1 X159.077 Y152.456 E65.05228
G1 X159.052 Y153.076 E65.07279
G1 X158.936 Y153.999 E65.10352
G1 X158.585 Y154.995 E65.13842
G1 X158.184 Y155.908 E65.17137
G1 X157.560 Y156.700 E65.20468
G1 X157.118 Y157.184 E65.22634
G1 X156.681 Y157.661 E65.24772
G1 X155.557 Y158.323 E65.29082
G1 X154.658 Y158.769 E65.32398
G1 X153.688 Y158.968 E65.35670
G1 X153.023 Y159.057 E65.37887
G1 X152.420 Y159.133 E65.39895
G1 X151.398 Y158.984 E65.43308
G1 X150.831 Y158.861 E65.45225
G1 X150.073 Y158.673 E65.47805
G1 X148.993 Y158.063 E65.51904
G0 F12000 X149.528 Y157.039
G1 F1800 X149.952 Y157.290 E65.53532
G1 X150.474 Y157.532 E65.55433
G1 X151.231 Y157.776 E65.58061
G1 X151.761 Y157.875 E65.59843
G1 X152.287 Y157.922 E65.61588
G1 X152.871 Y157.912 E65.63517
G1 X153.394 Y157.850 E65.65258
G1 X153.898 Y157.740 E65.66962
G1 X154.349 Y157.602 E65.68521
G1 X154.908 Y157.361 E65.70532
G1 X155.708 Y156.878 E65.73620
G1 X156.197 Y156.471 E65.75722
G1 X156.826 Y155.779 E65.78812
G1 X157.161 Y155.275 E65.80812
G1 X157.384 Y154.864 E65.82357
G1 X157.592 Y154.375 E65.84113
G1 X157.761 Y153.816 E65.86042
G1 X157.861 Y153.311 E65.87743
G1 X157.915 Y152.850 E65.89277
G1 X157.923 Y152.319 E65.91032
G1 X157.870 Y151.738 E65.92960
G1 X157.771 Y151.223 E65.94692
G1 X157.624 Y150.720 E65.96424
G1 X157.418 Y150.209 E65.98245
G1 X156.951 Y149.393 E66.01351
G1 X156.489 Y148.821 E66.03781
G1 X156.079 Y148.423 E66.05669
G1 X155.696 Y148.117 E66.07289
G1 X155.010 Y147.686 E66.09966
G1 X154.249 Y147.363 E66.12697
G1 X153.515 Y147.169 E66.15206
G1 X152.979 Y147.095 E66.16994
G1 X152.451 Y147.074 E66.18740
G1 X151.869 Y147.113 E66.20667
G1 X151.350 Y147.199 E66.22405
G1 X150.818 Y147.342 E66.24226
G1 X149.958 Y147.704 E66.27309
G1 X149.415 Y148.038 E66.29415
G1 X148.692 Y148.631 E66.32505
G1 X148.268 Y149.106 E66.34609
G1 X147.732 Y149.902 E66.37780
G1 X147.332 Y150.843 E66.41158
G1 X147.184 Y151.429 E66.43155
G1 X147.109 Y151.889 E66.44695
G1 X147.074 Y152.419 E66.46451
G1 X147.099 Y153.002 E66.48379
G1 X147.173 Y153.523 E66.50117
G1 X147.297 Y154.033 E66.51852
G1 X147.469 Y154.526 E66.53577
G1 X147.684 Y154.995 E66.55282
G1 X147.915 Y155.401 E66.56825
G1 X148.215 Y155.828 E66.58550
G1 X148.549 Y156.219 E66.60249
G1 X148.901 Y156.562 E66.61873
G1 X149.528 Y157.039 E66.64476
G0 F12000 X149.808 Y156.623
G1 F1800 X150.185 Y156.847 E66.65925
G1 X150.657 Y157.066 E66.67644
G1 X151.354 Y157.291 E66.70064
G1 X151.829 Y157.379 E66.71661
G1 X152.305 Y157.422 E66.73240
G1 X152.837 Y157.412 E66.74998
G1 X153.311 Y157.357 E66.76575
G1 X154.176 Y157.132 E66.79528
G1 X154.679 Y156.916 E66.81337
G1 X155.417 Y156.470 E66.84186
G1 X155.850 Y156.109 E66.86049
G1 X156.430 Y155.470 E66.88900
G1 X156.732 Y155.017 E66.90699
G1 X156.933 Y154.646 E66.92093
G1 X157.121 Y154.204 E66.93681
G1 X157.276 Y153.695 E66.95439
G1 X157.415 Y152.817 E66.98376
G1 X157.423 Y152.338 E66.99959
G1 X157.375 Y151.808 E67.01717
G1 X157.285 Y151.341 E67.03289
G1 X157.151 Y150.884 E67.04862
G1 X156.967 Y150.428 E67.06487
G1 X156.537 Y149.676 E67.09350
G1 X156.119 Y149.159 E67.11546
G1 X155.748 Y148.799 E67.13254
G1 X155.406 Y148.526 E67.14700
G1 X154.778 Y148.131 E67.17152
G1 X154.087 Y147.838 E67.19632
G1 X153.417 Y147.660 E67.21922
G1 X152.935 Y147.594 E67.23530
G1 X152.457 Y147.575 E67.25111
G1 X151.927 Y147.610 E67.26866
G1 X151.456 Y147.688 E67.28443
G1 X150.981 Y147.816 E67.30069
G1 X150.187 Y148.150 E67.32915
G1 X149.706 Y148.446 E67.34781
G1 X149.039 Y148.993 E67.37631
G1 X148.664 Y149.413 E67.39492
G1 X148.173 Y150.141 E67.42393
G1 X147.807 Y151.002 E67.45485
G1 X147.674 Y151.531 E67.47287
G1 X147.606 Y151.946 E67.48677
G1 X147.575 Y152.424 E67.50259
G1 X147.597 Y152.956 E67.52019
G1 X147.665 Y153.429 E67.53598
G1 X147.777 Y153.891 E67.55169
G1 X147.934 Y154.339 E67.56737
