;FLAVOR:Repetier
;TIME:252
;Generated with Cura_SteamEngine 2.5.0
M190 S60
M104 S220
M109 S220
G28 ;Home
G1 Z15.0 F6000 ;Move the platform down 15mm
;Prime the extruder
G92 E0
G1 F200 E3
G92 E0
;LAYER_COUNT:52
;LAYER:0
M106 S255
G0 F3300 X-1.915 Y-2.93 Z0.3
;TYPE:WALL-OUTER
G1 F600 X-2.206 Y-2.717 E0.02249
G1 X-2.475 Y-2.475 E0.04505
G1 X-2.717 Y-2.206 E0.06762
G1 X-2.93 Y-1.915 E0.09011
G1 X-3.108 Y-1.607 E0.11229
G1 X-3.254 Y-1.288 E0.13417
G1 X-3.365 Y-.963 E0.15559
G1 X-3.441 Y-.637 E0.17646
G1 X-3.485 Y-.315 E0.19673
G1 X-3.5 Y0.00 E0.2164
G1 X-3.485 Y0.315 E0.23607
G1 X-3.441 Y0.637 E0.25633
G1 X-3.365 Y0.963 E0.27721
G1 X-3.254 Y1.288 E0.29863
G1 X-3.108 Y1.607 E0.3205
G1 X-2.93 Y1.915 E0.34269
G1 X-2.717 Y2.206 E0.36518
G1 X-2.475 Y2.475 E0.38774
G1 X-2.206 Y2.717 E0.41031
G1 X-1.915 Y2.93 E0.4328
G1 X-1.607 Y3.108 E0.45498
G1 X-1.288 Y3.254 E0.47686
G1 X-.963 Y3.365 E0.49828
G1 X-.637 Y3.441 E0.51915
G1 X-.315 Y3.485 E0.53942
G1 X0.00 Y3.5 E0.55909
G1 X0.315 Y3.485 E0.57875
G1 X0.637 Y3.441 E0.59902
G1 X0.963 Y3.365 E0.6199
G1 X1.288 Y3.254 E0.64131
G1 X1.607 Y3.108 E0.66319
G1 X1.915 Y2.93 E0.68538
G1 X2.206 Y2.717 E0.70787
G1 X2.475 Y2.475 E0.73043
G1 X2.717 Y2.206 E0.753
G1 X2.93 Y1.915 E0.77549
G1 X3.108 Y1.607 E0.79767
G1 X3.254 Y1.288 E0.81955
G1 X3.365 Y0.963 E0.84097
G1 X3.441 Y0.637 E0.86184
G1 X3.485 Y0.315 E0.88211
G1 X3.5 Y0.00 E0.90178
G1 X3.485 Y-.315 E0.92144
G1 X3.441 Y-.637 E0.94171
G1 X3.365 Y-.963 E0.96259
G1 X3.254 Y-1.288 E0.984
G1 X3.108 Y-1.607 E1.00588
G1 X2.93 Y-1.915 E1.02807
G1 X2.717 Y-2.206 E1.05056
G1 X2.475 Y-2.475 E1.07312
G1 X2.206 Y-2.717 E1.09569
G1 X1.915 Y-2.93 E1.11818
G1 X1.607 Y-3.108 E1.14036
G1 X1.288 Y-3.254 E1.16224
G1 X0.963 Y-3.365 E1.18366
G1 X0.637 Y-3.441 E1.20453
G1 X0.315 Y-3.485 E1.2248
G1 X0.00 Y-3.5 E1.24446
G1 X-.315 Y-3.485 E1.26413
G1 X-.637 Y-3.441 E1.2844
G1 X-.963 Y-3.365 E1.30527
G1 X-1.288 Y-3.254 E1.32669
G1 X-1.607 Y-3.108 E1.34857
G1 X-1.915 Y-2.93 E1.37075
G0 F3300 X-2.117 Y-2.783
G0 X-2.167 Y-3.359
G1 F600 X-1.86 Y-3.539 E1.39286
G1 X-1.838 Y-3.552 E1.39445
G1 X-1.813 Y-3.563 E1.39616
G1 X-1.492 Y-3.708 E1.41803
G1 X-1.471 Y-3.718 E1.41949
G1 X-1.449 Y-3.725 E1.42093
G1 X-1.122 Y-3.836 E1.44233
G1 X-1.097 Y-3.845 E1.44399
G1 X-1.078 Y-3.849 E1.4452
G1 X-.753 Y-3.926 E1.46592
G1 X-.731 Y-3.932 E1.46735
G1 X-.705 Y-3.935 E1.46898
G1 X-.381 Y-3.979 E1.48929
G1 X-.359 Y-3.982 E1.49067
G1 X-.339 Y-3.982 E1.49192
G1 X-0.025 Y-3.997 E1.51141
G1 X0.00 Y-3.999 E1.51297
G1 X0.023 Y-3.998 E1.5144
G1 X0.339 Y-3.983 E1.53405
G1 X0.359 Y-3.982 E1.5353
G1 X0.38 Y-3.98 E1.53661
G1 X0.703 Y-3.936 E1.5569
G1 X0.731 Y-3.932 E1.55867
G1 X1.078 Y-3.85 E1.58084
G1 X1.097 Y-3.845 E1.58206
G1 X1.121 Y-3.837 E1.58363
G1 X1.449 Y-3.726 E1.60512
G1 X1.471 Y-3.718 E1.60658
G1 X1.492 Y-3.709 E1.608
G1 X1.814 Y-3.563 E1.62998
G1 X1.838 Y-3.552 E1.63163
G1 X1.857 Y-3.541 E1.633
G1 X2.166 Y-3.361 E1.65523
G1 X2.185 Y-3.349 E1.65663
G1 X2.207 Y-3.333 E1.65833
G1 X2.499 Y-3.12 E1.68075
G1 X2.524 Y-3.102 E1.68268
G1 X2.539 Y-3.088 E1.68396
G1 X2.808 Y-2.846 E1.70643
G1 X2.828 Y-2.828 E1.70811
G1 X2.844 Y-2.81 E1.70961
G1 X3.087 Y-2.541 E1.73215
G1 X3.102 Y-2.524 E1.73356
G1 X3.119 Y-2.5 E1.73539
G1 X3.332 Y-2.208 E1.75782
G1 X3.349 Y-2.185 E1.7596
G1 X3.359 Y-2.167 E1.76089
G1 X3.539 Y-1.86 E1.78299
G1 X3.552 Y-1.838 E1.78459
G1 X3.563 Y-1.813 E1.78629
G1 X3.708 Y-1.492 E1.80817
G1 X3.718 Y-1.471 E1.80962
G1 X3.725 Y-1.449 E1.81106
G1 X3.836 Y-1.122 E1.83247
G1 X3.845 Y-1.097 E1.83412
G1 X3.849 Y-1.078 E1.83533
G1 X3.926 Y-.753 E1.85606
G1 X3.932 Y-.731 E1.85748
G1 X3.935 Y-.705 E1.85911
G1 X3.979 Y-.381 E1.87942
G1 X3.982 Y-.359 E1.88081
G1 X3.982 Y-.338 E1.88212
G1 X3.997 Y-0.023 E1.90166
G1 X3.999 Y0.00 E1.9031
G1 X3.998 Y0.023 E1.90454
G1 X3.983 Y0.339 E1.92419
G1 X3.982 Y0.359 E1.92543
G1 X3.98 Y0.38 E1.92675
G1 X3.936 Y0.703 E1.94704
G1 X3.932 Y0.731 E1.9488
G1 X3.85 Y1.078 E1.97097
G1 X3.845 Y1.097 E1.97219
G1 X3.837 Y1.121 E1.97377
G1 X3.726 Y1.449 E1.99525
G1 X3.718 Y1.471 E1.99671
G1 X3.709 Y1.492 E1.99813
G1 X3.563 Y1.814 E2.02011
G1 X3.552 Y1.838 E2.02176
G1 X3.541 Y1.857 E2.02313
G1 X3.361 Y2.166 E2.04536
G1 X3.349 Y2.185 E2.04676
G1 X3.333 Y2.207 E2.04846
G1 X3.12 Y2.499 E2.07089
G1 X3.102 Y2.524 E2.07281
G1 X3.088 Y2.539 E2.07409
G1 X2.846 Y2.808 E2.09656
G1 X2.828 Y2.828 E2.09824
G1 X2.81 Y2.844 E2.09974
G1 X2.541 Y3.087 E2.12228
G1 X2.524 Y3.102 E2.12369
G1 X2.5 Y3.119 E2.12553
G1 X2.208 Y3.332 E2.14795
G1 X2.185 Y3.349 E2.14974
G1 X2.167 Y3.359 E2.15102
G1 X1.86 Y3.539 E2.17313
G1 X1.838 Y3.552 E2.17472
G1 X1.813 Y3.563 E2.17642
G1 X1.492 Y3.708 E2.1983
G1 X1.471 Y3.718 E2.19975
G1 X1.449 Y3.725 E2.20119
G1 X1.122 Y3.836 E2.2226
G1 X1.097 Y3.845 E2.22426
G1 X1.078 Y3.849 E2.22547
G1 X0.753 Y3.926 E2.24619
G1 X0.731 Y3.932 E2.24761
G1 X0.705 Y3.935 E2.24925
G1 X0.381 Y3.979 E2.26955
G1 X0.359 Y3.982 E2.27094
G1 X0.338 Y3.982 E2.27225
G1 X0.023 Y3.997 E2.2918
G1 X0.00 Y3.999 E2.29324
G1 X-0.023 Y3.998 E2.29467
G1 X-.339 Y3.983 E2.31432
G1 X-.359 Y3.982 E2.31557
G1 X-.38 Y3.98 E2.31688
G1 X-.703 Y3.936 E2.33717
G1 X-.731 Y3.932 E2.33893
G1 X-1.078 Y3.85 E2.3611
G1 X-1.097 Y3.845 E2.36233
G1 X-1.121 Y3.837 E2.3639
G1 X-1.449 Y3.726 E2.38539
G1 X-1.471 Y3.718 E2.38684
G1 X-1.492 Y3.709 E2.38827
G1 X-1.814 Y3.563 E2.41025
G1 X-1.838 Y3.552 E2.41189
G1 X-1.857 Y3.541 E2.41326
G1 X-2.166 Y3.361 E2.4355
G1 X-2.185 Y3.349 E2.4369
G1 X-2.207 Y3.333 E2.43859
G1 X-2.499 Y3.12 E2.46102
G1 X-2.524 Y3.102 E2.46294
G1 X-2.539 Y3.088 E2.46422
G1 X-2.808 Y2.846 E2.4867
G1 X-2.828 Y2.828 E2.48837
G1 X-2.844 Y2.81 E2.48987
G1 X-3.087 Y2.541 E2.51241
G1 X-3.102 Y2.524 E2.51383
G1 X-3.119 Y2.5 E2.51566
G1 X-3.332 Y2.208 E2.53809
G1 X-3.349 Y2.185 E2.53987
G1 X-3.359 Y2.167 E2.54115
G1 X-3.539 Y1.86 E2.56326
G1 X-3.552 Y1.838 E2.56485
G1 X-3.563 Y1.813 E2.56656
G1 X-3.708 Y1.492 E2.58843
G1 X-3.718 Y1.471 E2.58989
G1 X-3.725 Y1.449 E2.59133
G1 X-3.836 Y1.122 E2.61273
G1 X-3.845 Y1.097 E2.61439
G1 X-3.849 Y1.078 E2.6156
G1 X-3.926 Y0.753 E2.63632
G1 X-3.932 Y0.731 E2.63775
G1 X-3.935 Y0.705 E2.63938
G1 X-3.979 Y0.381 E2.65969
G1 X-3.982 Y0.359 E2.66107
G1 X-3.982 Y0.338 E2.66238
G1 X-3.997 Y0.023 E2.68193
G1 X-3.999 Y0.00 E2.68337
G1 X-3.998 Y-0.023 E2.6848
G1 X-3.983 Y-.339 E2.70445
G1 X-3.982 Y-.359 E2.7057
G1 X-3.98 Y-.38 E2.70701
G1 X-3.936 Y-.703 E2.7273
G1 X-3.932 Y-.731 E2.72907
G1 X-3.85 Y-1.078 E2.75124
G1 X-3.845 Y-1.097 E2.75246
G1 X-3.837 Y-1.121 E2.75403
G1 X-3.726 Y-1.449 E2.77552
G1 X-3.718 Y-1.471 E2.77698
G1 X-3.709 Y-1.492 E2.7784
G1 X-3.563 Y-1.814 E2.80038
G1 X-3.552 Y-1.838 E2.80203
G1 X-3.541 Y-1.857 E2.8034
G1 X-3.361 Y-2.166 E2.82563
G1 X-3.349 Y-2.185 E2.82703
G1 X-3.333 Y-2.207 E2.82873
G1 X-3.12 Y-2.499 E2.85115
G1 X-3.102 Y-2.524 E2.85308
G1 X-3.088 Y-2.539 E2.85436
G1 X-2.846 Y-2.808 E2.87683
G1 X-2.828 Y-2.828 E2.87851
G1 X-2.81 Y-2.844 E2.88001
G1 X-2.541 Y-3.087 E2.90255
G1 X-2.524 Y-3.102 E2.90396
G1 X-2.5 Y-3.119 E2.90579
G1 X-2.208 Y-3.332 E2.92822
G1 X-2.185 Y-3.349 E2.93
G1 X-2.167 Y-3.359 E2.93129
G0 F3300 X-1.951 Y-3.485
G0 X-1.915 Y-2.93
;TIME_ELAPSED:5.139898
;LAYER:1
M140 S60
G0 F4950 X-1.915 Y-2.93 Z0.45
;TYPE:WALL-OUTER
G1 F600 X-2.206 Y-2.717 E2.94253
G1 X-2.475 Y-2.475 E2.95382
G1 X-2.717 Y-2.206 E2.9651
G1 X-2.93 Y-1.915 E2.97634
G1 X-3.108 Y-1.607 E2.98743
G1 X-3.254 Y-1.288 E2.99837
G1 X-3.365 Y-.963 E3.00908
G1 X-3.441 Y-.637 E3.01952
G1 X-3.485 Y-.315 E3.02965
G1 X-3.5 Y0.00 E3.03949
G1 X-3.485 Y0.315 E3.04932
G1 X-3.441 Y0.637 E3.05945
G1 X-3.365 Y0.963 E3.06989
G1 X-3.254 Y1.288 E3.0806
G1 X-3.108 Y1.607 E3.09154
G1 X-2.93 Y1.915 E3.10263
G1 X-2.717 Y2.206 E3.11388
G1 X-2.475 Y2.475 E3.12516
G1 X-2.206 Y2.717 E3.13644
G1 X-1.915 Y2.93 E3.14769
G1 X-1.607 Y3.108 E3.15878
G1 X-1.288 Y3.254 E3.16972
G1 X-.963 Y3.365 E3.18043
G1 X-.637 Y3.441 E3.19086
G1 X-.315 Y3.485 E3.201
G1 X0.00 Y3.5 E3.21083
G1 X0.315 Y3.485 E3.22067
G1 X0.637 Y3.441 E3.2308
G1 X0.963 Y3.365 E3.24124
G1 X1.288 Y3.254 E3.25195
G1 X1.607 Y3.108 E3.26288
G1 X1.915 Y2.93 E3.27398
G1 X2.206 Y2.717 E3.28522
G1 X2.475 Y2.475 E3.2965
G1 X2.717 Y2.206 E3.30779
G1 X2.93 Y1.915 E3.31903
G1 X3.108 Y1.607 E3.33012
G1 X3.254 Y1.288 E3.34106
G1 X3.365 Y0.963 E3.35177
G1 X3.441 Y0.637 E3.36221
G1 X3.485 Y0.315 E3.37234
G1 X3.5 Y0.00 E3.38218
G1 X3.485 Y-.315 E3.39201
G1 X3.441 Y-.637 E3.40214
G1 X3.365 Y-.963 E3.41258
G1 X3.254 Y-1.288 E3.42329
G1 X3.108 Y-1.607 E3.43423
G1 X2.93 Y-1.915 E3.44532
G1 X2.717 Y-2.206 E3.45657
G1 X2.475 Y-2.475 E3.46785
G1 X2.206 Y-2.717 E3.47913
G1 X1.915 Y-2.93 E3.49038
G1 X1.607 Y-3.108 E3.50147
G1 X1.288 Y-3.254 E3.51241
G1 X0.963 Y-3.365 E3.52312
G1 X0.637 Y-3.441 E3.53355
G1 X0.315 Y-3.485 E3.54369
G1 X0.00 Y-3.5 E3.55352
G1 X-.315 Y-3.485 E3.56335
G1 X-.637 Y-3.441 E3.57349
G1 X-.963 Y-3.365 E3.58393
G1 X-1.288 Y-3.254 E3.59463
G1 X-1.607 Y-3.108 E3.60557
G1 X-1.915 Y-2.93 E3.61667
G0 F4950 X-2.117 Y-2.783
G0 X-2.167 Y-3.359
G1 F600 X-1.86 Y-3.539 E3.62772
G1 X-1.838 Y-3.552 E3.62851
G1 X-1.813 Y-3.563 E3.62937
G1 X-1.492 Y-3.708 E3.64031
G1 X-1.471 Y-3.718 E3.64103
G1 X-1.449 Y-3.725 E3.64175
G1 X-1.122 Y-3.836 E3.65245
G1 X-1.097 Y-3.845 E3.65328
G1 X-1.078 Y-3.849 E3.65389
G1 X-.753 Y-3.926 E3.66425
G1 X-.731 Y-3.932 E3.66496
G1 X-.705 Y-3.935 E3.66578
G1 X-.381 Y-3.979 E3.67593
G1 X-.359 Y-3.982 E3.67662
G1 X-.339 Y-3.982 E3.67725
G1 X-0.025 Y-3.997 E3.68699
G1 X0.00 Y-3.999 E3.68777
G1 X0.023 Y-3.998 E3.68849
G1 X0.339 Y-3.983 E3.69832
G1 X0.359 Y-3.982 E3.69894
G1 X0.38 Y-3.98 E3.6996
G1 X0.703 Y-3.936 E3.70974
G1 X0.731 Y-3.932 E3.71062
G1 X1.078 Y-3.85 E3.72171
G1 X1.097 Y-3.845 E3.72232
G1 X1.121 Y-3.837 E3.7231
G1 X1.449 Y-3.726 E3.73385
G1 X1.471 Y-3.718 E3.73458
G1 X1.492 Y-3.709 E3.73529
G1 X1.814 Y-3.563 E3.74628
G1 X1.838 Y-3.552 E3.7471
G1 X1.857 Y-3.541 E3.74779
G1 X2.166 Y-3.361 E3.7589
G1 X2.185 Y-3.349 E3.7596
G1 X2.207 Y-3.333 E3.76045
G1 X2.499 Y-3.12 E3.77167
G1 X2.524 Y-3.102 E3.77263
G1 X2.539 Y-3.088 E3.77327
G1 X2.808 Y-2.846 E3.7845
G1 X2.828 Y-2.828 E3.78534
G1 X2.844 Y-2.81 E3.78609
G1 X3.087 Y-2.541 E3.79736
G1 X3.102 Y-2.524 E3.79807
G1 X3.119 Y-2.5 E3.79898
G1 X3.332 Y-2.208 E3.8102
G1 X3.349 Y-2.185 E3.81109
G1 X3.359 Y-2.167 E3.81173
G1 X3.539 Y-1.86 E3.82278
G1 X3.552 Y-1.838 E3.82358
G1 X3.563 Y-1.813 E3.82443
G1 X3.708 Y-1.492 E3.83537
G1 X3.718 Y-1.471 E3.8361
G1 X3.725 Y-1.449 E3.83682
G1 X3.836 Y-1.122 E3.84752
G1 X3.845 Y-1.097 E3.84835
G1 X3.849 Y-1.078 E3.84895
G1 X3.926 Y-.753 E3.85932
G1 X3.932 Y-.731 E3.86003
G1 X3.935 Y-.705 E3.86084
G1 X3.979 Y-.381 E3.871
G1 X3.982 Y-.359 E3.87169
G1 X3.982 Y-.338 E3.87235
G1 X3.997 Y-0.023 E3.88212
G1 X3.999 Y0.00 E3.88284
G1 X3.998 Y0.023 E3.88356
G1 X3.983 Y0.339 E3.89338
G1 X3.982 Y0.359 E3.89401
G1 X3.98 Y0.38 E3.89466
G1 X3.936 Y0.703 E3.90481
G1 X3.932 Y0.731 E3.90569
G1 X3.85 Y1.078 E3.91677
G1 X3.845 Y1.097 E3.91738
G1 X3.837 Y1.121 E3.91817
G1 X3.726 Y1.449 E3.92891
G1 X3.718 Y1.471 E3.92964
G1 X3.709 Y1.492 E3.93035
G1 X3.563 Y1.814 E3.94135
G1 X3.552 Y1.838 E3.94217
G1 X3.541 Y1.857 E3.94285
G1 X3.361 Y2.166 E3.95397
G1 X3.349 Y2.185 E3.95467
G1 X3.333 Y2.207 E3.95552
G1 X3.12 Y2.499 E3.96673
G1 X3.102 Y2.524 E3.96769
G1 X3.088 Y2.539 E3.96833
G1 X2.846 Y2.808 E3.97957
G1 X2.828 Y2.828 E3.98041
G1 X2.81 Y2.844 E3.98116
G1 X2.541 Y3.087 E3.99243
G1 X2.524 Y3.102 E3.99313
G1 X2.5 Y3.119 E3.99405
G1 X2.208 Y3.332 E4.00526
G1 X2.185 Y3.349 E4.00616
G1 X2.167 Y3.359 E4.0068
G1 X1.86 Y3.539 E4.01785
G1 X1.838 Y3.552 E4.01865
G1 X1.813 Y3.563 E4.0195
G1 X1.492 Y3.708 E4.03044
G1 X1.471 Y3.718 E4.03116
G1 X1.449 Y3.725 E4.03188
G1 X1.122 Y3.836 E4.04259
G1 X1.097 Y3.845 E4.04342
G1 X1.078 Y3.849 E4.04402
G1 X0.753 Y3.926 E4.05438
G1 X0.731 Y3.932 E4.05509
G1 X0.705 Y3.935 E4.05591
G1 X0.381 Y3.979 E4.06607
G1 X0.359 Y3.982 E4.06676
G1 X0.338 Y3.982 E4.06741
G1 X0.023 Y3.997 E4.07719
G1 X0.00 Y3.999 E4.07791
G1 X-0.023 Y3.998 E4.07862
G1 X-.339 Y3.983 E4.08845
G1 X-.359 Y3.982 E4.08907
G1 X-.38 Y3.98 E4.08973
G1 X-.703 Y3.936 E4.09987
G1 X-.731 Y3.932 E4.10075
G1 X-1.078 Y3.85 E4.11184
G1 X-1.097 Y3.845 E4.11245
G1 X-1.121 Y3.837 E4.11324
G1 X-1.449 Y3.726 E4.12398
G1 X-1.471 Y3.718 E4.12471
G1 X-1.492 Y3.709 E4.12542
G1 X-1.814 Y3.563 E4.13641
G1 X-1.838 Y3.552 E4.13724
G1 X-1.857 Y3.541 E4.13792
G1 X-2.166 Y3.361 E4.14904
G1 X-2.185 Y3.349 E4.14974
G1 X-2.207 Y3.333 E4.15058
G1 X-2.499 Y3.12 E4.1618
G1 X-2.524 Y3.102 E4.16276
G1 X-2.539 Y3.088 E4.1634
G1 X-2.808 Y2.846 E4.17464
G1 X-2.828 Y2.828 E4.17547
G1 X-2.844 Y2.81 E4.17622
G1 X-3.087 Y2.541 E4.18749
G1 X-3.102 Y2.524 E4.1882
G1 X-3.119 Y2.5 E4.18912
G1 X-3.332 Y2.208 E4.20033
G1 X-3.349 Y2.185 E4.20122
G1 X-3.359 Y2.167 E4.20187
G1 X-3.539 Y1.86 E4.21292
G1 X-3.552 Y1.838 E4.21371
G1 X-3.563 Y1.813 E4.21457
G1 X-3.708 Y1.492 E4.22551
G1 X-3.718 Y1.471 E4.22623
G1 X-3.725 Y1.449 E4.22695
G1 X-3.836 Y1.122 E4.23765
G1 X-3.845 Y1.097 E4.23848
G1 X-3.849 Y1.078 E4.23909
G1 X-3.926 Y0.753 E4.24945
G1 X-3.932 Y0.731 E4.25016
G1 X-3.935 Y0.705 E4.25098
G1 X-3.979 Y0.381 E4.26113
G1 X-3.982 Y0.359 E4.26182
G1 X-3.982 Y0.338 E4.26248
G1 X-3.997 Y0.023 E4.27225
G1 X-3.999 Y0.00 E4.27297
G1 X-3.998 Y-0.023 E4.27369
G1 X-3.983 Y-.339 E4.28352
G1 X-3.982 Y-.359 E4.28414
G1 X-3.98 Y-.38 E4.2848
G1 X-3.936 Y-.703 E4.29494
G1 X-3.932 Y-.731 E4.29582
G1 X-3.85 Y-1.078 E4.30691
G1 X-3.845 Y-1.097 E4.30752
G1 X-3.837 Y-1.121 E4.3083
G1 X-3.726 Y-1.449 E4.31905
G1 X-3.718 Y-1.471 E4.31978
G1 X-3.709 Y-1.492 E4.32049
G1 X-3.563 Y-1.814 E4.33148
G1 X-3.552 Y-1.838 E4.3323
G1 X-3.541 Y-1.857 E4.33299
G1 X-3.361 Y-2.166 E4.3441
G1 X-3.349 Y-2.185 E4.3448
G1 X-3.333 Y-2.207 E4.34565
G1 X-3.12 Y-2.499 E4.35687
G1 X-3.102 Y-2.524 E4.35783
G1 X-3.088 Y-2.539 E4.35847
G1 X-2.846 Y-2.808 E4.3697
G1 X-2.828 Y-2.828 E4.37054
G1 X-2.81 Y-2.844 E4.37129
G1 X-2.541 Y-3.087 E4.38256
G1 X-2.524 Y-3.102 E4.38327
G1 X-2.5 Y-3.119 E4.38418
G1 X-2.208 Y-3.332 E4.3954
G1 X-2.185 Y-3.349 E4.39629
G1 X-2.167 Y-3.359 E4.39693
G0 F4950 X-1.951 Y-3.485
G0 X-1.915 Y-2.93
;TIME_ELAPSED:9.984127
;LAYER:2
G0 F6600 X-1.915 Y-2.93 Z0.6
;TYPE:WALL-OUTER
G1 F600 X-2.206 Y-2.717 E4.40818
G1 X-2.475 Y-2.475 E4.41946
G1 X-2.717 Y-2.206 E4.43074
G1 X-2.93 Y-1.915 E4.44199
G1 X-3.108 Y-1.607 E4.45308
G1 X-3.254 Y-1.288 E4.46402
G1 X-3.365 Y-.963 E4.47473
G1 X-3.441 Y-.637 E4.48516
G1 X-3.485 Y-.315 E4.4953
G1 X-3.5 Y0.00 E4.50513
G1 X-3.485 Y0.315 E4.51496
G1 X-3.441 Y0.637 E4.5251
G1 X-3.365 Y0.963 E4.53554
G1 X-3.254 Y1.288 E4.54624
G1 X-3.108 Y1.607 E4.55718
G1 X-2.93 Y1.915 E4.56828
G1 X-2.717 Y2.206 E4.57952
G1 X-2.475 Y2.475 E4.5908
G1 X-2.206 Y2.717 E4.60209
G1 X-1.915 Y2.93 E4.61333
G1 X-1.607 Y3.108 E4.62442
G1 X-1.288 Y3.254 E4.63536
G1 X-.963 Y3.365 E4.64607
G1 X-.637 Y3.441 E4.65651
G1 X-.315 Y3.485 E4.66664
G1 X0.00 Y3.5 E4.67648
G1 X0.315 Y3.485 E4.68631
G1 X0.637 Y3.441 E4.69644
G1 X0.963 Y3.365 E4.70688
G1 X1.288 Y3.254 E4.71759
G1 X1.607 Y3.108 E4.72853
G1 X1.915 Y2.93 E4.73962
G1 X2.206 Y2.717 E4.75087
G1 X2.475 Y2.475 E4.76215
G1 X2.717 Y2.206 E4.77343
G1 X2.93 Y1.915 E4.78468
G1 X3.108 Y1.607 E4.79577
G1 X3.254 Y1.288 E4.80671
G1 X3.365 Y0.963 E4.81742
G1 X3.441 Y0.637 E4.82785
G1 X3.485 Y0.315 E4.83799
G1 X3.5 Y0.00 E4.84782
G1 X3.485 Y-.315 E4.85765
G1 X3.441 Y-.637 E4.86779
G1 X3.365 Y-.963 E4.87822
G1 X3.254 Y-1.288 E4.88893
G1 X3.108 Y-1.607 E4.89987
G1 X2.93 Y-1.915 E4.91096
G1 X2.717 Y-2.206 E4.92221
G1 X2.475 Y-2.475 E4.93349
G1 X2.206 Y-2.717 E4.94477
G1 X1.915 Y-2.93 E4.95602
G1 X1.607 Y-3.108 E4.96711
G1 X1.288 Y-3.254 E4.97805
G1 X0.963 Y-3.365 E4.98876
G1 X0.637 Y-3.441 E4.9992
G1 X0.315 Y-3.485 E5.00933
G1 X0.00 Y-3.5 E5.01916
G1 X-.315 Y-3.485 E5.029
G1 X-.637 Y-3.441 E5.03913
G1 X-.963 Y-3.365 E5.04957
G1 X-1.288 Y-3.254 E5.06028
G1 X-1.607 Y-3.108 E5.07122
G1 X-1.915 Y-2.93 E5.08231
G0 F6600 X-2.117 Y-2.783
G0 X-2.167 Y-3.359
G1 F600 X-1.86 Y-3.539 E5.09336
G1 X-1.838 Y-3.552 E5.09416
G1 X-1.813 Y-3.563 E5.09501
G1 X-1.492 Y-3.708 E5.10595
G1 X-1.471 Y-3.718 E5.10667
G1 X-1.449 Y-3.725 E5.10739
G1 X-1.122 Y-3.836 E5.1181
G1 X-1.097 Y-3.845 E5.11893
G1 X-1.078 Y-3.849 E5.11953
