;-- START GCODE --
;Sliced for Type A Machines Series 1
;Sliced at: Mon 19-06-2017 15:47:36
;Basic settings:
;	Layer height: 0.15
;	Walls: 1.2
;	Fill: 1
;	Print Speed: 60
;	Support: 0
;	Retraction Speed: 35
;	Retraction Distance: 0.4
;Print time: 1 hour 28 minutes
;Filament used: 5.722m 17.0g
;Settings based on: Generic PLA
G21        ;metric values
G90        ;absolute positioning
G28     ;move to endstops
G29		;allows for auto-levelling
G1 Z15.0 F12000 ;move the platform down 15mm
G1 X150 Y5 F12000 ;center
M109 S220 ;Heat To temp
G1 X150 Y5 Z0.3 ;move the platform to purge extrusion
G92 E0 ;zero the extruded length
G1 F200 X250 E30 ;extrude 30mm of feed stock
G92 E0 ;zero the extruded length again
G1 X150 Y150  Z25 F12000 ;recenter and begin
G1 F12000

;Layer count: 13
;LAYER:0
M107
G0 F12000 X109.872 Y87.105 Z0.200
;TYPE:SKIRT
G1 F1800 X112.580 Y84.006 E0.13688
G1 X115.469 Y81.073 E0.27381
G1 X118.529 Y78.319 E0.41074
G1 X121.747 Y75.752 E0.54765
G1 X125.113 Y73.383 E0.68455
G1 X128.614 Y71.219 E0.82144
G1 X132.240 Y69.269 E0.95838
G1 X135.975 Y67.538 E1.09530
G1 X139.806 Y66.034 E1.23218
G1 X143.722 Y64.762 E1.36913
G1 X147.706 Y63.727 E1.50604
G1 X151.744 Y62.931 E1.64292
G1 X155.824 Y62.378 E1.77987
G1 X159.928 Y62.071 E1.91675
G1 X164.045 Y62.009 E2.05370
G1 X168.157 Y62.194 E2.19060
G1 X172.250 Y62.624 E2.32748
G1 X176.311 Y63.298 E2.46440
G1 X180.324 Y64.215 E2.60131
G1 X184.276 Y65.368 E2.73824
G1 X188.151 Y66.757 E2.87515
G1 X191.936 Y68.376 E3.01207
G1 X195.618 Y70.216 E3.14898
G1 X199.182 Y72.275 E3.28588
G1 X202.618 Y74.542 E3.42279
G1 X205.912 Y77.012 E3.55973
G1 X209.052 Y79.674 E3.69664
G1 X212.027 Y82.518 E3.83353
G1 X214.827 Y85.536 E3.97046
G1 X217.441 Y88.714 E4.10732
G1 X219.861 Y92.044 E4.24424
G1 X222.077 Y95.514 E4.38118
G1 X224.082 Y99.109 E4.51809
G1 X225.868 Y102.818 E4.65501
G1 X227.429 Y106.627 E4.79192
G1 X228.760 Y110.523 E4.92885
G1 X229.854 Y114.491 E5.06575
G1 X230.711 Y118.517 E5.20266
G1 X231.325 Y122.588 E5.33959
G1 X231.693 Y126.688 E5.47651
G1 X231.816 Y130.802 E5.61340
G1 X231.693 Y134.916 E5.75029
G1 X231.325 Y139.017 E5.88724
G1 X230.711 Y143.087 E6.02414
G1 X229.854 Y147.113 E6.16105
G1 X228.760 Y151.081 E6.29795
G1 X227.429 Y154.977 E6.43488
G1 X225.868 Y158.786 E6.57180
G1 X224.082 Y162.495 E6.70872
G1 X222.077 Y166.091 E6.84565
G1 X219.861 Y169.560 E6.98257
G1 X217.441 Y172.890 E7.11948
G1 X214.827 Y176.069 E7.25637
G1 X212.027 Y179.087 E7.39330
G1 X209.052 Y181.932 E7.53021
G1 X205.911 Y184.593 E7.66713
G1 X202.618 Y187.063 E7.80404
G1 X199.182 Y189.330 E7.94095
G1 X195.618 Y191.389 E8.07785
G1 X191.936 Y193.229 E8.21476
G1 X188.151 Y194.848 E8.35168
G1 X184.276 Y196.237 E8.48859
G1 X180.324 Y197.390 E8.62552
G1 X176.311 Y198.307 E8.76243
G1 X172.250 Y198.981 E8.89935
G1 X168.157 Y199.411 E9.03623
G1 X164.045 Y199.596 E9.17313
G1 X159.928 Y199.535 E9.31008
G1 X155.823 Y199.227 E9.44700
G1 X151.744 Y198.674 E9.58391
G1 X147.706 Y197.878 E9.72080
G1 X143.722 Y196.843 E9.85770
G1 X139.806 Y195.571 E9.99465
G1 X135.975 Y194.067 E10.13154
G1 X132.240 Y192.337 E10.26844
G1 X128.614 Y190.386 E10.40539
G1 X125.113 Y188.222 E10.54228
G1 X121.747 Y185.853 E10.67918
G1 X118.529 Y183.286 E10.81610
G1 X115.469 Y180.532 E10.95302
G1 X112.580 Y177.599 E11.08995
G1 X109.872 Y174.500 E11.22683
G1 X107.353 Y171.242 E11.36381
G1 X105.035 Y167.841 E11.50070
G1 X102.924 Y164.307 E11.63761
G1 X101.028 Y160.655 E11.77447
G1 X99.353 Y156.894 E11.91141
G1 X97.906 Y153.040 E12.04833
G1 X96.693 Y149.106 E12.18526
G1 X95.717 Y145.107 E12.32217
G1 X94.982 Y141.057 E12.45907
G1 X94.491 Y136.969 E12.59602
G1 X94.245 Y132.860 E12.73293
G1 X94.245 Y128.745 E12.86979
G1 X94.491 Y124.636 E13.00670
G1 X94.982 Y120.547 E13.14368
G1 X95.717 Y116.497 E13.28058
G1 X96.693 Y112.499 E13.41746
G1 X97.906 Y108.564 E13.55442
G1 X99.353 Y104.710 E13.69134
G1 X101.028 Y100.950 E13.82825
G1 X102.923 Y97.297 E13.96512
G1 X105.035 Y93.763 E14.10205
G1 X107.353 Y90.361 E14.23897
G1 X109.872 Y87.105 E14.37589
G0 F12000 X110.181 Y87.359
G1 F1800 X112.874 Y84.278 E14.51200
G1 X115.745 Y81.362 E14.64810
G1 X118.788 Y78.624 E14.78425
G1 X121.987 Y76.072 E14.92036
G1 X125.333 Y73.717 E15.05645
G1 X128.814 Y71.565 E15.19256
G1 X132.419 Y69.627 E15.32869
G1 X136.132 Y67.906 E15.46481
G1 X139.941 Y66.411 E15.60091
G1 X143.834 Y65.146 E15.73705
G1 X147.795 Y64.117 E15.87317
G1 X151.810 Y63.325 E16.00928
G1 X155.866 Y62.776 E16.14542
G1 X159.946 Y62.471 E16.28150
G1 X164.039 Y62.409 E16.41764
G1 X168.127 Y62.593 E16.55375
G1 X172.196 Y63.020 E16.68983
G1 X176.234 Y63.691 E16.82597
G1 X180.224 Y64.602 E16.96210
G1 X184.152 Y65.749 E17.09820
G1 X188.005 Y67.130 E17.23433
G1 X191.768 Y68.739 E17.37045
G1 X195.428 Y70.569 E17.50655
G1 X198.972 Y72.615 E17.64266
G1 X202.388 Y74.870 E17.77880
G1 X205.662 Y77.325 E17.91491
G1 X208.784 Y79.971 E18.05102
G1 X211.742 Y82.799 E18.18713
G1 X214.525 Y85.799 E18.32324
G1 X217.125 Y88.959 E18.45934
G1 X219.530 Y92.270 E18.59545
G1 X221.734 Y95.719 E18.73159
G1 X223.727 Y99.293 E18.86769
G1 X225.503 Y102.981 E19.00384
G1 X227.055 Y106.768 E19.13996
G1 X228.377 Y110.641 E19.27608
G1 X229.466 Y114.586 E19.41219
G1 X230.317 Y118.588 E19.54828
G1 X230.927 Y122.636 E19.68444
G1 X231.293 Y126.712 E19.82055
G1 X231.416 Y130.802 E19.95664
G1 X231.293 Y134.892 E20.09274
G1 X230.927 Y138.969 E20.22889
G1 X230.317 Y143.016 E20.36501
G1 X229.466 Y147.018 E20.50109
G1 X228.377 Y150.963 E20.63721
G1 X227.055 Y154.836 E20.77333
G1 X225.503 Y158.623 E20.90945
G1 X223.727 Y162.311 E21.04560
G1 X221.734 Y165.886 E21.18173
G1 X219.530 Y169.334 E21.31784
G1 X217.125 Y172.645 E21.45395
G1 X214.526 Y175.806 E21.59006
G1 X211.742 Y178.806 E21.72618
G1 X208.784 Y181.635 E21.86232
G1 X205.662 Y184.280 E21.99841
G1 X202.388 Y186.735 E22.13452
G1 X198.972 Y188.990 E22.27066
G1 X195.428 Y191.036 E22.40677
G1 X191.768 Y192.866 E22.54287
G1 X188.005 Y194.475 E22.67899
G1 X184.152 Y195.856 E22.81512
G1 X180.224 Y197.003 E22.95122
G1 X176.234 Y197.914 E23.08734
G1 X172.196 Y198.585 E23.22349
G1 X168.127 Y199.012 E23.35957
G1 X164.039 Y199.196 E23.49567
G1 X159.946 Y199.135 E23.63182
G1 X155.865 Y198.829 E23.76794
G1 X151.810 Y198.280 E23.90404
G1 X147.795 Y197.488 E24.04015
G1 X143.834 Y196.459 E24.17627
G1 X139.941 Y195.194 E24.31241
G1 X136.132 Y193.699 E24.44851
G1 X132.419 Y191.979 E24.58461
G1 X128.814 Y190.040 E24.72076
G1 X125.333 Y187.888 E24.85688
G1 X121.987 Y185.533 E24.99296
G1 X118.788 Y182.981 E25.12907
G1 X115.745 Y180.243 E25.26522
G1 X112.874 Y177.327 E25.40133
G1 X110.181 Y174.245 E25.53745
G1 X107.677 Y171.007 E25.67360
G1 X105.372 Y167.626 E25.80970
G1 X103.273 Y164.113 E25.94581
G1 X101.388 Y160.481 E26.08191
G1 X99.724 Y156.742 E26.21803
G1 X98.285 Y152.911 E26.35414
G1 X97.079 Y149.000 E26.49026
G1 X96.109 Y145.023 E26.62642
G1 X95.377 Y140.997 E26.76252
G1 X94.889 Y136.934 E26.89862
G1 X94.645 Y132.849 E27.03473
G1 X94.645 Y128.756 E27.17087
G1 X94.889 Y124.672 E27.30694
G1 X95.377 Y120.607 E27.44312
G1 X96.109 Y116.580 E27.57925
G1 X97.079 Y112.605 E27.71534
G1 X98.285 Y108.694 E27.85146
G1 X99.724 Y104.862 E27.98761
G1 X101.388 Y101.124 E28.12369
G1 X103.273 Y97.492 E28.25980
G1 X105.372 Y93.978 E28.39594
G1 X107.677 Y90.597 E28.53203
G1 X110.181 Y87.359 E28.66818
G0 F12000 X110.490 Y87.614
G1 F1800 X113.167 Y84.551 E28.80348
G1 X116.022 Y81.652 E28.93881
G1 X119.046 Y78.929 E29.07415
G1 X122.227 Y76.393 E29.20946
G1 X125.553 Y74.051 E29.34476
G1 X129.014 Y71.912 E29.48008
G1 X132.598 Y69.985 E29.61542
G1 X136.289 Y68.274 E29.75073
G1 X140.076 Y66.788 E29.88604
G1 X143.946 Y65.530 E30.02139
G1 X147.884 Y64.507 E30.15671
G1 X151.875 Y63.720 E30.29201
G1 X155.908 Y63.174 E30.42737
G1 X159.964 Y62.871 E30.56265
G1 X164.033 Y62.809 E30.69800
G1 X168.097 Y62.992 E30.83331
G1 X172.143 Y63.417 E30.96862
G1 X176.156 Y64.083 E31.10392
G1 X180.123 Y64.989 E31.23926
G1 X184.028 Y66.129 E31.37456
G1 X187.859 Y67.502 E31.50992
G1 X191.600 Y69.102 E31.64525
G1 X195.238 Y70.921 E31.78053
G1 X198.762 Y72.956 E31.91588
G1 X202.158 Y75.197 E32.05120
G1 X205.413 Y77.638 E32.18653
G1 X208.516 Y80.268 E32.32182
G1 X211.457 Y83.080 E32.45715
G1 X214.224 Y86.062 E32.59245
G1 X216.808 Y89.204 E32.72776
G1 X219.200 Y92.495 E32.86308
G1 X221.390 Y95.924 E32.99840
G1 X223.372 Y99.477 E33.13372
G1 X225.137 Y103.143 E33.26904
G1 X226.680 Y106.908 E33.40438
G1 X227.995 Y110.759 E33.53972
G1 X229.077 Y114.681 E33.67504
G1 X229.923 Y118.660 E33.81034
G1 X230.530 Y122.684 E33.94570
G1 X230.894 Y126.736 E34.08101
G1 X231.015 Y130.802 E34.21630
G1 X230.894 Y134.868 E34.35160
G1 X230.530 Y138.921 E34.48695
G1 X229.923 Y142.944 E34.62227
G1 X229.077 Y146.923 E34.75757
G1 X227.995 Y150.845 E34.89288
G1 X226.680 Y154.696 E35.02823
G1 X225.137 Y158.461 E35.16356
G1 X223.372 Y162.126 E35.29886
G1 X221.390 Y165.681 E35.43424
G1 X219.200 Y169.109 E35.56953
G1 X216.808 Y172.400 E35.70485
G1 X214.224 Y175.543 E35.84018
G1 X211.457 Y178.525 E35.97548
G1 X208.516 Y181.338 E36.11084
G1 X205.412 Y183.968 E36.24616
G1 X202.158 Y186.408 E36.38143
G1 X198.762 Y188.649 E36.51676
G1 X195.238 Y190.684 E36.65211
G1 X191.600 Y192.503 E36.78739
G1 X187.859 Y194.103 E36.92272
G1 X184.028 Y195.476 E37.05807
G1 X180.123 Y196.616 E37.19338
G1 X176.156 Y197.522 E37.32872
G1 X172.143 Y198.188 E37.46402
G1 X168.097 Y198.613 E37.59933
G1 X164.033 Y198.796 E37.73463
G1 X159.964 Y198.735 E37.86998
G1 X155.907 Y198.431 E38.00530
G1 X151.875 Y197.885 E38.14063
G1 X147.884 Y197.098 E38.27592
G1 X143.946 Y196.075 E38.41125
G1 X140.076 Y194.817 E38.54660
G1 X136.290 Y193.331 E38.68187
G1 X132.598 Y191.621 E38.81720
G1 X129.014 Y189.693 E38.95256
G1 X125.553 Y187.554 E39.08788
G1 X122.227 Y185.212 E39.22318
G1 X119.046 Y182.676 E39.35849
G1 X116.022 Y179.953 E39.49383
G1 X113.167 Y177.054 E39.62916
G1 X110.490 Y173.991 E39.76446
G1 X108.001 Y170.772 E39.89980
G1 X105.710 Y167.411 E40.03509
G1 X103.623 Y163.918 E40.17042
G1 X101.749 Y160.307 E40.30573
G1 X100.094 Y156.590 E40.44106
G1 X98.664 Y152.781 E40.57638
G1 X97.465 Y148.893 E40.71171
G1 X96.500 Y144.940 E40.84705
G1 X95.773 Y140.937 E40.98237
G1 X95.288 Y136.898 E41.11767
G1 X95.045 Y132.837 E41.25298
G1 X95.045 Y128.768 E41.38831
G1 X95.288 Y124.707 E41.52363
G1 X95.773 Y120.667 E41.65896
G1 X96.500 Y116.664 E41.79428
G1 X97.465 Y112.712 E41.92959
G1 X98.664 Y108.823 E42.06494
G1 X100.094 Y105.013 E42.20030
G1 X101.749 Y101.298 E42.33556
G1 X103.623 Y97.687 E42.47088
G1 X105.710 Y94.193 E42.60624
G1 X108.001 Y90.832 E42.74153
G1 X110.490 Y87.614 E42.87684
G0 F12000 X110.799 Y87.868
G1 F1800 X113.460 Y84.823 E43.01134
G1 X116.298 Y81.941 E43.14587
G1 X119.305 Y79.235 E43.28041
G1 X122.467 Y76.713 E43.41494
G1 X125.774 Y74.385 E43.54945
G1 X129.214 Y72.258 E43.68397
G1 X132.777 Y70.342 E43.81852
G1 X136.447 Y68.642 E43.95305
G1 X140.211 Y67.164 E44.08754
G1 X144.059 Y65.914 E44.22211
G1 X147.973 Y64.897 E44.35662
G1 X151.941 Y64.115 E44.49113
G1 X155.949 Y63.572 E44.62565
G1 X159.982 Y63.270 E44.76017
G1 X164.027 Y63.209 E44.89472
G1 X168.067 Y63.391 E45.02923
G1 X172.089 Y63.813 E45.16373
G1 X176.079 Y64.476 E45.29826
G1 X180.022 Y65.377 E45.43279
G1 X183.905 Y66.510 E45.56732
G1 X187.713 Y67.875 E45.70187
G1 X191.431 Y69.465 E45.83636
G1 X195.049 Y71.273 E45.97089
G1 X198.551 Y73.296 E46.10540
G1 X201.927 Y75.524 E46.23994
G1 X205.163 Y77.950 E46.37445
G1 X208.248 Y80.566 E46.50898
G1 X211.172 Y83.360 E46.64350
G1 X213.923 Y86.326 E46.77805
G1 X216.492 Y89.449 E46.91255
G1 X218.869 Y92.721 E47.04706
G1 X221.047 Y96.130 E47.18161
G1 X223.017 Y99.662 E47.31612
G1 X224.771 Y103.306 E47.45063
G1 X226.305 Y107.049 E47.58517
G1 X227.613 Y110.876 E47.71969
G1 X228.688 Y114.775 E47.85421
G1 X229.529 Y118.731 E47.98873
G1 X230.133 Y122.732 E48.12331
G1 X230.495 Y126.760 E48.25782
G1 X230.615 Y130.802 E48.39232
G1 X230.495 Y134.844 E48.52681
G1 X230.133 Y138.873 E48.66136
G1 X229.529 Y142.873 E48.79591
G1 X228.688 Y146.829 E48.93042
G1 X227.613 Y150.728 E49.06494
G1 X226.305 Y154.555 E49.19946
G1 X224.771 Y158.298 E49.33400
G1 X223.017 Y161.942 E49.46851
G1 X221.047 Y165.475 E49.60305
G1 X218.869 Y168.883 E49.73757
G1 X216.492 Y172.155 E49.87209
G1 X213.923 Y175.279 E50.00661
G1 X211.172 Y178.244 E50.14114
G1 X208.248 Y181.040 E50.27570
G1 X205.163 Y183.655 E50.41021
G1 X201.927 Y186.081 E50.54472
G1 X198.551 Y188.309 E50.67926
G1 X195.049 Y190.332 E50.81377
G1 X191.431 Y192.140 E50.94830
G1 X187.713 Y193.730 E51.08279
G1 X183.905 Y195.095 E51.21734
G1 X180.022 Y196.228 E51.35187
G1 X176.079 Y197.129 E51.48640
G1 X172.089 Y197.792 E51.62093
G1 X168.067 Y198.214 E51.75543
G1 X164.027 Y198.396 E51.88994
G1 X159.982 Y198.336 E52.02449
G1 X155.949 Y198.033 E52.15901
G1 X151.941 Y197.490 E52.29353
G1 X147.973 Y196.708 E52.42805
G1 X144.059 Y195.691 E52.56255
G1 X140.211 Y194.441 E52.69712
G1 X136.447 Y192.963 E52.83161
G1 X132.777 Y191.264 E52.96613
G1 X129.214 Y189.347 E53.10069
G1 X125.774 Y187.220 E53.23521
G1 X122.467 Y184.892 E53.36973
G1 X119.305 Y182.370 E53.50425
G1 X116.298 Y179.664 E53.63880
G1 X113.460 Y176.782 E53.77333
G1 X110.799 Y173.737 E53.90783
G1 X108.324 Y170.537 E54.04238
G1 X106.047 Y167.195 E54.17688
G1 X103.972 Y163.723 E54.31141
G1 X102.109 Y160.134 E54.44591
G1 X100.464 Y156.439 E54.58043
G1 X99.042 Y152.652 E54.71497
G1 X97.851 Y148.787 E54.84949
G1 X96.892 Y144.857 E54.98404
G1 X96.169 Y140.878 E55.11855
G1 X95.686 Y136.862 E55.25308
G1 X95.445 Y132.825 E55.38759
G1 X95.445 Y128.780 E55.52213
G1 X95.686 Y124.743 E55.65664
G1 X96.169 Y120.726 E55.79121
G1 X96.892 Y116.747 E55.92572
G1 X97.851 Y112.818 E56.06023
G1 X99.042 Y108.952 E56.19478
G1 X100.464 Y105.165 E56.32932
G1 X102.109 Y101.471 E56.46382
G1 X103.972 Y97.881 E56.59834
G1 X106.047 Y94.409 E56.73287
G1 X108.325 Y91.067 E56.86739
G1 X110.799 Y87.868 E57.00190
G0 F12000 X111.108 Y88.122
G1 F1800 X113.754 Y85.095 E57.13562
G1 X116.575 Y82.230 E57.26935
G1 X119.564 Y79.540 E57.40310
G1 X122.707 Y77.033 E57.53682
G1 X125.994 Y74.719 E57.67052
G1 X129.415 Y72.605 E57.80427
G1 X132.956 Y70.700 E57.93801
G1 X136.604 Y69.010 E58.07173
G1 X140.346 Y67.541 E58.20543
G1 X144.171 Y66.298 E58.33920
G1 X148.062 Y65.287 E58.47291
G1 X152.006 Y64.510 E58.60661
G1 X155.991 Y63.970 E58.74037
G1 X160.000 Y63.670 E58.87408
G1 X164.021 Y63.609 E59.00783
G1 X168.038 Y63.790 E59.14158
G1 X172.035 Y64.210 E59.27525
G1 X176.001 Y64.869 E59.40897
G1 X179.922 Y65.764 E59.54273
G1 X183.781 Y66.891 E59.67645
G1 X187.566 Y68.247 E59.81017
G1 X191.263 Y69.828 E59.94390
G1 X194.859 Y71.626 E60.07763
G1 X198.341 Y73.637 E60.21136
G1 X201.697 Y75.851 E60.34509
G1 X204.913 Y78.263 E60.47879
G1 X207.981 Y80.863 E60.61255
G1 X210.887 Y83.641 E60.74626
G1 X213.621 Y86.589 E60.87999
G1 X216.175 Y89.693 E61.01368
G1 X218.539 Y92.946 E61.14743
G1 X220.703 Y96.335 E61.28117
G1 X222.662 Y99.846 E61.41489
G1 X224.406 Y103.469 E61.54863
G1 X225.931 Y107.190 E61.68238
G1 X227.230 Y110.994 E61.81608
G1 X228.299 Y114.870 E61.94981
G1 X229.136 Y118.803 E62.08355
G1 X229.735 Y122.779 E62.21728
G1 X230.095 Y126.784 E62.35103
G1 X230.215 Y130.802 E62.48472
G1 X230.095 Y134.820 E62.61842
G1 X229.735 Y138.826 E62.75220
G1 X229.136 Y142.801 E62.88590
G1 X228.299 Y146.734 E63.01964
G1 X227.230 Y150.610 E63.15337
G1 X225.931 Y154.414 E63.28707
G1 X224.406 Y158.135 E63.42082
G1 X222.662 Y161.758 E63.55456
G1 X220.703 Y165.270 E63.68831
G1 X218.538 Y168.658 E63.82204
G1 X216.175 Y171.910 E63.95574
G1 X213.622 Y175.016 E64.08946
G1 X210.887 Y177.964 E64.22321
G1 X207.981 Y180.743 E64.35695
G1 X204.913 Y183.342 E64.49068
G1 X201.697 Y185.754 E64.62439
G1 X198.341 Y187.968 E64.75811
G1 X194.859 Y189.979 E64.89185
G1 X191.263 Y191.777 E65.02557
G1 X187.566 Y193.358 E65.15930
G1 X183.781 Y194.714 E65.29303
G1 X179.922 Y195.841 E65.42674
G1 X176.001 Y196.736 E65.56051
G1 X172.035 Y197.395 E65.69423
G1 X168.038 Y197.815 E65.82790
G1 X164.021 Y197.996 E65.96164
G1 X160.000 Y197.936 E66.09540
G1 X155.991 Y197.635 E66.22911
G1 X152.006 Y197.095 E66.36286
G1 X148.062 Y196.318 E66.49656
G1 X144.171 Y195.307 E66.63028
G1 X140.346 Y194.064 E66.76404
G1 X136.604 Y192.595 E66.89775
G1 X132.956 Y190.906 E67.03146
G1 X129.414 Y189.000 E67.16524
G1 X125.994 Y186.886 E67.29896
G1 X122.707 Y184.572 E67.43266
G1 X119.564 Y182.065 E67.56638
G1 X116.575 Y179.375 E67.70013
G1 X113.754 Y176.510 E67.83386
G1 X111.108 Y173.483 E67.96758
G1 X108.648 Y170.302 E68.10133
G1 X106.384 Y166.980 E68.23504
G1 X104.322 Y163.528 E68.36877
G1 X102.470 Y159.960 E68.50248
G1 X100.834 Y156.287 E68.63622
G1 X99.421 Y152.522 E68.76997
G1 X98.236 Y148.680 E68.90369
G1 X97.283 Y144.774 E69.03742
G1 X96.565 Y140.818 E69.17115
G1 X96.085 Y136.826 E69.30488
G1 X95.845 Y132.813 E69.43859
G1 X95.845 Y128.792 E69.57233
G1 X96.085 Y124.779 E69.70604
G1 X96.565 Y120.786 E69.83980
G1 X97.283 Y116.830 E69.97353
G1 X98.236 Y112.925 E70.10722
G1 X99.421 Y109.082 E70.24098
G1 X100.835 Y105.317 E70.37474
G1 X102.470 Y101.645 E70.50843
G1 X104.322 Y98.076 E70.64217
G1 X106.384 Y94.624 E70.77591
G1 X108.648 Y91.302 E70.90962
G1 X111.108 Y88.122 E71.04334
G0 F12000 X111.417 Y88.376
G1 F1800 X114.047 Y85.367 E71.17626
G1 X116.852 Y82.519 E71.30921
G1 X119.823 Y79.845 E71.44216
G1 X122.947 Y77.353 E71.57507
G1 X126.215 Y75.053 E71.70799
G1 X129.615 Y72.951 E71.84094
G1 X133.135 Y71.058 E71.97387
G1 X136.761 Y69.378 E72.10679
G1 X140.481 Y67.918 E72.23970
G1 X144.283 Y66.682 E72.37267
G1 X148.151 Y65.677 E72.50559
G1 X152.072 Y64.905 E72.63851
G1 X156.033 Y64.368 E72.77146
G1 X160.018 Y64.070 E72.90437
G1 X164.015 Y64.009 E73.03733
G1 X168.008 Y64.189 E73.17027
G1 X171.982 Y64.606 E73.30317
G1 X175.924 Y65.261 E73.43608
G1 X179.821 Y66.151 E73.56903
G1 X183.657 Y67.271 E73.70194
G1 X187.420 Y68.620 E73.83490
G1 X191.095 Y70.191 E73.96783
G1 X194.669 Y71.978 E74.10073
G1 X198.131 Y73.977 E74.23370
G1 X201.467 Y76.178 E74.36663
G1 X204.664 Y78.576 E74.49955
G1 X207.713 Y81.161 E74.63250
G1 X210.602 Y83.922 E74.76541
G1 X213.320 Y86.852 E74.89834
G1 X215.858 Y89.938 E75.03123
G1 X218.208 Y93.172 E75.16420
G1 X220.360 Y96.540 E75.29713
G1 X222.306 Y100.030 E75.43003
G1 X224.040 Y103.632 E75.56300
G1 X225.556 Y107.330 E75.69593
G1 X226.848 Y111.112 E75.82885
G1 X227.910 Y114.965 E75.96178
G1 X228.742 Y118.874 E76.09471
G1 X229.338 Y122.827 E76.22767
G1 X229.696 Y126.808 E76.36062
G1 X229.815 Y130.802 E76.49352
G1 X229.696 Y134.796 E76.62642
G1 X229.338 Y138.778 E76.75939
G1 X228.742 Y142.730 E76.89232
G1 X227.910 Y146.639 E77.02525
G1 X226.848 Y150.492 E77.15818
G1 X225.556 Y154.274 E77.29111
G1 X224.040 Y157.972 E77.42404
G1 X222.306 Y161.573 E77.55697
G1 X220.360 Y165.065 E77.68993
G1 X218.208 Y168.433 E77.82286
G1 X215.859 Y171.666 E77.95578
G1 X213.320 Y174.753 E78.08872
G1 X210.602 Y177.683 E78.22165
G1 X207.713 Y180.445 E78.35458
G1 X204.664 Y183.029 E78.48751
G1 X201.467 Y185.427 E78.62043
G1 X198.131 Y187.628 E78.75336
G1 X194.669 Y189.627 E78.88633
G1 X191.095 Y191.414 E79.01923
G1 X187.420 Y192.985 E79.15216
G1 X183.657 Y194.334 E79.28512
G1 X179.821 Y195.454 E79.41803
G1 X175.924 Y196.344 E79.55098
G1 X171.982 Y196.999 E79.68389
G1 X168.008 Y197.416 E79.81679
G1 X164.015 Y197.596 E79.94974
G1 X160.018 Y197.536 E80.08269
G1 X156.033 Y197.237 E80.21561
G1 X152.072 Y196.700 E80.34855
G1 X148.151 Y195.928 E80.48147
G1 X144.283 Y194.923 E80.61439
G1 X140.481 Y193.687 E80.74736
G1 X136.761 Y192.227 E80.88028
G1 X133.135 Y190.548 E81.01318
G1 X129.614 Y188.653 E81.14617
G1 X126.215 Y186.552 E81.27908
G1 X122.947 Y184.252 E81.41199
G1 X119.823 Y181.760 E81.54491
G1 X116.852 Y179.086 E81.67785
G1 X114.047 Y176.238 E81.81081
G1 X111.417 Y173.229 E81.94373
G1 X108.972 Y170.066 E82.07669
G1 X106.721 Y166.764 E82.20961
G1 X104.671 Y163.333 E82.34254
G1 X102.831 Y159.786 E82.47545
G1 X101.205 Y156.135 E82.60838
G1 X99.800 Y152.393 E82.74132
G1 X98.622 Y148.574 E82.87425
G1 X97.675 Y144.691 E83.00718
G1 X96.960 Y140.758 E83.14014
G1 X96.483 Y136.790 E83.27306
G1 X96.245 Y132.801 E83.40597
G1 X96.245 Y128.804 E83.53892
G1 X96.483 Y124.815 E83.67183
G1 X96.960 Y120.846 E83.80479
G1 X97.675 Y116.913 E83.93774
G1 X98.622 Y113.031 E84.07064
G1 X99.800 Y109.211 E84.20360
G1 X101.205 Y105.469 E84.33654
G1 X102.831 Y101.819 E84.46945
G1 X104.671 Y98.271 E84.60238
G1 X106.721 Y94.840 E84.73531
G1 X108.972 Y91.538 E84.86823
G1 X111.417 Y88.376 E85.00117
G0 F12000 X111.726 Y88.630
G1 F1800 X114.340 Y85.639 E85.13329
G1 X117.128 Y82.809 E85.26542
G1 X120.081 Y80.151 E85.39756
G1 X123.187 Y77.673 E85.52972
G1 X126.435 Y75.387 E85.66182
G1 X129.815 Y73.298 E85.79398
G1 X133.314 Y71.416 E85.92612
G1 X136.918 Y69.746 E86.05824
G1 X140.616 Y68.294 E86.19037
G1 X144.395 Y67.067 E86.32252
G1 X148.240 Y66.067 E86.45466
G1 X152.137 Y65.299 E86.58677
G1 X156.075 Y64.766 E86.71894
G1 X160.036 Y64.470 E86.85105
G1 X164.009 Y64.410 E86.98321
G1 X167.978 Y64.588 E87.11535
G1 X171.928 Y65.003 E87.24745
G1 X175.847 Y65.654 E87.37959
G1 X179.720 Y66.538 E87.51172
G1 X183.534 Y67.652 E87.64387
G1 X187.274 Y68.992 E87.77601
G1 X190.927 Y70.554 E87.90815
G1 X194.480 Y72.331 E88.04028
G1 X197.920 Y74.318 E88.17241
G1 X201.236 Y76.506 E88.30454
G1 X204.414 Y78.889 E88.43666
G1 X207.445 Y81.458 E88.56881
G1 X210.317 Y84.203 E88.70095
G1 X213.019 Y87.115 E88.83307
G1 X215.542 Y90.183 E88.96519
G1 X217.877 Y93.397 E89.09732
G1 X220.016 Y96.746 E89.22949
G1 X221.951 Y100.215 E89.36160
G1 X223.675 Y103.794 E89.49373
G1 X225.181 Y107.471 E89.62589
G1 X226.465 Y111.230 E89.75800
G1 X227.522 Y115.060 E89.89015
G1 X228.348 Y118.946 E90.02229
G1 X228.941 Y122.875 E90.15445
G1 X229.296 Y126.831 E90.28655
G1 X229.415 Y130.802 E90.41869
G1 X229.296 Y134.773 E90.55083
G1 X228.941 Y138.730 E90.68296
G1 X228.348 Y142.658 E90.81509
G1 X227.522 Y146.544 E90.94723
G1 X226.465 Y150.374 E91.07938
G1 X225.181 Y154.133 E91.21149
G1 X223.675 Y157.810 E91.34365
G1 X221.951 Y161.389 E91.47578
G1 X220.016 Y164.859 E91.60792
G1 X217.877 Y168.207 E91.74006
G1 X215.542 Y171.421 E91.87220
G1 X213.019 Y174.489 E92.00431
G1 X210.317 Y177.402 E92.13646
G1 X207.445 Y180.148 E92.26862
G1 X204.414 Y182.716 E92.40075
G1 X201.236 Y185.099 E92.53287
G1 X197.920 Y187.287 E92.66500
G1 X194.480 Y189.274 E92.79713
G1 X190.927 Y191.051 E92.92926
G1 X187.274 Y192.613 E93.06140
G1 X183.534 Y193.953 E93.19354
G1 X179.720 Y195.067 E93.32569
G1 X175.847 Y195.951 E93.45782
G1 X171.928 Y196.602 E93.58995
G1 X167.978 Y197.017 E93.72205
G1 X164.009 Y197.195 E93.85420
G1 X160.036 Y197.136 E93.98635
G1 X156.075 Y196.839 E94.11847
G1 X152.137 Y196.306 E94.25064
G1 X148.240 Y195.538 E94.38275
G1 X144.395 Y194.538 E94.51489
G1 X140.616 Y193.311 E94.64704
G1 X136.919 Y191.859 E94.77914
G1 X133.314 Y190.190 E94.91127
G1 X129.815 Y188.307 E95.04343
G1 X126.435 Y186.218 E95.17559
G1 X123.187 Y183.932 E95.30769
G1 X120.081 Y181.454 E95.43985
G1 X117.128 Y178.796 E95.57199
G1 X114.340 Y175.966 E95.70412
G1 X111.726 Y172.975 E95.83624
G1 X109.296 Y169.831 E95.96840
G1 X107.059 Y166.549 E96.10051
G1 X105.021 Y163.138 E96.23267
G1 X103.191 Y159.613 E96.36477
G1 X101.575 Y155.983 E96.49692
G1 X100.179 Y152.264 E96.62905
G1 X99.008 Y148.468 E96.76117
G1 X98.066 Y144.607 E96.89336
G1 X97.356 Y140.699 E97.02546
G1 X96.882 Y136.754 E97.15762
G1 X96.645 Y132.789 E97.28973
G1 X96.645 Y128.816 E97.42187
G1 X96.882 Y124.851 E97.55399
G1 X97.356 Y120.905 E97.68617
G1 X98.066 Y116.997 E97.81828
G1 X99.008 Y113.137 E97.95043
G1 X100.179 Y109.340 E98.08259
G1 X101.575 Y105.621 E98.21471
G1 X103.191 Y101.992 E98.34684
G1 X105.021 Y98.466 E98.47897
G1 X107.059 Y95.055 E98.61113
G1 X109.296 Y91.773 E98.74323
G1 X111.726 Y88.630 E98.87537
G0 F12000 X112.035 Y88.885
G1 F1800 X114.634 Y85.912 E99.00671
G1 X117.405 Y83.098 E99.13806
G1 X120.340 Y80.456 E99.26941
G1 X123.427 Y77.994 E99.40074
G1 X126.656 Y75.721 E99.53207
G1 X130.015 Y73.645 E99.66341
G1 X133.493 Y71.774 E99.79476
G1 X137.076 Y70.114 E99.92610
G1 X140.751 Y68.671 E100.05742
G1 X144.507 Y67.451 E100.18877
G1 X148.329 Y66.458 E100.32011
G1 X152.203 Y65.694 E100.45144
G1 X156.117 Y65.164 E100.58281
G1 X160.054 Y64.870 E100.71412
G1 X164.003 Y64.810 E100.84548
G1 X167.948 Y64.987 E100.97682
G1 X171.874 Y65.400 E101.10812
G1 X175.769 Y66.046 E101.23944
G1 X179.620 Y66.926 E101.37083
G1 X183.410 Y68.032 E101.50214
G1 X187.128 Y69.365 E101.63351
G1 X190.759 Y70.917 E101.76485
G1 X194.290 Y72.683 E101.89616
G1 X197.710 Y74.658 E102.02751
G1 X201.006 Y76.833 E102.15885
G1 X204.165 Y79.202 E102.29019
G1 X207.177 Y81.755 E102.42151
G1 X210.032 Y84.484 E102.55287
G1 X212.717 Y87.379 E102.68420
G1 X215.225 Y90.428 E102.81551
G1 X217.547 Y93.622 E102.94685
G1 X219.673 Y96.951 E103.07822
G1 X221.596 Y100.399 E103.20953
G1 X223.309 Y103.957 E103.34087
G1 X224.807 Y107.611 E103.47222
G1 X226.083 Y111.348 E103.60356
G1 X227.133 Y115.155 E103.73491
G1 X227.954 Y119.017 E103.86623
G1 X228.543 Y122.923 E103.99761
G1 X228.897 Y126.855 E104.12892
G1 X229.014 Y130.802 E104.26026
G1 X228.897 Y134.749 E104.39159
G1 X228.543 Y138.682 E104.52293
G1 X227.954 Y142.587 E104.65428
G1 X227.133 Y146.449 E104.78560
G1 X226.083 Y150.256 E104.91695
G1 X224.807 Y153.993 E105.04829
G1 X223.309 Y157.647 E105.17964
G1 X221.596 Y161.205 E105.31098
G1 X219.673 Y164.654 E105.44232
G1 X217.547 Y167.982 E105.57367
G1 X215.225 Y171.176 E105.70501
G1 X212.717 Y174.226 E105.83634
G1 X210.032 Y177.121 E105.96767
G1 X207.177 Y179.851 E106.09905
G1 X204.165 Y182.403 E106.23036
G1 X201.006 Y184.772 E106.36169
G1 X197.710 Y186.947 E106.49303
G1 X194.290 Y188.922 E106.62438
G1 X190.759 Y190.688 E106.75570
G1 X187.128 Y192.240 E106.88703
G1 X183.410 Y193.573 E107.01840
G1 X179.620 Y194.679 E107.14972
G1 X175.769 Y195.559 E107.28110
G1 X171.874 Y196.205 E107.41242
G1 X167.948 Y196.618 E107.54372
G1 X164.003 Y196.795 E107.67506
G1 X160.054 Y196.736 E107.80642
G1 X156.116 Y196.441 E107.93777
G1 X152.203 Y195.911 E108.06910
G1 X148.329 Y195.147 E108.20043
G1 X144.507 Y194.154 E108.33177
G1 X140.751 Y192.934 E108.46312
G1 X137.076 Y191.491 E108.59444
G1 X133.493 Y189.832 E108.72577
G1 X130.015 Y187.960 E108.85714
G1 X126.656 Y185.884 E108.98847
G1 X123.427 Y183.611 E109.11981
G1 X120.340 Y181.149 E109.25114
G1 X117.405 Y178.507 E109.38248
G1 X114.634 Y175.693 E109.51384
G1 X112.035 Y172.720 E109.64518
G1 X109.620 Y169.596 E109.77651
G1 X107.396 Y166.334 E109.90782
G1 X105.370 Y162.943 E110.03920
G1 X103.552 Y159.439 E110.17050
G1 X101.945 Y155.831 E110.30187
G1 X100.557 Y152.134 E110.43321
G1 X99.394 Y148.361 E110.56453
G1 X98.457 Y144.524 E110.69589
G1 X97.752 Y140.639 E110.82722
G1 X97.281 Y136.719 E110.95854
G1 X97.045 Y132.777 E111.08988
G1 X97.045 Y128.828 E111.22123
G1 X97.281 Y124.886 E111.35258
G1 X97.752 Y120.965 E111.48393
G1 X98.457 Y117.080 E111.61525
G1 X99.394 Y113.244 E111.74659
G1 X100.557 Y109.470 E111.87794
G1 X101.945 Y105.772 E112.00931
G1 X103.552 Y102.166 E112.14062
G1 X105.370 Y98.661 E112.27194
G1 X107.396 Y95.270 E112.40333
G1 X109.620 Y92.008 E112.53464
G1 X112.035 Y88.885 E112.66594
G0 F12000 X112.344 Y89.139
G1 F1800 X114.927 Y86.184 E112.79648
G1 X117.681 Y83.387 E112.92704
G1 X120.599 Y80.761 E113.05760
G1 X123.667 Y78.314 E113.18813
G1 X126.876 Y76.055 E113.31865
G1 X130.215 Y73.991 E113.44921
G1 X133.672 Y72.132 E113.57976
G1 X137.233 Y70.482 E113.71030
G1 X140.886 Y69.048 E113.84083
G1 X144.620 Y67.835 E113.97141
G1 X148.418 Y66.848 E114.10193
G1 X152.269 Y66.089 E114.23247
G1 X156.158 Y65.562 E114.36300
G1 X160.072 Y65.269 E114.49355
G1 X163.997 Y65.210 E114.62411
G1 X167.918 Y65.386 E114.75465
G1 X171.821 Y65.796 E114.88518
G1 X175.692 Y66.439 E115.01570
G1 X179.519 Y67.313 E115.14626
G1 X183.286 Y68.413 E115.27678
G1 X186.981 Y69.737 E115.40733
G1 X190.590 Y71.280 E115.53788
G1 X194.100 Y73.035 E115.66840
G1 X197.500 Y74.998 E115.79898
G1 X200.776 Y77.160 E115.92953
G1 X203.915 Y79.515 E116.06005
G1 X206.910 Y82.053 E116.19062
G1 X209.747 Y84.765 E116.32116
G1 X212.416 Y87.642 E116.45168
G1 X214.909 Y90.673 E116.58221
G1 X217.216 Y93.848 E116.71275
G1 X219.329 Y97.156 E116.84330
G1 X221.241 Y100.583 E116.97382
G1 X222.943 Y104.120 E117.10438
G1 X224.432 Y107.752 E117.23493
G1 X225.701 Y111.466 E117.36547
G1 X226.744 Y115.250 E117.49602
G1 X227.561 Y119.089 E117.62657
G1 X228.146 Y122.970 E117.75711
G1 X228.497 Y126.879 E117.88765
G1 X228.614 Y130.802 E118.01818
G1 X228.497 Y134.725 E118.14872
G1 X228.146 Y138.635 E118.27929
G1 X227.561 Y142.515 E118.40980
G1 X226.744 Y146.354 E118.54035
G1 X225.701 Y150.138 E118.67090
G1 X224.432 Y153.852 E118.80143
G1 X222.943 Y157.484 E118.93199
G1 X221.241 Y161.020 E119.06252
G1 X219.329 Y164.449 E119.19310
G1 X217.216 Y167.756 E119.32362
G1 X214.909 Y170.931 E119.45416
G1 X212.416 Y173.963 E119.58471
G1 X209.747 Y176.840 E119.71524
G1 X206.910 Y179.553 E119.84580
G1 X203.915 Y182.090 E119.97635
G1 X200.776 Y184.445 E120.10687
G1 X197.500 Y186.607 E120.23742
G1 X194.100 Y188.570 E120.36800
G1 X190.590 Y190.325 E120.49852
G1 X186.981 Y191.868 E120.62907
G1 X183.286 Y193.192 E120.75961
G1 X179.519 Y194.292 E120.89014
G1 X175.692 Y195.166 E121.02070
G1 X171.821 Y195.809 E121.15121
G1 X167.918 Y196.219 E121.28174
G1 X163.997 Y196.395 E121.41229
G1 X160.072 Y196.337 E121.54285
G1 X156.158 Y196.043 E121.67339
G1 X152.269 Y195.516 E121.80392
G1 X148.418 Y194.757 E121.93447
G1 X144.620 Y193.770 E122.06499
G1 X140.886 Y192.557 E122.19557
G1 X137.233 Y191.123 E122.32610
G1 X133.672 Y189.474 E122.45662
G1 X130.215 Y187.614 E122.58719
G1 X126.876 Y185.550 E122.71775
G1 X123.667 Y183.291 E122.84827
G1 X120.599 Y180.844 E122.97880
G1 X117.681 Y178.218 E123.10936
G1 X114.927 Y175.421 E123.23992
G1 X112.344 Y172.466 E123.37046
G1 X109.943 Y169.361 E123.50101
G1 X107.733 Y166.118 E123.63153
G1 X105.720 Y162.748 E123.76209
G1 X103.912 Y159.265 E123.89262
G1 X102.316 Y155.680 E124.02314
G1 X100.936 Y152.005 E124.15370
G1 X99.779 Y148.255 E124.28423
G1 X98.849 Y144.441 E124.41480
G1 X98.147 Y140.579 E124.54535
G1 X97.679 Y136.683 E124.67587
G1 X97.445 Y132.765 E124.80641
G1 X97.445 Y128.840 E124.93696
G1 X97.679 Y124.922 E125.06750
G1 X98.147 Y121.025 E125.19805
G1 X98.849 Y117.163 E125.32860
G1 X99.779 Y113.350 E125.45914
G1 X100.936 Y109.599 E125.58970
G1 X102.316 Y105.924 E125.72027
G1 X103.912 Y102.340 E125.85076
G1 X105.720 Y98.856 E125.98131
G1 X107.733 Y95.486 E126.11187
G1 X109.943 Y92.243 E126.24240
G1 X112.344 Y89.139 E126.37292
G0 F12000 X112.653 Y89.393
G1 F1800 X115.220 Y86.456 E126.50265
G1 X117.958 Y83.676 E126.63243
G1 X120.858 Y81.066 E126.76220
G1 X123.907 Y78.634 E126.89192
G1 X127.097 Y76.389 E127.02166
G1 X130.415 Y74.338 E127.15140
G1 X133.851 Y72.490 E127.28116
G1 X137.390 Y70.850 E127.41089
G1 X141.021 Y69.425 E127.54063
G1 X144.732 Y68.219 E127.67041
G1 X148.507 Y67.238 E127.80014
G1 X152.334 Y66.484 E127.92987
G1 X156.200 Y65.960 E128.05963
G1 X160.090 Y65.669 E128.18937
G1 X163.991 Y65.610 E128.31914
G1 X167.888 Y65.785 E128.44888
G1 X171.767 Y66.193 E128.57861
G1 X175.615 Y66.832 E128.70835
G1 X179.418 Y67.700 E128.83809
G1 X183.163 Y68.794 E128.96785
G1 X186.835 Y70.110 E129.09759
G1 X190.422 Y71.643 E129.22733
G1 X193.911 Y73.388 E129.35708
G1 X197.289 Y75.339 E129.48683
G1 X200.545 Y77.487 E129.61657
G1 X203.666 Y79.828 E129.74633
G1 X206.642 Y82.350 E129.87607
G1 X209.462 Y85.046 E130.00583
G1 X212.115 Y87.905 E130.13556
G1 X214.592 Y90.918 E130.26529
G1 X216.885 Y94.073 E130.39501
G1 X218.986 Y97.361 E130.52479
G1 X220.886 Y100.768 E130.65454
G1 X222.578 Y104.283 E130.78429
G1 X224.057 Y107.893 E130.91404
G1 X225.318 Y111.584 E131.04377
G1 X226.355 Y115.345 E131.17353
G1 X227.167 Y119.160 E131.30326
G1 X227.749 Y123.018 E131.43303
G1 X228.098 Y126.903 E131.56276
G1 X228.214 Y130.802 E131.69250
G1 X228.098 Y134.701 E131.82224
G1 X227.749 Y138.587 E131.95201
G1 X227.167 Y142.444 E132.08175
G1 X226.355 Y146.259 E132.21148
G1 X225.318 Y150.020 E132.34124
G1 X224.057 Y153.711 E132.47097
G1 X222.578 Y157.321 E132.60072
G1 X220.886 Y160.836 E132.73047
G1 X218.986 Y164.244 E132.86025
G1 X216.885 Y167.531 E132.99000
G1 X214.592 Y170.686 E133.11972
G1 X212.115 Y173.700 E133.24948
G1 X209.462 Y176.559 E133.37920
G1 X206.642 Y179.256 E133.50898
G1 X203.666 Y181.777 E133.63871
G1 X200.545 Y184.118 E133.76847
G1 X197.289 Y186.266 E133.89821
G1 X193.911 Y188.217 E134.02795
G1 X190.422 Y189.962 E134.15770
G1 X186.835 Y191.495 E134.28744
G1 X183.163 Y192.811 E134.41718
G1 X179.418 Y193.905 E134.54695
G1 X175.615 Y194.773 E134.67669
G1 X171.767 Y195.412 E134.80643
G1 X167.888 Y195.820 E134.93615
G1 X163.991 Y195.995 E135.06590
G1 X160.090 Y195.937 E135.19566
G1 X156.200 Y195.645 E135.32541
G1 X152.334 Y195.121 E135.45517
G1 X148.507 Y194.367 E135.58490
G1 X144.732 Y193.386 E135.71463
G1 X141.021 Y192.180 E135.84441
G1 X137.390 Y190.755 E135.97414
G1 X133.851 Y189.116 E136.10386
G1 X130.415 Y187.267 E136.23364
G1 X127.097 Y185.216 E136.36338
G1 X123.907 Y182.971 E136.49312
G1 X120.858 Y180.539 E136.62284
G1 X117.958 Y177.929 E136.75261
G1 X115.220 Y175.149 E136.88238
G1 X112.653 Y172.212 E137.01212
G1 X110.267 Y169.126 E137.14186
G1 X108.070 Y165.903 E137.27160
G1 X106.069 Y162.553 E137.40138
G1 X104.273 Y159.092 E137.53107
G1 X102.686 Y155.528 E137.66083
G1 X101.315 Y151.876 E137.79057
G1 X100.165 Y148.148 E137.92033
G1 X99.240 Y144.358 E138.05009
G1 X98.543 Y140.520 E138.17983
G1 X98.078 Y136.647 E138.30957
G1 X97.845 Y132.753 E138.43932
G1 X97.845 Y128.852 E138.56907
G1 X98.078 Y124.958 E138.69881
G1 X98.543 Y121.084 E138.82859
G1 X99.240 Y117.246 E138.95833
G1 X100.165 Y113.457 E139.08805
G1 X101.315 Y109.728 E139.21784
G1 X102.686 Y106.076 E139.34759
G1 X104.273 Y102.513 E139.47732
G1 X106.069 Y99.051 E139.60703
G1 X108.070 Y95.701 E139.73682
G1 X110.267 Y92.478 E139.86655
G1 X112.653 Y89.393 E139.99627
G0 F12000 X159.962 Y128.728
G1 F1800 X159.580 Y129.490 E140.02462
G1 X159.565 Y129.519 E140.02571
G1 X159.369 Y130.345 E140.05394
G1 X159.361 Y130.378 E140.05507
G1 X159.361 Y131.258 E140.08434
G1 X159.556 Y132.084 E140.11257
G1 X159.563 Y132.115 E140.11362
G1 X159.944 Y132.875 E140.14190
G1 X159.943 Y132.875 E140.14193
G1 X159.958 Y132.903 E140.14299
G1 X160.529 Y133.584 E140.17255
G1 X161.231 Y134.107 E140.20167
G1 X162.045 Y134.458 E140.23115
G1 X162.879 Y134.604 E140.25931
G1 X162.912 Y134.611 E140.26043
G1 X163.757 Y134.562 E140.28858
G1 X163.794 Y134.559 E140.28982
G1 X164.640 Y134.306 E140.31919
G1 X165.372 Y133.884 E140.34729
G1 X165.402 Y133.867 E140.34844
G1 X166.018 Y133.284 E140.37665
G1 X166.044 Y133.261 E140.37780
G1 X166.528 Y132.523 E140.40715
G1 X166.830 Y131.696 E140.43644
G1 X166.932 Y130.819 E140.46580
G1 X166.830 Y129.942 E140.49517
G1 X166.527 Y129.113 E140.52453
G1 X166.042 Y128.375 E140.55390
G1 X165.429 Y127.795 E140.58197
G1 X165.405 Y127.772 E140.58307
G1 X164.670 Y127.349 E140.61128
G1 X164.639 Y127.331 E140.61247
G1 X163.794 Y127.079 E140.64180
G1 X162.946 Y127.030 E140.67005
G1 X162.910 Y127.028 E140.67125
G1 X162.080 Y127.173 E140.69927
G1 X162.080 Y127.172 E140.69931
G1 X162.049 Y127.178 E140.70036
G1 X161.231 Y127.531 E140.72999
G1 X160.527 Y128.055 E140.75918
G1 X159.962 Y128.728 E140.78840
G0 F12000 X160.296 Y128.953
G1 F1800 X159.942 Y129.659 E140.81467
G1 X159.761 Y130.426 E140.84088
G1 X159.761 Y131.213 E140.86706
G1 X159.942 Y131.980 E140.89327
G1 X160.293 Y132.680 E140.91931
G1 X160.806 Y133.291 E140.94585
G1 X161.434 Y133.759 E140.97190
G1 X162.159 Y134.072 E140.99816
G1 X162.939 Y134.209 E141.02450
G1 X163.721 Y134.164 E141.05056
G1 X164.477 Y133.938 E141.07680
G1 X165.162 Y133.543 E141.10310
G1 X165.736 Y133.000 E141.12938
G1 X166.168 Y132.344 E141.15551
G1 X166.438 Y131.601 E141.18180
G1 X166.530 Y130.819 E141.20799
G1 X166.438 Y130.037 E141.23418
G1 X166.167 Y129.293 E141.26051
G1 X165.733 Y128.634 E141.28676
G1 X165.165 Y128.097 E141.31276
G1 X164.480 Y127.701 E141.33907
G1 X163.721 Y127.475 E141.36541
G1 X162.933 Y127.430 E141.39166
G1 X162.164 Y127.564 E141.41763
G1 X161.435 Y127.878 E141.44403
G1 X160.804 Y128.348 E141.47020
G1 X160.296 Y128.953 E141.49647
G0 F12000 X160.633 Y129.174
G1 F1800 X160.320 Y129.799 E141.51972
G1 X160.161 Y130.473 E141.54275
G1 X160.161 Y131.167 E141.56583
G1 X160.320 Y131.841 E141.58887
G1 X160.631 Y132.461 E141.61194
G1 X161.080 Y132.996 E141.63517
G1 X161.638 Y133.412 E141.65832
G1 X162.273 Y133.686 E141.68132
G1 X162.965 Y133.807 E141.70468
G1 X163.651 Y133.768 E141.72754
G1 X164.318 Y133.568 E141.75070
G1 X164.919 Y133.222 E141.77376
G1 X165.428 Y132.741 E141.79706
G1 X165.808 Y132.163 E141.82006
G1 X166.047 Y131.506 E141.84332
G1 X166.127 Y130.819 E141.86632
G1 X166.047 Y130.128 E141.88946
G1 X165.809 Y129.478 E141.91248
G1 X165.426 Y128.893 E141.93573
G1 X164.925 Y128.419 E141.95867
G1 X164.321 Y128.071 E141.98186
G1 X163.651 Y127.871 E142.00512
G1 X162.957 Y127.831 E142.02824
G1 X162.277 Y127.951 E142.05120
G1 X161.636 Y128.228 E142.07443
G1 X161.079 Y128.642 E142.09751
G1 X160.633 Y129.174 E142.12060
G0 F12000 X160.971 Y129.394
G1 F1800 X160.700 Y129.933 E142.14067
G1 X160.561 Y130.520 E142.16073
G1 X160.561 Y131.118 E142.18062
G1 X160.700 Y131.705 E142.20068
G1 X160.969 Y132.242 E142.22066
G1 X161.355 Y132.702 E142.24063
G1 X161.840 Y133.063 E142.26074
G1 X162.388 Y133.300 E142.28060
G1 X162.984 Y133.405 E142.30073
G1 X163.585 Y133.370 E142.32075
G1 X164.156 Y133.199 E142.34058
G1 X164.682 Y132.896 E142.36077
G1 X165.117 Y132.485 E142.38067
G1 X165.449 Y131.980 E142.40077
G1 X165.655 Y131.416 E142.42074
G1 X165.724 Y130.823 E142.44060
G1 X165.654 Y130.219 E142.46082
G1 X165.450 Y129.658 E142.48068
G1 X165.117 Y129.153 E142.50080
G1 X164.684 Y128.743 E142.52063
G1 X164.159 Y128.440 E142.54079
G1 X163.583 Y128.268 E142.56078
G1 X162.981 Y128.233 E142.58084
G1 X162.393 Y128.336 E142.60069
G1 X161.834 Y128.578 E142.62095
G1 X161.357 Y128.933 E142.64073
G1 X160.971 Y129.394 E142.66073
G1 F2100 E142.26073
G0 F12000 X159.066 Y127.931
;TYPE:WALL-INNER
G1 F2100 E142.66073
G1 F1800 X158.951 Y128.067 E142.66665
G1 X158.515 Y128.938 E142.69905
G1 X158.430 Y129.100 E142.70513
G1 X158.204 Y130.059 E142.73790
G1 X158.161 Y130.234 E142.74390
G1 X158.161 Y131.399 E142.78265
G1 X158.389 Y132.364 E142.81563
G1 X158.431 Y132.535 E142.82148
G1 X158.874 Y133.419 E142.85437
G1 X158.955 Y133.576 E142.86025
G1 X159.586 Y134.327 E142.89287
G1 X159.699 Y134.461 E142.89870
G1 X160.630 Y135.155 E142.93732
G1 X161.539 Y135.547 E142.97025
G1 X161.701 Y135.616 E142.97610
G1 X162.670 Y135.786 E143.00882
G1 X162.836 Y135.817 E143.01444
G1 X163.834 Y135.760 E143.04769
G1 X164.009 Y135.748 E143.05352
G1 X164.950 Y135.467 E143.08619
G1 X165.118 Y135.416 E143.09203
G1 X165.975 Y134.921 E143.12494
G1 X166.127 Y134.832 E143.13080
G1 X166.842 Y134.157 E143.16351
G1 X166.967 Y134.040 E143.16920
G1 X167.512 Y133.211 E143.20220
G1 X167.608 Y133.064 E143.20804
G1 X168.006 Y131.973 E143.24666
G1 X168.141 Y130.819 E143.28531
G1 X168.006 Y129.663 E143.32402
G1 X167.608 Y128.572 E143.36264
G1 X167.066 Y127.748 E143.39545
G1 X166.971 Y127.603 E143.40121
G1 X166.250 Y126.921 E143.43422
G1 X166.121 Y126.801 E143.44008
G1 X165.266 Y126.307 E143.47292
G1 X165.113 Y126.220 E143.47878
G1 X164.175 Y125.940 E143.51134
G1 X164.005 Y125.888 E143.51725
G1 X163.028 Y125.833 E143.54980
G1 X162.848 Y125.820 E143.55580
G1 X161.866 Y125.992 E143.58896
G1 X161.692 Y126.025 E143.59485
G1 X160.796 Y126.412 E143.62731
G1 X160.633 Y126.482 E143.63321
G1 X159.698 Y127.177 E143.67196
G1 X159.066 Y127.931 E143.70468
G1 F2100 E143.30468
G0 F12000 X111.233 Y93.191
G1 F2100 E143.70468
G1 F1800 X113.582 Y90.154 E143.83238
G1 X116.102 Y87.271 E143.95974
G1 X118.788 Y84.543 E144.08707
G1 X121.626 Y81.989 E144.21406
G1 X124.627 Y79.595 E144.34174
G1 X127.759 Y77.391 E144.46912
G1 X131.016 Y75.378 E144.59647
G1 X134.401 Y73.557 E144.72431
G1 X137.855 Y71.957 E144.85092
G1 X141.427 Y70.554 E144.97856
G1 X145.067 Y69.372 E145.10585
G1 X148.778 Y68.407 E145.23338
G1 X152.527 Y67.668 E145.36047
G1 X156.329 Y67.154 E145.48808
G1 X160.139 Y66.869 E145.61515
G1 X163.975 Y66.810 E145.74276
G1 X167.791 Y66.982 E145.86980
G1 X171.620 Y67.384 E145.99786
G1 X175.372 Y68.007 E146.12436
G1 X179.119 Y68.863 E146.25219
G1 X182.800 Y69.938 E146.37974
G1 X186.397 Y71.227 E146.50683
G1 X189.917 Y72.732 E146.63415
G1 X193.335 Y74.441 E146.76126
G1 X196.652 Y76.356 E146.88865
G1 X199.860 Y78.473 E147.01648
G1 X202.912 Y80.762 E147.14337
G1 X205.842 Y83.246 E147.27113
G1 X208.609 Y85.891 E147.39844
G1 X211.213 Y88.698 E147.52579
G1 X213.638 Y91.645 E147.65273
G1 X215.894 Y94.751 E147.78041
G1 X217.959 Y97.983 E147.90797
G1 X219.817 Y101.314 E148.03483
G1 X221.484 Y104.778 E148.16269
G1 X222.934 Y108.315 E148.28984
G1 X224.169 Y111.931 E148.41693
G1 X225.190 Y115.632 E148.54462
G1 X225.985 Y119.370 E148.67173
G1 X226.557 Y123.165 E148.79937
G1 X226.899 Y126.967 E148.92634
G1 X227.013 Y130.802 E149.05395
G1 X226.899 Y134.637 E149.18156
G1 X226.557 Y138.440 E149.30856
G1 X225.985 Y142.234 E149.43617
G1 X225.190 Y145.972 E149.56328
G1 X224.169 Y149.673 E149.69097
G1 X222.934 Y153.289 E149.81806
G1 X221.484 Y156.826 E149.94521
G1 X219.817 Y160.290 E150.07307
G1 X217.959 Y163.622 E150.19995
G1 X215.894 Y166.853 E150.32749
G1 X213.638 Y169.959 E150.45517
G1 X211.213 Y172.907 E150.58213
G1 X208.609 Y175.714 E150.70948
G1 X205.834 Y178.368 E150.83719
G1 X202.921 Y180.836 E150.96418
G1 X199.860 Y183.132 E151.09145
G1 X196.652 Y185.249 E151.21928
G1 X193.335 Y187.164 E151.34667
G1 X189.917 Y188.873 E151.47377
G1 X186.397 Y190.378 E151.60110
G1 X182.800 Y191.667 E151.72819
G1 X179.119 Y192.742 E151.85573
G1 X175.372 Y193.598 E151.98357
G1 X171.620 Y194.221 E152.11007
G1 X167.791 Y194.623 E152.23812
G1 X163.975 Y194.795 E152.36517
G1 X160.139 Y194.737 E152.49277
G1 X156.329 Y194.451 E152.61985
G1 X152.527 Y193.937 E152.74746
G1 X148.778 Y193.198 E152.87455
G1 X145.067 Y192.233 E153.00208
G1 X141.427 Y191.051 E153.12937
G1 X137.855 Y189.648 E153.25701
G1 X134.401 Y188.049 E153.38361
G1 X131.016 Y186.227 E153.51147
G1 X127.759 Y184.214 E153.63881
G1 X124.627 Y182.010 E153.76619
G1 X121.626 Y179.616 E153.89387
G1 X118.788 Y177.062 E154.02086
G1 X116.102 Y174.334 E154.14819
G1 X113.582 Y171.451 E154.27555
G1 X111.234 Y168.413 E154.40326
G1 X109.082 Y165.257 E154.53031
G1 X107.125 Y161.981 E154.65723
G1 X105.355 Y158.571 E154.78501
G1 X103.791 Y155.059 E154.91288
G1 X102.455 Y151.501 E155.03929
G1 X101.323 Y147.829 E155.16709
G1 X100.414 Y144.102 E155.29469
G1 X99.730 Y140.340 E155.42186
G1 X99.273 Y136.534 E155.54936
G1 X99.045 Y132.720 E155.67644
G1 X99.045 Y128.885 E155.80399
G1 X99.273 Y125.071 E155.93107
G1 X99.730 Y121.264 E156.05860
G1 X100.417 Y117.486 E156.18632
G1 X101.318 Y113.792 E156.31279
G1 X102.455 Y110.103 E156.44118
G1 X103.797 Y106.531 E156.56809
G1 X105.348 Y103.048 E156.69490
G1 X107.125 Y99.623 E156.82324
G1 X109.082 Y96.347 E156.95016
G1 X111.233 Y93.191 E157.07719
G0 F12000 X110.914 Y92.950
G1 F1800 X113.272 Y89.902 E157.20536
G1 X115.814 Y86.992 E157.33388
G1 X118.509 Y84.256 E157.46161
G1 X121.374 Y81.678 E157.58980
G1 X124.384 Y79.277 E157.71786
G1 X127.547 Y77.051 E157.84650
G1 X130.813 Y75.031 E157.97423
G1 X134.208 Y73.205 E158.10244
G1 X137.692 Y71.591 E158.23015
G1 X141.294 Y70.178 E158.35884
G1 X144.955 Y68.988 E158.48688
G1 X148.685 Y68.019 E158.61506
G1 X152.463 Y67.274 E158.74314
G1 X156.297 Y66.755 E158.87182
G1 X160.120 Y66.469 E158.99933
G1 X163.987 Y66.410 E159.12796
G1 X167.816 Y66.583 E159.25544
G1 X171.664 Y66.987 E159.38413
G1 X175.458 Y67.617 E159.51205
G1 X179.219 Y68.476 E159.64036
G1 X182.915 Y69.555 E159.76842
G1 X186.538 Y70.853 E159.89642
G1 X190.088 Y72.371 E160.02484
G1 X193.529 Y74.091 E160.15279
G1 X196.874 Y76.023 E160.28127
G1 X200.083 Y78.141 E160.40915
G1 X203.163 Y80.451 E160.53720
G1 X206.103 Y82.943 E160.66539
G1 X208.896 Y85.613 E160.79390
G1 X211.517 Y88.437 E160.92205
G1 X213.957 Y91.404 E161.04982
G1 X216.220 Y94.518 E161.17785
G1 X218.302 Y97.778 E161.30650
G1 X220.172 Y101.131 E161.43419
G1 X221.848 Y104.612 E161.56269
G1 X223.307 Y108.171 E161.69063
G1 X224.556 Y111.828 E161.81916
G1 X225.576 Y115.527 E161.94678
G1 X226.381 Y119.312 E162.07548
G1 X226.952 Y123.096 E162.20277
G1 X227.299 Y126.954 E162.33160
G1 X227.413 Y130.802 E162.45964
G1 X227.299 Y134.650 E162.58768
G1 X226.952 Y138.504 E162.71639
G1 X226.381 Y142.292 E162.84380
G1 X225.576 Y146.077 E162.97250
G1 X224.556 Y149.776 E163.10013
G1 X223.307 Y153.433 E163.22866
G1 X221.848 Y156.992 E163.35659
G1 X220.172 Y160.473 E163.48509
G1 X218.302 Y163.827 E163.61281
G1 X216.220 Y167.086 E163.74144
G1 X213.957 Y170.200 E163.86947
G1 X211.517 Y173.168 E163.99726
G1 X208.896 Y175.992 E164.12541
G1 X206.103 Y178.663 E164.25395
G1 X203.163 Y181.154 E164.38211
G1 X200.083 Y183.464 E164.51016
G1 X196.874 Y185.582 E164.63805
G1 X193.529 Y187.514 E164.76652
G1 X190.088 Y189.234 E164.89447
G1 X186.538 Y190.752 E165.02289
G1 X182.915 Y192.050 E165.15089
G1 X179.219 Y193.129 E165.27895
G1 X175.458 Y193.988 E165.40726
G1 X171.664 Y194.618 E165.53518
G1 X167.816 Y195.022 E165.66387
G1 X163.987 Y195.195 E165.79135
G1 X160.120 Y195.137 E165.91998
G1 X156.297 Y194.850 E166.04750
G1 X152.463 Y194.331 E166.17618
G1 X148.685 Y193.586 E166.30425
G1 X144.955 Y192.617 E166.43243
G1 X141.294 Y191.427 E166.56047
G1 X137.692 Y190.014 E166.68916
G1 X134.208 Y188.401 E166.81685
G1 X130.814 Y186.574 E166.94506
G1 X127.547 Y184.554 E167.07281
G1 X124.384 Y182.328 E167.20145
G1 X121.374 Y179.927 E167.32951
G1 X118.509 Y177.349 E167.45770
G1 X115.814 Y174.613 E167.58544
G1 X113.272 Y171.703 E167.71395
G1 X110.914 Y168.654 E167.84215
G1 X108.744 Y165.470 E167.97031
G1 X106.770 Y162.166 E168.09832
G1 X104.991 Y158.739 E168.22674
G1 X103.429 Y155.231 E168.35446
G1 X102.069 Y151.608 E168.48317
G1 X100.938 Y147.941 E168.61081
G1 X100.022 Y144.184 E168.73943
G1 X99.336 Y140.412 E168.86694
G1 X98.875 Y136.571 E168.99561
G1 X98.645 Y132.728 E169.12366
G1 X98.645 Y128.877 E169.25174
G1 X98.875 Y125.034 E169.37979
G1 X99.337 Y121.186 E169.50869
G1 X100.022 Y117.420 E169.63601
G1 X100.938 Y113.664 E169.76459
G1 X102.069 Y109.996 E169.89226
G1 X103.429 Y106.373 E170.02097
G1 X104.991 Y102.866 E170.14866
G1 X106.770 Y99.438 E170.27712
G1 X108.744 Y96.134 E170.40513
G1 X110.914 Y92.950 E170.53328
G1 F2100 E170.13328
G0 F12000 X159.288 Y128.288
G1 F2100 E170.53328
G1 F1800 X158.870 Y129.123 E170.56434
G1 X158.808 Y129.241 E170.56877
G1 X158.592 Y130.155 E170.60001
G1 X158.561 Y130.282 E170.60436
G1 X158.561 Y131.353 E170.63998
G1 X158.778 Y132.271 E170.67136
G1 X158.808 Y132.396 E170.67563
G1 X159.231 Y133.238 E170.70697
G1 X159.290 Y133.352 E170.71124
G1 X159.892 Y134.069 E170.74238
G1 X159.975 Y134.168 E170.74668
G1 X160.832 Y134.806 E170.78221
G1 X161.697 Y135.179 E170.81354
G1 X161.815 Y135.230 E170.81782
G1 X162.739 Y135.392 E170.84902
G1 X162.862 Y135.415 E170.85318
G1 X163.809 Y135.361 E170.88473
G1 X163.937 Y135.352 E170.88900
G1 X164.835 Y135.084 E170.92017
G1 X164.958 Y135.046 E170.92445
G1 X165.774 Y134.575 E170.95579
G1 X165.886 Y134.510 E170.96009
G1 X166.564 Y133.869 E170.99113
G1 X166.660 Y133.780 E170.99548
G1 X167.178 Y132.992 E171.02684
G1 X167.248 Y132.884 E171.03112
G1 X167.614 Y131.880 E171.06667
G1 X167.738 Y130.819 E171.10220
G1 X167.614 Y129.756 E171.13779
G1 X167.248 Y128.753 E171.17330
G1 X166.731 Y127.967 E171.20459
G1 X166.662 Y127.861 E171.20880
G1 X165.977 Y127.212 E171.24019
G1 X165.882 Y127.124 E171.24449
G1 X165.067 Y126.654 E171.27578
G1 X164.955 Y126.591 E171.28006
G1 X164.057 Y126.322 E171.31124
G1 X163.935 Y126.285 E171.31548
G1 X163.000 Y126.231 E171.34663
G1 X162.869 Y126.222 E171.35099
G1 X161.937 Y126.386 E171.38247
G1 X161.810 Y126.410 E171.38677
G1 X160.950 Y126.781 E171.41792
G1 X160.833 Y126.831 E171.42215
G1 X159.974 Y127.470 E171.45776
G1 X159.372 Y128.189 E171.48895
G1 X159.288 Y128.288 E171.49327
G0 F12000 X159.624 Y128.510
;TYPE:WALL-OUTER
G1 F1800 X159.223 Y129.309 E171.52300
G1 X159.186 Y129.381 E171.52569
G1 X158.980 Y130.252 E171.55546
G1 X158.961 Y130.331 E171.55817
G1 X158.961 Y131.306 E171.59059
G1 X159.167 Y132.177 E171.62036
G1 X159.186 Y132.257 E171.62310
G1 X159.587 Y133.056 E171.65283
G1 X159.625 Y133.129 E171.65557
G1 X160.251 Y133.874 E171.68793
G1 X161.033 Y134.457 E171.72038
G1 X161.929 Y134.844 E171.75284
G1 X162.808 Y134.998 E171.78252
G1 X162.888 Y135.013 E171.78523
G1 X163.784 Y134.962 E171.81508
G1 X163.865 Y134.956 E171.81778
G1 X164.798 Y134.677 E171.85017
G1 X165.573 Y134.230 E171.87992
G1 X165.644 Y134.188 E171.88267
G1 X166.291 Y133.576 E171.91229
G1 X166.352 Y133.520 E171.91504
G1 X166.888 Y132.704 E171.94751
G1 X167.222 Y131.787 E171.97997
G1 X167.335 Y130.819 E172.01239
G1 X167.222 Y129.849 E172.04487
G1 X166.888 Y128.934 E172.07727
G1 X166.352 Y128.119 E172.10971
G1 X165.703 Y127.504 E172.13945
G1 X165.643 Y127.448 E172.14218
G1 X164.868 Y127.001 E172.17194
G1 X164.797 Y126.961 E172.17465
G1 X163.864 Y126.682 E172.20703
G1 X162.973 Y126.630 E172.23672
G1 X162.890 Y126.625 E172.23949
G1 X162.009 Y126.779 E172.26923
G1 X161.928 Y126.795 E172.27198
G1 X161.033 Y127.181 E172.30440
G1 X160.251 Y127.763 E172.33682
G1 X159.624 Y128.510 E172.36926
G1 F2100 E171.96926
G0 F12000 X108.411 Y95.912
G1 F2100 E172.36926
G1 F1800 X110.594 Y92.709 E172.49818
G1 X112.959 Y89.652 E172.62673
G1 X115.518 Y86.724 E172.75607
G1 X118.230 Y83.970 E172.88462
G1 X121.121 Y81.368 E173.01399
G1 X124.142 Y78.958 E173.14252
G1 X127.322 Y76.720 E173.27186
G1 X130.610 Y74.687 E173.40043
G1 X134.035 Y72.845 E173.52978
G1 X137.542 Y71.220 E173.65834
G1 X141.156 Y69.801 E173.78747
G1 X144.838 Y68.605 E173.91623
G1 X148.602 Y67.627 E174.04558
G1 X152.400 Y66.878 E174.17434
G1 X156.246 Y66.357 E174.30342
G1 X160.102 Y66.069 E174.43203
G1 X163.982 Y66.010 E174.56110
G1 X167.860 Y66.185 E174.69021
G1 X171.719 Y66.590 E174.81927
G1 X175.531 Y67.223 E174.94779
G1 X179.320 Y68.088 E175.07705
G1 X183.045 Y69.176 E175.20612
G1 X186.683 Y70.480 E175.33466
G1 X190.259 Y72.009 E175.46402
G1 X193.722 Y73.741 E175.59280
G1 X197.074 Y75.676 E175.72153
G1 X200.314 Y77.814 E175.85064
G1 X203.412 Y80.137 E175.97943
G1 X206.370 Y82.644 E176.10840
G1 X209.172 Y85.322 E176.23731
G1 X211.817 Y88.173 E176.36666
G1 X214.272 Y91.158 E176.49520
G1 X216.551 Y94.294 E176.62414
G1 X218.645 Y97.572 E176.75352
G1 X220.533 Y100.957 E176.88243
G1 X222.210 Y104.440 E177.01100
G1 X223.685 Y108.039 E177.14037
G1 X224.934 Y111.696 E177.26890
G1 X225.965 Y115.434 E177.39787
G1 X226.774 Y119.238 E177.52722
G1 X227.352 Y123.072 E177.65618
G1 X227.698 Y126.921 E177.78471
G1 X227.814 Y130.796 E177.91366
G1 X227.698 Y134.677 E178.04280
G1 X227.352 Y138.533 E178.17156
G1 X226.774 Y142.366 E178.30049
G1 X225.965 Y146.169 E178.42981
G1 X224.934 Y149.906 E178.55874
G1 X223.685 Y153.565 E178.68734
G1 X222.215 Y157.153 E178.81630
G1 X220.533 Y160.647 E178.94528
G1 X218.645 Y164.033 E179.07422
G1 X216.553 Y167.307 E179.20345
G1 X214.272 Y170.446 E179.33250
G1 X211.817 Y173.432 E179.46108
G1 X209.175 Y176.280 E179.59028
G1 X206.373 Y178.959 E179.71922
G1 X203.415 Y181.466 E179.84819
G1 X200.314 Y183.791 E179.97710
G1 X197.077 Y185.927 E180.10609
G1 X193.722 Y187.864 E180.23494
G1 X190.259 Y189.596 E180.36372
G1 X186.683 Y191.125 E180.49307
G1 X183.045 Y192.429 E180.62161
G1 X179.320 Y193.517 E180.75068
G1 X175.531 Y194.382 E180.87995
G1 X171.719 Y195.015 E181.00847
G1 X167.860 Y195.420 E181.13753
G1 X163.982 Y195.595 E181.26664
G1 X160.102 Y195.537 E181.39570
G1 X156.246 Y195.248 E181.52432
G1 X152.400 Y194.727 E181.65340
G1 X148.602 Y193.978 E181.78216
G1 X144.838 Y193.000 E181.91151
G1 X141.156 Y191.804 E182.04027
G1 X137.542 Y190.385 E182.16940
G1 X134.035 Y188.761 E182.29795
G1 X130.610 Y186.918 E182.42731
G1 X127.322 Y184.885 E182.55588
G1 X124.142 Y182.647 E182.68522
G1 X121.121 Y180.237 E182.81375
G1 X118.230 Y177.635 E182.94312
G1 X115.517 Y174.882 E183.07167
G1 X112.959 Y171.953 E183.20101
G1 X110.594 Y168.895 E183.32959
G1 X108.411 Y165.692 E183.45851
G1 X106.416 Y162.353 E183.58788
G1 X104.631 Y158.913 E183.71678
G1 X103.054 Y155.371 E183.84574
G1 X101.694 Y151.750 E183.97439
G1 X100.549 Y148.036 E184.10365
G1 X99.633 Y144.280 E184.23224
G1 X98.940 Y140.463 E184.36127
G1 X98.476 Y136.605 E184.49051
G1 X98.245 Y132.735 E184.61946
G1 X98.245 Y128.870 E184.74801
G1 X98.476 Y125.000 E184.87695
G1 X98.940 Y121.138 E185.00633
G1 X99.633 Y117.324 E185.13526
G1 X100.549 Y113.569 E185.26381
G1 X101.695 Y109.852 E185.39318
G1 X103.054 Y106.233 E185.52176
G1 X104.631 Y102.692 E185.65068
G1 X106.416 Y99.251 E185.77962
G1 X108.411 Y95.912 E185.90898
G0 F12000 X109.200 Y96.423
;TYPE:SKIN
G1 F1800 X109.200 Y165.180 E188.19585
G0 F12000 X109.600 Y165.768
G1 F1800 X109.600 Y95.835 E190.52183
G0 F12000 X110.000 Y95.248
G1 F1800 X110.000 Y166.354 E192.88683
G0 F12000 X110.400 Y166.941
G1 F1800 X110.400 Y94.661 E195.29087
G0 F12000 X110.800 Y94.074
G1 F1800 X110.800 Y167.528 E197.73396
G0 F12000 X111.200 Y168.114
G1 F1800 X111.200 Y93.487 E200.21606
G0 F12000 X111.600 Y92.944
G1 F1800 X111.600 Y168.658 E202.73432
G0 F12000 X112.000 Y169.175
G1 F1800 X112.000 Y92.427 E205.28697
G0 F12000 X112.400 Y91.910
G1 F1800 X112.400 Y169.692 E207.87401
G0 F12000 X112.800 Y170.210
G1 F1800 X112.800 Y91.394 E210.49544
G0 F12000 X113.200 Y90.877
G1 F1800 X113.200 Y170.727 E213.15126
G0 F12000 X113.600 Y171.244
G1 F1800 X113.600 Y90.360 E215.84148
G0 F12000 X114.000 Y89.889
G1 F1800 X114.000 Y171.715 E218.56302
G0 F12000 X114.400 Y172.172
G1 F1800 X114.400 Y89.432 E221.31496
G0 F12000 X114.800 Y88.974
G1 F1800 X114.800 Y172.630 E224.09737
G0 F12000 X115.200 Y173.088
G1 F1800 X115.200 Y88.516 E226.91025
G0 F12000 X115.600 Y88.058
G1 F1800 X115.600 Y173.546 E229.75359
G0 F12000 X116.000 Y174.003
G1 F1800 X116.000 Y87.601 E232.62733
G0 F12000 X116.400 Y87.168
G1 F1800 X116.400 Y174.436 E235.52988
G0 F12000 X116.800 Y174.843
G1 F1800 X116.800 Y86.761 E238.45950
G0 F12000 X117.200 Y86.355
G1 F1800 X117.200 Y175.249 E241.41612
G0 F12000 X117.600 Y175.655
G1 F1800 X117.600 Y85.949 E244.39976
G0 F12000 X118.000 Y85.543
G1 F1800 X118.000 Y176.061 E247.41040
G0 F12000 X118.400 Y176.467
G1 F1800 X118.400 Y85.137 E250.44805
G0 F12000 X118.800 Y84.731
G1 F1800 X118.800 Y176.873 E253.51270
G0 F12000 X119.200 Y177.243
G1 F1800 X119.200 Y84.361 E256.60197
G0 F12000 X119.600 Y84.001
G1 F1800 X119.600 Y177.603 E259.71519
G1 F2100 E259.31519
G0 F12000 X108.800 Y164.511
G1 F2100 E259.71519
G1 F1800 X108.800 Y97.092 E261.95755
G0 F12000 X108.400 Y97.762
G1 F1800 X108.400 Y163.841 E264.15535
G0 F12000 X108.000 Y163.171
G1 F1800 X108.000 Y98.432 E266.30858
G0 F12000 X107.600 Y99.102
G1 F1800 X107.600 Y162.501 E268.41723
G0 F12000 X107.200 Y161.820
G1 F1800 X107.200 Y99.783 E270.48059
G0 F12000 X106.800 Y100.554
G1 F1800 X106.800 Y161.049 E272.49267
G0 F12000 X106.400 Y160.279
G1 F1800 X106.400 Y101.325 E274.45348
G0 F12000 X106.000 Y102.096
G1 F1800 X106.000 Y159.508 E276.36301
G0 F12000 X105.600 Y158.738
G1 F1800 X105.600 Y102.867 E278.22129
G0 F12000 X105.200 Y103.724
G1 F1800 X105.200 Y157.878 E280.02246
G0 F12000 X104.800 Y156.980
G1 F1800 X104.800 Y104.622 E281.76389
G0 F12000 X104.400 Y105.520
G1 F1800 X104.400 Y156.082 E283.44559
G0 F12000 X104.000 Y155.185
G1 F1800 X104.000 Y106.418 E285.06759
G0 F12000 X103.600 Y107.451
G1 F1800 X103.600 Y154.154 E286.62094
G0 F12000 X103.200 Y153.088
G1 F1800 X103.200 Y108.516 E288.10341
G0 F12000 X102.800 Y109.581
G1 F1800 X102.800 Y152.023 E289.51504
G0 F12000 X102.400 Y150.848
G1 F1800 X102.400 Y110.756 E290.84850
G0 F12000 X102.000 Y112.053
G1 F1800 X102.000 Y149.551 E292.09569
G0 F12000 X101.600 Y148.253
G1 F1800 X101.600 Y113.351 E293.25654
G1 F2100 E292.85654
G0 F12000 X101.200 Y114.864
G1 F2100 E293.25654
G1 F1800 X101.200 Y146.735 E294.31657
G1 F2100 E293.91657
G0 F12000 X100.800 Y145.095
G1 F2100 E294.31657
G1 F1800 X100.800 Y116.505 E295.26748
G1 F2100 E294.86748
G0 F12000 X100.400 Y118.362
G1 F2100 E295.26748
G1 F1800 X100.400 Y143.240 E296.09492
G1 F2100 E295.69492
G0 F12000 X100.000 Y141.037
G1 F2100 E296.09492
G1 F1800 X100.000 Y120.563 E296.77589
G1 F2100 E296.37589
G0 F12000 X99.600 Y123.525
G1 F2100 E296.77589
G1 F1800 X99.600 Y138.077 E297.25989
G1 F2100 E296.85989
G0 F12000 X99.200 Y132.961
G1 F2100 E297.25989
G1 F1800 X99.200 Y128.643 E297.40351
G1 F2100 E297.00351
G0 F12000 X120.000 Y83.641
G1 F2100 E297.40351
G1 F1800 X120.000 Y177.963 E300.54067
G0 F12000 X120.400 Y178.323
G1 F1800 X120.400 Y83.281 E303.70178
G0 F12000 X120.800 Y82.921
G1 F1800 X120.800 Y178.683 E306.88684
G0 F12000 X121.200 Y179.043
G1 F1800 X121.200 Y82.561 E310.09584
G0 F12000 X121.600 Y82.200
G1 F1800 X121.600 Y179.404 E313.32886
G0 F12000 X122.000 Y179.735
G1 F1800 X122.000 Y81.869 E316.58390
G0 F12000 X122.400 Y81.550
G1 F1800 X122.400 Y180.054 E319.86015
G0 F12000 X122.800 Y180.373
G1 F1800 X122.800 Y81.231 E323.15763
G0 F12000 X123.200 Y80.912
G1 F1800 X123.200 Y180.692 E326.47633
G0 F12000 X123.600 Y181.011
G1 F1800 X123.600 Y80.593 E329.81624
G0 F12000 X124.000 Y80.274
G1 F1800 X124.000 Y181.330 E333.17738
G0 F12000 X124.400 Y181.649
G1 F1800 X124.400 Y79.955 E336.55973
G0 F12000 X124.800 Y79.644
G1 F1800 X124.800 Y181.960 E339.96278
G0 F12000 X125.200 Y182.241
G1 F1800 X125.200 Y79.363 E343.38451
G0 F12000 X125.600 Y79.081
G1 F1800 X125.600 Y182.523 E346.82501
G0 F12000 X126.000 Y182.804
G1 F1800 X126.000 Y78.800 E350.28420
G0 F12000 X126.400 Y78.518
G1 F1800 X126.400 Y183.086 E353.76214
G0 F12000 X126.800 Y183.367
G1 F1800 X126.800 Y78.237 E357.25878
G0 F12000 X127.200 Y77.956
G1 F1800 X127.200 Y183.648 E360.77411
G0 F12000 X127.600 Y183.930
G1 F1800 X127.600 Y77.674 E364.30820
G0 F12000 X128.000 Y77.406
G1 F1800 X128.000 Y184.198 E367.86012
G0 F12000 X128.400 Y184.445
G1 F1800 X128.400 Y77.159 E371.42846
G0 F12000 X128.800 Y76.912
G1 F1800 X128.800 Y184.692 E375.01324
G0 F12000 X129.200 Y184.940
G1 F1800 X129.200 Y76.664 E378.61451
G0 F12000 X129.600 Y76.417
G1 F1800 X129.600 Y185.187 E382.23222
G0 F12000 X130.000 Y185.434
G1 F1800 X130.000 Y76.170 E385.86635
G0 F12000 X130.400 Y75.923
G1 F1800 X130.400 Y185.681 E389.51692
G0 F12000 X130.800 Y185.929
G1 F1800 X130.800 Y75.675 E393.18398
G0 F12000 X131.200 Y75.437
G1 F1800 X131.200 Y186.167 E396.86688
G0 F12000 X131.600 Y186.382
G1 F1800 X131.600 Y75.222 E400.56408
G0 F12000 X132.000 Y75.007
G1 F1800 X132.000 Y186.597 E404.27557
G0 F12000 X132.400 Y186.813
G1 F1800 X132.400 Y74.792 E408.00141
G0 F12000 X132.800 Y74.577
G1 F1800 X132.800 Y187.028 E411.74154
G0 F12000 X133.200 Y187.243
G1 F1800 X133.200 Y74.361 E415.49601
G0 F12000 X133.600 Y74.146
G1 F1800 X133.600 Y187.459 E419.26482
G0 F12000 X134.000 Y187.674
G1 F1800 X134.000 Y73.931 E423.04793
G0 F12000 X134.400 Y73.716
G1 F1800 X134.400 Y187.889 E426.84534
G0 F12000 X134.800 Y188.080
G1 F1800 X134.800 Y73.525 E430.65545
G0 F12000 X135.200 Y73.340
G1 F1800 X135.200 Y188.265 E434.47787
G0 F12000 X135.600 Y188.450
G1 F1800 X135.600 Y73.155 E438.31260
G0 F12000 X136.000 Y72.969
G1 F1800 X136.000 Y188.635 E442.15967
G0 F12000 X136.400 Y188.820
G1 F1800 X136.400 Y72.784 E446.01904
G0 F12000 X136.800 Y72.599
G1 F1800 X136.800 Y189.005 E449.89072
G0 F12000 X137.200 Y189.191
G1 F1800 X137.200 Y72.414 E453.77474
G0 F12000 X137.600 Y72.228
G1 F1800 X137.600 Y189.376 E457.67109
G0 F12000 X138.000 Y189.554
G1 F1800 X138.000 Y72.050 E461.57929
G0 F12000 X138.400 Y71.893
G1 F1800 X138.400 Y189.711 E465.49794
G0 F12000 X138.800 Y189.869
G1 F1800 X138.800 Y71.735 E469.42709
G0 F12000 X139.200 Y71.578
G1 F1800 X139.200 Y190.026 E473.36669
G0 F12000 X139.600 Y190.183
G1 F1800 X139.600 Y71.421 E477.31673
G0 F12000 X140.000 Y71.264
G1 F1800 X140.000 Y190.340 E481.27721
G0 F12000 X140.400 Y190.497
G1 F1800 X140.400 Y71.107 E485.24814
G0 F12000 X140.800 Y70.949
G1 F1800 X140.800 Y190.655 E489.22957
G0 F12000 X141.200 Y190.812
G1 F1800 X141.200 Y70.792 E493.22146
G0 F12000 X141.600 Y70.644
G1 F1800 X141.600 Y190.960 E497.22318
G0 F12000 X142.000 Y191.090
G1 F1800 X142.000 Y70.514 E501.23356
G0 F12000 X142.400 Y70.384
G1 F1800 X142.400 Y191.220 E505.25258
G0 F12000 X142.800 Y191.350
G1 F1800 X142.800 Y70.254 E509.28025
G0 F12000 X143.200 Y70.124
G1 F1800 X143.200 Y191.480 E513.31656
G0 F12000 X143.600 Y191.610
G1 F1800 X143.600 Y69.994 E517.36153
G0 F12000 X144.000 Y69.865
G1 F1800 X144.000 Y191.739 E521.41508
G0 F12000 X144.400 Y191.869
G1 F1800 X144.400 Y69.735 E525.47727
G0 F12000 X144.800 Y69.605
G1 F1800 X144.800 Y191.999 E529.54811
G0 F12000 X145.200 Y192.123
G1 F1800 X145.200 Y69.481 E533.62720
G0 F12000 X145.600 Y69.377
G1 F1800 X145.600 Y192.227 E537.71321
G0 F12000 X146.000 Y192.331
G1 F1800 X146.000 Y69.273 E541.80613
G0 F12000 X146.400 Y69.169
G1 F1800 X146.400 Y192.435 E545.90598
G0 F12000 X146.800 Y192.539
G1 F1800 X146.800 Y69.065 E550.01274
G0 F12000 X147.200 Y68.961
G1 F1800 X147.200 Y192.643 E554.12642
G0 F12000 X147.600 Y192.747
G1 F1800 X147.600 Y68.857 E558.24702
G0 F12000 X148.000 Y68.753
G1 F1800 X148.000 Y192.851 E562.37453
G0 F12000 X148.400 Y192.955
G1 F1800 X148.400 Y68.649 E566.50897
G0 F12000 X148.800 Y68.545
G1 F1800 X148.800 Y193.059 E570.65032
G0 F12000 X149.200 Y193.138
G1 F1800 X149.200 Y68.466 E574.79693
G0 F12000 X149.600 Y68.387
G1 F1800 X149.600 Y193.217 E578.94879
G0 F12000 X150.000 Y193.296
G1 F1800 X150.000 Y68.308 E583.10591
G0 F12000 X150.400 Y68.229
G1 F1800 X150.400 Y193.375 E587.26828
G0 F12000 X150.800 Y193.454
G1 F1800 X150.800 Y68.150 E591.43591
G0 F12000 X151.200 Y68.072
G1 F1800 X151.200 Y193.532 E595.60872
G0 F12000 X151.600 Y193.611
G1 F1800 X151.600 Y67.993 E599.78680
G0 F12000 X152.000 Y67.914
G1 F1800 X152.000 Y193.690 E603.97012
G0 F12000 X152.400 Y193.769
G1 F1800 X152.400 Y67.835 E608.15870
G0 F12000 X152.800 Y67.772
G1 F1800 X152.800 Y193.832 E612.35148
G0 F12000 X153.200 Y193.886
G1 F1800 X153.200 Y67.718 E616.54784
G0 F12000 X153.600 Y67.663
G1 F1800 X153.600 Y193.941 E620.74787
G0 F12000 X154.000 Y193.995
G1 F1800 X154.000 Y67.609 E624.95148
G0 F12000 X154.400 Y67.555
G1 F1800 X154.400 Y194.049 E629.15869
G0 F12000 X154.800 Y194.103
G1 F1800 X154.800 Y67.501 E633.36949
G0 F12000 X155.200 Y67.447
G1 F1800 X155.200 Y194.157 E637.58388
G0 F12000 X155.600 Y194.211
G1 F1800 X155.600 Y67.393 E641.80186
G0 F12000 X156.000 Y67.339
G1 F1800 X156.000 Y194.265 E646.02344
G0 F12000 X156.400 Y194.316
G1 F1800 X156.400 Y67.288 E650.24841
G0 F12000 X156.800 Y67.258
G1 F1800 X156.800 Y194.346 E654.47537
G0 F12000 X157.200 Y194.376
G1 F1800 X157.200 Y67.228 E658.70433
G0 F12000 X157.600 Y67.198
G1 F1800 X157.600 Y194.406 E662.93529
G0 F12000 X158.000 Y194.436
G1 F1800 X158.000 Y67.168 E667.16824
G0 F12000 X158.400 Y67.138
G1 F1800 X158.400 Y128.855 E669.22095
G0 F12000 X158.800 Y128.058
G1 F1800 X158.800 Y67.108 E671.24816
G0 F12000 X159.200 Y67.079
G1 F1800 X159.200 Y127.555 E673.25960
G0 F12000 X159.600 Y127.078
G1 F1800 X159.600 Y67.049 E675.25617
G0 F12000 X160.000 Y67.019
G1 F1800 X160.000 Y126.779 E677.24380
G0 F12000 X160.400 Y126.481
G1 F1800 X160.400 Y67.004 E679.22201
G0 F12000 X160.800 Y66.998
G1 F1800 X160.800 Y126.258 E681.19301
G0 F12000 X161.200 Y126.086
G1 F1800 X161.200 Y66.992 E683.15848
G0 F12000 X161.600 Y66.986
G1 F1800 X161.600 Y125.913 E685.11840
G0 F12000 X162.000 Y125.827
G1 F1800 X162.000 Y66.980 E687.07566
G0 F12000 X162.400 Y66.974
G1 F1800 X162.400 Y125.757 E689.03079
G0 F12000 X162.800 Y125.687
G1 F1800 X162.800 Y66.968 E690.98379
G0 F12000 X163.200 Y66.961
G1 F1800 X163.200 Y125.702 E692.93752
G0 F12000 X163.600 Y125.725
G1 F1800 X163.600 Y66.955 E694.89222
G0 F12000 X164.000 Y66.952
G1 F1800 X164.000 Y125.748 E696.84779
G0 F12000 X164.400 Y125.860
G1 F1800 X164.400 Y66.970 E698.80648
G0 F12000 X164.800 Y66.988
G1 F1800 X164.800 Y125.979 E700.76852
G0 F12000 X165.200 Y126.108
G1 F1800 X165.200 Y67.006 E702.73426
G0 F12000 X165.600 Y67.024
G1 F1800 X165.600 Y126.338 E704.70706
G0 F12000 X166.000 Y126.569
G1 F1800 X166.000 Y67.042 E706.68693
G0 F12000 X166.400 Y67.060
G1 F1800 X166.400 Y126.871 E708.67625
G0 F12000 X166.800 Y127.250
G1 F1800 X166.800 Y67.078 E710.67758
G0 F12000 X167.200 Y67.096
G1 F1800 X167.200 Y127.697 E712.69318
G0 F12000 X167.600 Y128.305
G1 F1800 X167.600 Y67.114 E714.72840
G0 F12000 X168.000 Y67.145
G1 F1800 X168.000 Y129.236 E716.79356
G1 F2100 E716.39356
G0 F12000 X168.000 Y132.399
G1 F2100 E716.79356
G1 F1800 X168.000 Y194.461 E718.85775
G0 F12000 X167.600 Y194.492
G1 F1800 X167.600 Y133.330 E720.89200
G0 F12000 X167.200 Y133.938
G1 F1800 X167.200 Y194.510 E722.90664
G0 F12000 X166.800 Y194.528
G1 F1800 X166.800 Y134.388 E724.90690
G0 F12000 X166.400 Y134.766
G1 F1800 X166.400 Y194.546 E726.89519
G0 F12000 X166.000 Y194.564
G1 F1800 X166.000 Y135.067 E728.87407
G0 F12000 X165.600 Y135.299
G1 F1800 X165.600 Y194.582 E730.84583
G0 F12000 X165.200 Y194.600
G1 F1800 X165.200 Y135.530 E732.81051
G0 F12000 X164.800 Y135.658
G1 F1800 X164.800 Y194.618 E734.77152
G0 F12000 X164.400 Y194.636
G1 F1800 X164.400 Y135.777 E736.72918
G0 F12000 X164.000 Y135.888
G1 F1800 X164.000 Y194.654 E738.68375
G0 F12000 X163.600 Y194.649
G1 F1800 X163.600 Y135.911 E740.63738
G0 F12000 X163.200 Y135.935
G1 F1800 X163.200 Y194.643 E742.59002
G0 F12000 X162.800 Y194.637
G1 F1800 X162.800 Y135.954 E744.54182
G0 F12000 X162.400 Y135.883
G1 F1800 X162.400 Y194.631 E746.49579
G0 F12000 X162.000 Y194.625
G1 F1800 X162.000 Y135.812 E748.45192
G0 F12000 X161.600 Y135.725
G1 F1800 X161.600 Y194.619 E750.41074
G0 F12000 X161.200 Y194.613
G1 F1800 X161.200 Y135.553 E752.37508
G0 F12000 X160.800 Y135.381
G1 F1800 X160.800 Y194.607 E754.34495
G0 F12000 X160.400 Y194.600
G1 F1800 X160.400 Y135.159 E756.32196
G0 F12000 X160.000 Y134.860
G1 F1800 X160.000 Y194.586 E758.30846
G1 F2100 E757.90846
G0 F12000 X168.400 Y194.419
G1 F2100 E758.30846
G1 F1800 X168.400 Y67.187 E762.54021
G0 F12000 X168.800 Y67.229
G1 F1800 X168.800 Y194.377 E766.76917
G0 F12000 X169.200 Y194.334
G1 F1800 X169.200 Y67.272 E770.99527
G0 F12000 X169.600 Y67.314
G1 F1800 X169.600 Y194.292 E775.21858
G0 F12000 X170.000 Y194.250
G1 F1800 X170.000 Y67.356 E779.43909
G0 F12000 X170.400 Y67.398
G1 F1800 X170.400 Y194.208 E783.65681
G0 F12000 X170.800 Y194.166
G1 F1800 X170.800 Y67.440 E787.87173
G0 F12000 X171.200 Y67.482
G1 F1800 X171.200 Y194.124 E792.08386
G0 F12000 X171.600 Y194.082
G1 F1800 X171.600 Y67.524 E796.29320
G0 F12000 X172.000 Y67.590
G1 F1800 X172.000 Y194.016 E800.49814
G0 F12000 X172.400 Y193.950
G1 F1800 X172.400 Y67.656 E804.69870
G0 F12000 X172.800 Y67.722
G1 F1800 X172.800 Y193.884 E808.89486
G0 F12000 X173.200 Y193.817
G1 F1800 X173.200 Y67.789 E813.08657
G0 F12000 X173.600 Y67.855
G1 F1800 X173.600 Y193.751 E817.27389
G0 F12000 X174.000 Y193.685
G1 F1800 X174.000 Y67.921 E821.45682
G0 F12000 X174.400 Y67.988
G1 F1800 X174.400 Y193.618 E825.63529
G0 F12000 X174.800 Y193.552
G1 F1800 X174.800 Y68.054 E829.80937
G0 F12000 X175.200 Y68.120
G1 F1800 X175.200 Y193.486 E833.97906
G0 F12000 X175.600 Y193.403
G1 F1800 X175.600 Y68.203 E838.14323
G0 F12000 X176.000 Y68.295
G1 F1800 X176.000 Y193.311 E842.30127
G0 F12000 X176.400 Y193.220
G1 F1800 X176.400 Y68.386 E846.45327
G0 F12000 X176.800 Y68.477
G1 F1800 X176.800 Y193.129 E850.59921
G0 F12000 X177.200 Y193.037
G1 F1800 X177.200 Y68.569 E854.73904
G0 F12000 X177.600 Y68.660
G1 F1800 X177.600 Y192.946 E858.87280
G0 F12000 X178.000 Y192.855
G1 F1800 X178.000 Y68.751 E863.00052
G0 F12000 X178.400 Y68.843
G1 F1800 X178.400 Y192.763 E867.12212
G0 F12000 X178.800 Y192.672
G1 F1800 X178.800 Y68.934 E871.23766
G0 F12000 X179.200 Y69.033
G1 F1800 X179.200 Y192.573 E875.34662
G0 F12000 X179.600 Y192.456
G1 F1800 X179.600 Y69.150 E879.44779
G0 F12000 X180.000 Y69.266
G1 F1800 X180.000 Y192.340 E883.54125
G0 F12000 X180.400 Y192.223
G1 F1800 X180.400 Y69.383 E887.62692
G0 F12000 X180.800 Y69.500
G1 F1800 X180.800 Y192.106 E891.70481
G0 F12000 X181.200 Y191.989
G1 F1800 X181.200 Y69.617 E895.77492
G0 F12000 X181.600 Y69.734
G1 F1800 X181.600 Y191.872 E899.83725
G0 F12000 X182.000 Y191.755
G1 F1800 X182.000 Y69.851 E903.89179
G0 F12000 X182.400 Y69.967
G1 F1800 X182.400 Y191.639 E907.93862
G0 F12000 X182.800 Y191.519
G1 F1800 X182.800 Y70.087 E911.97747
G0 F12000 X183.200 Y70.230
G1 F1800 X183.200 Y191.376 E916.00680
G0 F12000 X183.600 Y191.233
G1 F1800 X183.600 Y70.373 E920.02662
G0 F12000 X184.000 Y70.517
G1 F1800 X184.000 Y191.089 E924.03686
G0 F12000 X184.400 Y190.946
G1 F1800 X184.400 Y70.660 E928.03759
G0 F12000 X184.800 Y70.804
G1 F1800 X184.800 Y190.802 E932.02874
G0 F12000 X185.200 Y190.659
G1 F1800 X185.200 Y70.947 E936.01037
G0 F12000 X185.600 Y71.090
G1 F1800 X185.600 Y190.516 E939.98250
G0 F12000 X186.000 Y190.372
G1 F1800 X186.000 Y71.234 E943.94505
G0 F12000 X186.400 Y71.381
G1 F1800 X186.400 Y190.225 E947.89781
G0 F12000 X186.800 Y190.054
G1 F1800 X186.800 Y71.552 E951.83921
G0 F12000 X187.200 Y71.723
G1 F1800 X187.200 Y189.883 E955.76922
G0 F12000 X187.600 Y189.712
G1 F1800 X187.600 Y71.894 E959.68787
G0 F12000 X188.000 Y72.066
G1 F1800 X188.000 Y189.540 E963.59507
G0 F12000 X188.400 Y189.369
G1 F1800 X188.400 Y72.237 E967.49089
G0 F12000 X188.800 Y72.408
G1 F1800 X188.800 Y189.198 E971.37534
G0 F12000 X189.200 Y189.027
G1 F1800 X189.200 Y72.579 E975.24842
G0 F12000 X189.600 Y72.750
G1 F1800 X189.600 Y188.856 E979.11012
G0 F12000 X190.000 Y188.675
G1 F1800 X190.000 Y72.931 E982.95978
G0 F12000 X190.400 Y73.131
G1 F1800 X190.400 Y188.475 E986.79614
G0 F12000 X190.800 Y188.275
G1 F1800 X190.800 Y73.331 E990.61919
G0 F12000 X191.200 Y73.531
G1 F1800 X191.200 Y188.075 E994.42894
G0 F12000 X191.600 Y187.875
G1 F1800 X191.600 Y73.731 E998.22539
G0 F12000 X192.000 Y73.931
G1 F1800 X192.000 Y187.675 E1002.00853
G0 F12000 X192.400 Y187.475
G1 F1800 X192.400 Y74.131 E1005.77836
G0 F12000 X192.800 Y74.331
G1 F1800 X192.800 Y187.275 E1009.53490
G0 F12000 X193.200 Y187.075
G1 F1800 X193.200 Y74.531 E1013.27813
G0 F12000 X193.600 Y74.756
G1 F1800 X193.600 Y186.849 E1017.00635
G0 F12000 X194.000 Y186.619
G1 F1800 X194.000 Y74.987 E1020.71925
G0 F12000 X194.400 Y75.218
G1 F1800 X194.400 Y186.388 E1024.41678
G0 F12000 X194.800 Y186.157
G1 F1800 X194.800 Y75.449 E1028.09894
G0 F12000 X195.200 Y75.680
G1 F1800 X195.200 Y185.926 E1031.76574
G0 F12000 X195.600 Y185.695
G1 F1800 X195.600 Y75.910 E1035.41720
G0 F12000 X196.000 Y76.141
G1 F1800 X196.000 Y185.464 E1039.05330
G0 F12000 X196.400 Y185.234
G1 F1800 X196.400 Y76.372 E1042.67406
G0 F12000 X196.800 Y76.622
G1 F1800 X196.800 Y184.984 E1046.27820
G0 F12000 X197.200 Y184.720
G1 F1800 X197.200 Y76.886 E1049.86477
G0 F12000 X197.600 Y77.150
G1 F1800 X197.600 Y184.456 E1053.43378
G0 F12000 X198.000 Y184.192
G1 F1800 X198.000 Y77.414 E1056.98524
G0 F12000 X198.400 Y77.677
G1 F1800 X198.400 Y183.929 E1060.51919
G0 F12000 X198.800 Y183.665
G1 F1800 X198.800 Y77.941 E1064.03559
G0 F12000 X199.200 Y78.205
G1 F1800 X199.200 Y183.401 E1067.53442
G0 F12000 X199.600 Y183.137
G1 F1800 X199.600 Y78.469 E1071.01569
G0 F12000 X200.000 Y78.753
G1 F1800 X200.000 Y182.853 E1074.47807
G0 F12000 X200.400 Y182.553
G1 F1800 X200.400 Y79.053 E1077.92049
G0 F12000 X200.800 Y79.353
G1 F1800 X200.800 Y182.253 E1081.34296
G0 F12000 X201.200 Y181.953
G1 F1800 X201.200 Y79.653 E1084.74547
G0 F12000 X201.600 Y79.953
G1 F1800 X201.600 Y181.653 E1088.12803
G0 F12000 X202.000 Y181.353
G1 F1800 X202.000 Y80.253 E1091.49063
G0 F12000 X202.400 Y80.553
G1 F1800 X202.400 Y181.053 E1094.83327
G0 F12000 X202.800 Y180.753
G1 F1800 X202.800 Y80.853 E1098.15596
G0 F12000 X203.200 Y81.191
G1 F1800 X203.200 Y180.417 E1101.45623
G0 F12000 X203.600 Y180.078
G1 F1800 X203.600 Y81.530 E1104.73395
G0 F12000 X204.000 Y81.869
G1 F1800 X204.000 Y179.739 E1107.98912
G0 F12000 X204.400 Y179.400
G1 F1800 X204.400 Y82.208 E1111.22174
G0 F12000 X204.800 Y82.546
G1 F1800 X204.800 Y179.061 E1114.43184
G0 F12000 X205.200 Y178.722
G1 F1800 X205.200 Y82.885 E1117.61939
G0 F12000 X205.600 Y83.224
G1 F1800 X205.600 Y178.383 E1120.78439
G0 F12000 X206.000 Y178.016
G1 F1800 X206.000 Y83.591 E1123.92498
G0 F12000 X206.400 Y83.974
G1 F1800 X206.400 Y177.633 E1127.04009
G0 F12000 X206.800 Y177.251
G1 F1800 X206.800 Y84.356 E1130.12979
G0 F12000 X207.200 Y84.738
G1 F1800 X207.200 Y176.868 E1133.19405
G0 F12000 X207.600 Y176.486
G1 F1800 X207.600 Y85.120 E1136.23290
G0 F12000 X208.000 Y85.503
G1 F1800 X208.000 Y176.103 E1139.24626
G0 F12000 X208.400 Y175.721
G1 F1800 X208.400 Y85.885 E1142.23422
G0 F12000 X208.800 Y86.304
G1 F1800 X208.800 Y175.303 E1145.19434
G0 F12000 X209.200 Y174.871
G1 F1800 X209.200 Y86.735 E1148.12576
G0 F12000 X209.600 Y87.166
G1 F1800 X209.600 Y174.440 E1151.02850
G0 F12000 X210.000 Y174.009
G1 F1800 X210.000 Y87.598 E1153.90254
G0 F12000 X210.400 Y88.029
G1 F1800 X210.400 Y173.577 E1156.74788
G0 F12000 X210.800 Y173.146
G1 F1800 X210.800 Y88.460 E1159.56455
G0 F12000 X211.200 Y88.904
G1 F1800 X211.200 Y172.702 E1162.35168
G0 F12000 X211.600 Y172.216
G1 F1800 X211.600 Y89.390 E1165.10648
G0 F12000 X212.000 Y89.876
G1 F1800 X212.000 Y171.730 E1167.82896
G0 F12000 X212.400 Y171.244
G1 F1800 X212.400 Y90.362 E1170.51911
G0 F12000 X212.800 Y90.848
G1 F1800 X212.800 Y170.757 E1173.17689
G0 F12000 X213.200 Y170.271
G1 F1800 X213.200 Y91.334 E1175.80235
G0 F12000 X213.600 Y91.832
G1 F1800 X213.600 Y169.773 E1178.39467
G0 F12000 X214.000 Y169.222
G1 F1800 X214.000 Y92.383 E1180.95035
G0 F12000 X214.400 Y92.933
G1 F1800 X214.400 Y168.672 E1183.46944
G0 F12000 X214.800 Y168.121
G1 F1800 X214.800 Y93.484 E1185.95187
G0 F12000 X215.200 Y94.034
G1 F1800 X215.200 Y167.571 E1188.39773
G0 F12000 X215.600 Y167.020
G1 F1800 X215.600 Y94.585 E1190.80692
G0 F12000 X216.000 Y95.178
G1 F1800 X216.000 Y166.428 E1193.17671
G0 F12000 X216.400 Y165.802
G1 F1800 X216.400 Y95.804 E1195.50485
G0 F12000 X216.800 Y96.430
G1 F1800 X216.800 Y165.176 E1197.79135
G0 F12000 X217.200 Y164.550
G1 F1800 X217.200 Y97.056 E1200.03621
G0 F12000 X217.600 Y97.682
G1 F1800 X217.600 Y163.924 E1202.23943
G0 F12000 X218.000 Y163.262
G1 F1800 X218.000 Y98.344 E1204.39861
G0 F12000 X218.400 Y99.061
G1 F1800 X218.400 Y162.545 E1206.51010
G0 F12000 X218.800 Y161.827
G1 F1800 X218.800 Y99.778 E1208.57386
G0 F12000 X219.200 Y100.496
G1 F1800 X219.200 Y161.109 E1210.58985
G0 F12000 X219.600 Y160.392
G1 F1800 X219.600 Y101.213 E1212.55815
G0 F12000 X220.000 Y102.017
G1 F1800 X220.000 Y159.588 E1214.47297
G0 F12000 X220.400 Y158.756
G1 F1800 X220.400 Y102.848 E1216.33248
G0 F12000 X220.800 Y103.679
G1 F1800 X220.800 Y157.925 E1218.13671
G0 F12000 X221.200 Y157.094
G1 F1800 X221.200 Y104.511 E1219.88563
G0 F12000 X221.600 Y105.431
G1 F1800 X221.600 Y156.175 E1221.57338
G0 F12000 X222.000 Y155.199
G1 F1800 X222.000 Y106.407 E1223.19621
G0 F12000 X222.400 Y107.382
G1 F1800 X222.400 Y154.223 E1224.75415
G0 F12000 X222.800 Y153.247
G1 F1800 X222.800 Y108.358 E1226.24716
G0 F12000 X223.200 Y109.527
G1 F1800 X223.200 Y152.077 E1227.66238
G0 F12000 X223.600 Y150.906
G1 F1800 X223.600 Y110.699 E1228.99967
G0 F12000 X224.000 Y111.870
G1 F1800 X224.000 Y149.734 E1230.25903
G0 F12000 X224.400 Y148.307
G1 F1800 X224.400 Y113.297 E1231.42347
G1 F2100 E1231.02347
G0 F12000 X224.800 Y114.747
G1 F2100 E1231.42347
G1 F1800 X224.800 Y146.857 E1232.49145
G1 F2100 E1232.09145
G0 F12000 X225.200 Y145.248
G1 F2100 E1232.49145
G1 F1800 X225.200 Y116.356 E1233.45240
G1 F2100 E1233.05240
G0 F12000 X225.600 Y118.236
G1 F2100 E1233.45240
G1 F1800 X225.600 Y143.369 E1234.28833
G1 F2100 E1233.88833
G0 F12000 X226.000 Y141.196
G1 F2100 E1234.28833
G1 F1800 X226.000 Y120.410 E1234.97968
G1 F2100 E1234.57968
G0 F12000 X226.400 Y123.062
G1 F2100 E1234.97968
G1 F1800 X226.400 Y138.543 E1235.49458
G1 F2100 E1235.09458
G0 F12000 X226.800 Y133.254
G1 F2100 E1235.49458
G1 F1800 X226.800 Y128.346 E1235.65782
G1 F2100 E1235.25782
G0 F12000 X159.600 Y134.560
G1 F2100 E1235.65782
G1 F1800 X159.600 Y194.556 E1237.65329
G0 F12000 X159.200 Y194.526
G1 F1800 X159.200 Y134.084 E1239.66360
G0 F12000 X158.800 Y133.578
G1 F1800 X158.800 Y194.496 E1241.68974
G0 F12000 X158.400 Y194.466
G1 F1800 X158.400 Y132.784 E1243.74129
;LAYER:1
M106 S2
G0 F12000 X158.375 Y132.293 Z0.350
;TYPE:WALL-INNER
G1 F2220 X158.432 Y132.532 E1243.74741
G1 X158.843 Y133.350 E1243.77019
G1 X158.954 Y133.569 E1243.77629
G1 X159.544 Y134.272 E1243.79913
G1 X159.702 Y134.459 E1243.80522
G1 X160.434 Y135.005 E1243.82795
G1 X160.631 Y135.152 E1243.83406
G1 X161.700 Y135.613 E1243.86303
G1 X162.596 Y135.770 E1243.88566
G1 X162.839 Y135.814 E1243.89181
G1 X163.761 Y135.761 E1243.91479
G1 X164.005 Y135.746 E1243.92087
G1 X164.881 Y135.484 E1243.94362
G1 X165.116 Y135.413 E1243.94973
G1 X166.123 Y134.832 E1243.97866
G1 X166.790 Y134.203 E1244.00147
G1 X166.968 Y134.034 E1244.00758
G1 X167.468 Y133.272 E1244.03026
G1 X167.604 Y133.067 E1244.03638
G1 X168.003 Y131.973 E1244.06536
G1 X168.138 Y130.819 E1244.09427
G1 X168.003 Y129.664 E1244.12320
G1 X167.688 Y128.802 E1244.14604
G1 X167.605 Y128.573 E1244.15210
G1 X167.101 Y127.806 E1244.17493
G1 X166.966 Y127.602 E1244.18102
G1 X166.123 Y126.805 E1244.20989
G1 X165.115 Y126.224 E1244.23884
G1 X164.239 Y125.962 E1244.26159
G1 X164.004 Y125.891 E1244.26770
G1 X163.091 Y125.839 E1244.29045
G1 X162.845 Y125.824 E1244.29659
G1 X161.937 Y125.983 E1244.31952
G1 X161.696 Y126.027 E1244.32562
G1 X160.633 Y126.485 E1244.35442
G1 X159.896 Y127.033 E1244.37727
G1 X159.699 Y127.180 E1244.38339
G1 X159.114 Y127.879 E1244.40607
G1 X158.954 Y128.067 E1244.41221
G1 X158.543 Y128.887 E1244.43504
G1 X158.432 Y129.107 E1244.44117
G1 X158.222 Y129.997 E1244.46392
G1 X158.164 Y130.237 E1244.47006
G1 X158.164 Y131.399 E1244.49898
G1 X158.375 Y132.293 E1244.52183
G1 F2100 E1244.12183
G0 F12000 X102.448 Y151.487
G1 F2100 E1244.52183
G1 F2220 X101.320 Y147.830 E1244.61706
G1 X100.411 Y144.103 E1244.71252
G1 X99.727 Y140.341 E1244.80766
G1 X99.270 Y136.535 E1244.90304
G1 X99.042 Y132.721 E1244.99812
G1 X99.042 Y128.884 E1245.09359
G1 X99.270 Y125.070 E1245.18866
G1 X99.727 Y121.263 E1245.28407
G1 X100.411 Y117.501 E1245.37922
G1 X101.320 Y113.775 E1245.47465
G1 X102.448 Y110.117 E1245.56990
G1 X103.795 Y106.530 E1245.66524
G1 X105.355 Y103.026 E1245.76068
G1 X107.115 Y99.633 E1245.85579
G1 X109.075 Y96.353 E1245.95086
G1 X111.245 Y93.170 E1246.04672
G1 X113.571 Y90.162 E1246.14134
G1 X116.099 Y87.269 E1246.23693
G1 X118.786 Y84.541 E1246.33221
G1 X121.631 Y81.980 E1246.42746
G1 X124.628 Y79.590 E1246.52284
G1 X127.757 Y77.388 E1246.61805
G1 X131.014 Y75.375 E1246.71332
G1 X134.379 Y73.565 E1246.80839
G1 X137.868 Y71.948 E1246.90408
G1 X141.426 Y70.551 E1246.99919
G1 X145.066 Y69.369 E1247.09442
G1 X146.073 Y69.108 E1247.12031
G1 X148.781 Y68.404 E1247.18993
G1 X152.526 Y67.665 E1247.28491
G1 X156.328 Y67.151 E1247.38038
G1 X160.138 Y66.866 E1247.47545
G1 X163.975 Y66.807 E1247.57093
G1 X167.791 Y66.979 E1247.66598
G1 X171.607 Y67.380 E1247.76146
G1 X175.389 Y68.008 E1247.85685
G1 X179.120 Y68.860 E1247.95208
G1 X182.785 Y69.930 E1248.04708
G1 X186.398 Y71.225 E1248.14258
G1 X189.918 Y72.730 E1248.23784
G1 X193.344 Y74.443 E1248.33315
G1 X196.666 Y76.361 E1248.42860
G1 X199.850 Y78.463 E1248.52353
G1 X202.924 Y80.768 E1248.61914
G1 X205.844 Y83.243 E1248.71438
G1 X208.604 Y85.881 E1248.80938
G1 X211.208 Y88.688 E1248.90466
G1 X213.646 Y91.652 E1249.00015
G1 X215.904 Y94.760 E1249.09574
G1 X217.954 Y97.968 E1249.19047
G1 X219.819 Y101.312 E1249.28575
G1 X221.483 Y104.770 E1249.38124
G1 X222.936 Y108.314 E1249.47654
G1 X224.176 Y111.946 E1249.57204
G1 X225.193 Y115.631 E1249.66716
G1 X225.988 Y119.369 E1249.76225
G1 X226.560 Y123.162 E1249.85770
G1 X226.902 Y126.967 E1249.95276
G1 X226.932 Y128.012 E1249.97877
G1 X227.016 Y130.802 E1250.04823
G1 X226.986 Y131.840 E1250.07407
G1 X226.902 Y134.637 E1250.14370
G1 X226.560 Y138.443 E1250.23878
G1 X225.988 Y142.235 E1250.33420
G1 X225.193 Y145.973 E1250.42930
G1 X224.176 Y149.658 E1250.52442
G1 X222.936 Y153.290 E1250.61991
G1 X221.483 Y156.834 E1250.71522
G1 X219.819 Y160.292 E1250.81071
G1 X217.954 Y163.636 E1250.90598
G1 X215.904 Y166.844 E1251.00071
G1 X213.640 Y169.961 E1251.09657
G1 X211.215 Y172.909 E1251.19156
G1 X208.611 Y175.716 E1251.28683
G1 X205.835 Y178.371 E1251.38241
G1 X202.924 Y180.837 E1251.47734
G1 X199.850 Y183.142 E1251.57294
G1 X196.666 Y185.244 E1251.66788
G1 X193.344 Y187.162 E1251.76333
G1 X189.918 Y188.875 E1251.85864
G1 X186.398 Y190.380 E1251.95389
G1 X182.785 Y191.675 E1252.04940
G1 X179.120 Y192.745 E1252.14440
G1 X175.389 Y193.597 E1252.23963
G1 X171.607 Y194.225 E1252.33502
G1 X167.791 Y194.626 E1252.43050
G1 X163.974 Y194.798 E1252.52557
G1 X162.934 Y194.783 E1252.55145
G1 X160.139 Y194.740 E1252.62101
G1 X156.327 Y194.454 E1252.71613
G1 X152.526 Y193.940 E1252.81157
G1 X148.777 Y193.200 E1252.90665
G1 X147.768 Y192.939 E1252.93258
G1 X145.062 Y192.235 E1253.00216
G1 X141.426 Y191.054 E1253.09728
G1 X137.868 Y189.657 E1253.19240
G1 X134.379 Y188.041 E1253.28807
G1 X131.014 Y186.230 E1253.38316
G1 X127.757 Y184.217 E1253.47843
G1 X124.628 Y182.015 E1253.57364
G1 X121.631 Y179.625 E1253.66902
G1 X118.786 Y177.064 E1253.76427
G1 X116.099 Y174.336 E1253.85955
G1 X113.580 Y171.453 E1253.95481
G1 X111.237 Y168.423 E1254.05012
G1 X109.075 Y165.251 E1254.14563
G1 X107.115 Y161.971 E1254.24071
G1 X105.355 Y158.579 E1254.33580
G1 X103.795 Y155.074 E1254.43126
G1 X102.448 Y151.487 E1254.52660
G0 F12000 X102.067 Y151.609
G1 F2220 X100.936 Y147.942 E1254.62209
G1 X100.020 Y144.188 E1254.71824
G1 X99.334 Y140.410 E1254.81378
G1 X98.873 Y136.572 E1254.90997
G1 X98.643 Y132.721 E1255.00596
G1 X98.643 Y128.876 E1255.10164
G1 X98.873 Y125.033 E1255.19743
G1 X99.334 Y121.194 E1255.29364
G1 X100.020 Y117.420 E1255.38909
G1 X100.939 Y113.652 E1255.48559
G1 X102.067 Y109.995 E1255.58082
G1 X103.427 Y106.372 E1255.67711
G1 X104.989 Y102.865 E1255.77264
G1 X106.768 Y99.437 E1255.86874
G1 X108.742 Y96.133 E1255.96451
G1 X110.912 Y92.949 E1256.06039
G1 X113.276 Y89.892 E1256.15654
G1 X115.804 Y86.999 E1256.25214
G1 X118.496 Y84.266 E1256.34760
G1 X121.373 Y81.677 E1256.44390
G1 X124.394 Y79.267 E1256.54006
G1 X127.534 Y77.057 E1256.63561
G1 X130.812 Y75.030 E1256.73151
G1 X134.207 Y73.204 E1256.82743
G1 X137.705 Y71.584 E1256.92335
G1 X141.288 Y70.177 E1257.01913
G1 X144.961 Y68.984 E1257.11522
G1 X148.684 Y68.017 E1257.21094
G1 X152.462 Y67.272 E1257.30675
G1 X156.296 Y66.753 E1257.40302
G1 X160.118 Y66.467 E1257.49839
G1 X163.987 Y66.408 E1257.59467
G1 X167.818 Y66.581 E1257.69010
G1 X171.662 Y66.984 E1257.78627
G1 X175.462 Y67.615 E1257.88212
G1 X179.220 Y68.474 E1257.97804
G1 X182.916 Y69.553 E1258.07385
G1 X186.539 Y70.851 E1258.16961
G1 X190.089 Y72.369 E1258.26568
G1 X193.530 Y74.089 E1258.36140
G1 X196.867 Y76.017 E1258.45730
G1 X200.092 Y78.145 E1258.55344
G1 X203.164 Y80.449 E1258.64899
G1 X206.104 Y82.940 E1258.74487
G1 X208.898 Y85.612 E1258.84107
G1 X211.510 Y88.427 E1258.93662
G1 X213.964 Y91.410 E1259.03274
G1 X216.224 Y94.520 E1259.12840
G1 X218.304 Y97.777 E1259.22456
G1 X220.174 Y101.130 E1259.32009
G1 X221.850 Y104.611 E1259.41622
G1 X223.309 Y108.170 E1259.51193
G1 X224.558 Y111.827 E1259.60809
G1 X225.578 Y115.526 E1259.70356
G1 X226.383 Y119.308 E1259.79978
G1 X226.954 Y123.095 E1259.89507
G1 X227.301 Y126.953 E1259.99146
G1 X227.415 Y130.802 E1260.08728
G1 X227.301 Y134.651 E1260.18309
G1 X226.955 Y138.503 E1260.27933
G1 X226.383 Y142.296 E1260.37477
G1 X225.578 Y146.078 E1260.47099
G1 X224.558 Y149.777 E1260.56646
G1 X223.309 Y153.434 E1260.66262
G1 X221.850 Y156.993 E1260.75833
G1 X220.174 Y160.474 E1260.85446
G1 X218.304 Y163.828 E1260.95002
G1 X216.224 Y167.084 E1261.04615
G1 X213.964 Y170.194 E1261.14181
G1 X211.510 Y173.178 E1261.23795
G1 X208.890 Y176.002 E1261.33380
G1 X206.113 Y178.658 E1261.42942
G1 X203.164 Y181.156 E1261.52558
G1 X200.092 Y183.460 E1261.62113
G1 X196.867 Y185.588 E1261.71728
G1 X193.530 Y187.516 E1261.81317
G1 X190.089 Y189.236 E1261.90889
G1 X186.539 Y190.754 E1262.00497
G1 X182.916 Y192.052 E1262.10073
G1 X179.220 Y193.131 E1262.19653
G1 X175.462 Y193.990 E1262.29245
G1 X171.662 Y194.621 E1262.38830
G1 X167.818 Y195.024 E1262.48448
G1 X163.986 Y195.197 E1262.57992
G1 X160.120 Y195.139 E1262.67613
G1 X156.295 Y194.852 E1262.77157
G1 X152.462 Y194.333 E1262.86782
G1 X148.684 Y193.588 E1262.96364
G1 X144.959 Y192.620 E1263.05940
G1 X141.288 Y191.428 E1263.15544
G1 X137.705 Y190.021 E1263.25123
G1 X134.207 Y188.402 E1263.34714
G1 X130.813 Y186.575 E1263.44305
G1 X127.534 Y184.548 E1263.53897
G1 X124.394 Y182.338 E1263.63451
G1 X121.373 Y179.928 E1263.73067
G1 X118.496 Y177.339 E1263.82698
G1 X115.804 Y174.606 E1263.92243
G1 X113.276 Y171.713 E1264.01803
G1 X110.912 Y168.655 E1264.11421
G1 X108.742 Y165.471 E1264.21008
G1 X106.768 Y162.167 E1264.30585
G1 X104.989 Y158.740 E1264.40193
G1 X103.427 Y155.232 E1264.49748
G1 X102.067 Y151.609 E1264.59377
G1 F2100 E1264.19377
G0 F12000 X158.810 Y132.394
G1 F2100 E1264.59377
G1 F2220 X159.200 Y133.171 E1264.61541
G1 X159.289 Y133.348 E1264.62034
G1 X159.849 Y134.015 E1264.64201
G1 X159.977 Y134.167 E1264.64695
G1 X160.673 Y134.685 E1264.66854
G1 X160.832 Y134.804 E1264.67348
G1 X161.815 Y135.228 E1264.70012
G1 X162.672 Y135.378 E1264.72177
G1 X162.864 Y135.413 E1264.72662
G1 X163.737 Y135.363 E1264.74838
G1 X163.935 Y135.351 E1264.75332
G1 X164.767 Y135.102 E1264.77493
G1 X164.957 Y135.045 E1264.77986
G1 X165.883 Y134.510 E1264.80647
G1 X166.659 Y133.777 E1264.83304
G1 X167.135 Y133.052 E1264.85462
G1 X167.246 Y132.885 E1264.85961
G1 X167.612 Y131.880 E1264.88622
G1 X167.736 Y130.819 E1264.91280
G1 X167.612 Y129.757 E1264.93941
G1 X167.314 Y128.939 E1264.96107
G1 X167.246 Y128.753 E1264.96600
G1 X166.768 Y128.026 E1264.98765
G1 X166.658 Y127.860 E1264.99260
G1 X165.883 Y127.127 E1265.01914
G1 X164.956 Y126.593 E1265.04576
G1 X164.124 Y126.344 E1265.06737
G1 X163.934 Y126.287 E1265.07231
G1 X163.066 Y126.237 E1265.09394
G1 X162.868 Y126.225 E1265.09888
G1 X162.008 Y126.375 E1265.12060
G1 X161.813 Y126.411 E1265.12553
G1 X160.833 Y126.833 E1265.15208
G1 X160.135 Y127.353 E1265.17374
G1 X159.975 Y127.472 E1265.17870
G1 X159.416 Y128.139 E1265.20036
G1 X159.290 Y128.289 E1265.20523
G1 X158.899 Y129.067 E1265.22690
G1 X158.809 Y129.245 E1265.23186
G1 X158.610 Y130.090 E1265.25346
G1 X158.563 Y130.284 E1265.25843
G1 X158.563 Y131.353 E1265.28503
G1 X158.763 Y132.201 E1265.30671
G1 X158.810 Y132.394 E1265.31165
G0 F12000 X159.187 Y132.255
;TYPE:WALL-OUTER
G1 F2220 X159.625 Y133.127 E1265.33593
G1 X160.251 Y133.874 E1265.36019
G1 X161.034 Y134.457 E1265.38448
G1 X161.930 Y134.843 E1265.40875
G1 X162.739 Y134.985 E1265.42919
G1 X162.889 Y135.012 E1265.43298
G1 X163.864 Y134.955 E1265.45728
G1 X164.797 Y134.676 E1265.48152
G1 X165.643 Y134.188 E1265.50582
G1 X166.352 Y133.519 E1265.53007
G1 X166.803 Y132.831 E1265.55054
G1 X166.887 Y132.704 E1265.55433
G1 X167.221 Y131.787 E1265.57862
G1 X167.334 Y130.819 E1265.60287
G1 X167.221 Y129.850 E1265.62714
G1 X166.887 Y128.934 E1265.65140
G1 X166.435 Y128.245 E1265.67190
G1 X166.351 Y128.119 E1265.67567
G1 X165.643 Y127.449 E1265.69993
G1 X164.797 Y126.962 E1265.72422
G1 X163.864 Y126.683 E1265.74845
G1 X162.889 Y126.626 E1265.77275
G1 X162.078 Y126.768 E1265.79324
G1 X161.929 Y126.795 E1265.79701
G1 X161.034 Y127.181 E1265.82126
G1 X160.251 Y127.763 E1265.84553
G1 X159.723 Y128.394 E1265.86601
G1 X159.625 Y128.510 E1265.86979
G1 X159.187 Y129.383 E1265.89409
G1 X158.962 Y130.332 E1265.91836
G1 X158.962 Y131.306 E1265.94259
G1 X159.187 Y132.255 E1265.96686
G1 F2100 E1265.56686
G0 F12000 X103.053 Y155.371
G1 F2100 E1265.96686
G1 F2220 X101.693 Y151.750 E1266.06311
G1 X100.548 Y148.036 E1266.15981
G1 X99.632 Y144.280 E1266.25601
G1 X98.939 Y140.463 E1266.35254
G1 X98.475 Y136.605 E1266.44923
G1 X98.244 Y132.735 E1266.54570
G1 X98.244 Y128.870 E1266.64187
G1 X98.475 Y125.000 E1266.73834
G1 X98.939 Y121.138 E1266.83513
G1 X99.632 Y117.324 E1266.93158
G1 X100.548 Y113.569 E1267.02776
G1 X101.694 Y109.852 E1267.12454
G1 X103.053 Y106.233 E1267.22073
G1 X104.630 Y102.692 E1267.31719
G1 X106.421 Y99.240 E1267.41395
G1 X108.410 Y95.911 E1267.51045
G1 X110.586 Y92.718 E1267.60659
G1 X112.958 Y89.651 E1267.70307
G1 X115.509 Y86.732 E1267.79953
G1 X118.238 Y83.961 E1267.89630
G1 X121.111 Y81.375 E1267.99249
G1 X124.142 Y78.957 E1268.08897
G1 X127.322 Y76.719 E1268.18572
G1 X130.620 Y74.680 E1268.28220
G1 X134.024 Y72.850 E1268.37837
G1 X137.553 Y71.215 E1268.47515
G1 X141.162 Y69.798 E1268.57162
G1 X144.838 Y68.604 E1268.66780
G1 X148.602 Y67.626 E1268.76456
G1 X152.397 Y66.878 E1268.86081
G1 X156.246 Y66.356 E1268.95746
G1 X160.102 Y66.068 E1269.05368
G1 X163.982 Y66.009 E1269.15023
G1 X167.860 Y66.184 E1269.24683
G1 X171.719 Y66.589 E1269.34338
G1 X175.535 Y67.223 E1269.43963
G1 X179.316 Y68.086 E1269.53613
G1 X183.045 Y69.175 E1269.63280
G1 X186.684 Y70.479 E1269.72898
G1 X190.253 Y72.005 E1269.82557
G1 X193.727 Y73.742 E1269.92221
G1 X197.074 Y75.675 E1270.01839
G1 X200.320 Y77.817 E1270.11516
G1 X203.412 Y80.136 E1270.21133
G1 X206.379 Y82.651 E1270.30811
G1 X209.173 Y85.321 E1270.40427
G1 X211.810 Y88.163 E1270.50074
G1 X214.273 Y91.157 E1270.59721
G1 X216.552 Y94.293 E1270.69367
G1 X218.640 Y97.561 E1270.79017
G1 X220.534 Y100.957 E1270.88692
G1 X222.211 Y104.439 E1270.98309
G1 X223.686 Y108.038 E1271.07987
G1 X224.935 Y111.696 E1271.17605
G1 X225.966 Y115.433 E1271.27251
G1 X226.773 Y119.226 E1271.36901
G1 X227.353 Y123.072 E1271.46579
G1 X227.699 Y126.921 E1271.56195
G1 X227.815 Y130.796 E1271.65841
G1 X227.699 Y134.682 E1271.75515
G1 X227.353 Y138.533 E1271.85136
G1 X226.775 Y142.367 E1271.94784
G1 X225.969 Y146.159 E1272.04430
G1 X224.935 Y149.908 E1272.14107
G1 X223.686 Y153.566 E1272.23725
G1 X222.216 Y157.154 E1272.33373
G1 X220.534 Y160.647 E1272.43020
G1 X218.646 Y164.034 E1272.52668
G1 X216.554 Y167.308 E1272.62336
G1 X214.280 Y170.438 E1272.71963
G1 X211.813 Y173.439 E1272.81629
G1 X209.181 Y176.275 E1272.91257
G1 X206.373 Y178.960 E1273.00924
G1 X203.412 Y181.469 E1273.10581
G1 X200.320 Y183.788 E1273.20198
G1 X197.074 Y185.930 E1273.29875
G1 X193.727 Y187.863 E1273.39493
G1 X190.253 Y189.600 E1273.49157
G1 X186.685 Y191.126 E1273.58813
G1 X183.045 Y192.430 E1273.68434
G1 X179.316 Y193.519 E1273.78101
G1 X175.535 Y194.382 E1273.87751
G1 X171.719 Y195.016 E1273.97376
G1 X167.860 Y195.421 E1274.07031
G1 X163.982 Y195.596 E1274.16691
G1 X160.102 Y195.538 E1274.26346
G1 X156.246 Y195.249 E1274.35968
G1 X152.397 Y194.727 E1274.45633
G1 X148.602 Y193.979 E1274.55258
G1 X144.838 Y193.001 E1274.64935
G1 X141.161 Y191.806 E1274.74555
G1 X137.553 Y190.390 E1274.84199
G1 X134.024 Y188.756 E1274.93876
G1 X130.619 Y186.924 E1275.03497
G1 X127.322 Y184.886 E1275.13142
G1 X124.142 Y182.648 E1275.22818
G1 X121.111 Y180.230 E1275.32465
G1 X118.238 Y177.644 E1275.42084
G1 X115.509 Y174.873 E1275.51761
G1 X112.958 Y171.954 E1275.61407
G1 X110.586 Y168.886 E1275.71057
G1 X108.410 Y165.693 E1275.80671
G1 X106.421 Y162.364 E1275.90321
G1 X104.630 Y158.913 E1275.99995
G1 X103.053 Y155.371 E1276.09643
G0 F12000 X104.008 Y155.211
;TYPE:SKIN
G1 F2220 X221.996 Y155.211 E1279.03229
G0 F12000 X222.159 Y154.812
G1 F2220 X103.845 Y154.812 E1281.97627
G0 F12000 X103.695 Y154.413
G1 F2220 X222.323 Y154.413 E1284.92806
G0 F12000 X222.486 Y154.014
G1 F2220 X103.545 Y154.014 E1287.88764
G0 F12000 X103.395 Y153.615
G1 F2220 X222.650 Y153.615 E1290.85503
G0 F12000 X222.812 Y153.216
G1 F2220 X103.245 Y153.216 E1293.83018
G0 F12000 X103.095 Y152.817
G1 F2220 X222.948 Y152.817 E1296.81245
G0 F12000 X223.084 Y152.418
G1 F2220 X102.945 Y152.418 E1299.80184
G0 F12000 X102.795 Y152.019
G1 F2220 X223.220 Y152.019 E1302.79834
G0 F12000 X223.356 Y151.620
G1 F2220 X102.646 Y151.620 E1305.80194
G0 F12000 X102.511 Y151.221
G1 F2220 X223.493 Y151.221 E1308.81230
G0 F12000 X223.629 Y150.822
G1 F2220 X102.388 Y150.822 E1311.82911
G0 F12000 X102.265 Y150.423
G1 F2220 X223.765 Y150.423 E1314.85236
G0 F12000 X223.901 Y150.024
G1 F2220 X102.142 Y150.024 E1317.88206
G0 F12000 X102.019 Y149.625
G1 F2220 X224.037 Y149.625 E1320.91820
G0 F12000 X224.148 Y149.226
G1 F2220 X101.896 Y149.226 E1323.96017
G0 F12000 X101.773 Y148.827
G1 F2220 X224.258 Y148.827 E1327.00793
G0 F12000 X224.368 Y148.428
G1 F2220 X101.649 Y148.428 E1330.06151
G0 F12000 X101.526 Y148.029
G1 F2220 X224.478 Y148.029 E1333.12090
G0 F12000 X224.588 Y147.630
G1 F2220 X101.413 Y147.630 E1336.18583
G0 F12000 X101.316 Y147.231
G1 F2220 X224.698 Y147.231 E1339.25591
G0 F12000 X224.808 Y146.832
G1 F2220 X101.219 Y146.832 E1342.33114
G0 F12000 X101.122 Y146.433
G1 F2220 X224.918 Y146.433 E1345.41153
G0 F12000 X225.029 Y146.034
G1 F2220 X101.024 Y146.034 E1348.49711
G0 F12000 X100.927 Y145.635
G1 F2220 X225.120 Y145.635 E1351.58737
G0 F12000 X225.205 Y145.236
G1 F2220 X100.830 Y145.236 E1354.68216
G0 F12000 X100.733 Y144.837
G1 F2220 X225.290 Y144.837 E1357.78148
G0 F12000 X225.374 Y144.438
G1 F2220 X100.635 Y144.438 E1360.88533
G0 F12000 X100.540 Y144.039
G1 F2220 X225.459 Y144.039 E1363.99366
G0 F12000 X225.544 Y143.640
G1 F2220 X100.468 Y143.640 E1367.10589
G0 F12000 X100.396 Y143.241
G1 F2220 X225.629 Y143.241 E1370.22203
G0 F12000 X225.714 Y142.842
G1 F2220 X100.323 Y142.842 E1373.34210
G0 F12000 X100.251 Y142.443
G1 F2220 X225.799 Y142.443 E1376.46608
G0 F12000 X225.874 Y142.044
G1 F2220 X100.178 Y142.044 E1379.59374
G0 F12000 X100.106 Y141.645
G1 F2220 X225.934 Y141.645 E1382.72469
G0 F12000 X225.994 Y141.246
G1 F2220 X100.033 Y141.246 E1385.85894
G1 F2100 E1385.45894
G0 F12000 X104.186 Y155.610
G1 F2100 E1385.85894
G1 F2220 X221.832 Y155.610 E1388.78629
G0 F12000 X221.669 Y156.009
G1 F2220 X104.363 Y156.009 E1391.70519
G0 F12000 X104.541 Y156.408
G1 F2220 X221.505 Y156.408 E1394.61557
G0 F12000 X221.339 Y156.807
G1 F2220 X104.719 Y156.807 E1397.51740
G0 F12000 X104.896 Y157.206
G1 F2220 X221.147 Y157.206 E1400.41004
G0 F12000 X220.955 Y157.605
G1 F2220 X105.074 Y157.605 E1403.29348
G0 F12000 X105.251 Y158.004
G1 F2220 X220.763 Y158.004 E1406.16773
G0 F12000 X220.571 Y158.403
G1 F2220 X105.429 Y158.403 E1409.03278
G0 F12000 X105.628 Y158.802
G1 F2220 X220.379 Y158.802 E1411.88810
G0 F12000 X220.187 Y159.201
G1 F2220 X105.835 Y159.201 E1414.73349
G0 F12000 X106.042 Y159.600
G1 F2220 X219.994 Y159.600 E1417.56893
G0 F12000 X219.802 Y159.999
G1 F2220 X106.249 Y159.999 E1420.39444
G0 F12000 X106.456 Y160.398
G1 F2220 X219.597 Y160.398 E1423.20970
G0 F12000 X219.374 Y160.797
G1 F2220 X106.663 Y160.797 E1426.01426
G0 F12000 X106.870 Y161.196
G1 F2220 X219.152 Y161.196 E1428.80814
G0 F12000 X218.930 Y161.595
G1 F2220 X107.077 Y161.595 E1431.59135
G0 F12000 X107.290 Y161.994
G1 F2220 X218.707 Y161.994 E1434.36371
G0 F12000 X218.485 Y162.393
G1 F2220 X107.529 Y162.393 E1437.12460
G0 F12000 X107.767 Y162.792
G1 F2220 X218.262 Y162.792 E1439.87402
G0 F12000 X218.040 Y163.191
G1 F2220 X108.006 Y163.191 E1442.61196
G0 F12000 X108.244 Y163.590
G1 F2220 X217.815 Y163.590 E1445.33839
G0 F12000 X217.560 Y163.989
G1 F2220 X108.483 Y163.989 E1448.05252
G0 F12000 X108.721 Y164.388
G1 F2220 X217.305 Y164.388 E1450.75439
G0 F12000 X217.050 Y164.787
G1 F2220 X108.960 Y164.787 E1453.44397
G0 F12000 X109.199 Y165.186
G1 F2220 X216.795 Y165.186 E1456.12125
G0 F12000 X216.540 Y165.585
G1 F2220 X109.470 Y165.585 E1458.78544
G0 F12000 X109.742 Y165.984
G1 F2220 X216.285 Y165.984 E1461.43653
G0 F12000 X216.030 Y166.383
G1 F2220 X110.014 Y166.383 E1464.07449
G0 F12000 X110.286 Y166.782
G1 F2220 X215.774 Y166.782 E1466.69932
G0 F12000 X215.484 Y167.181
G1 F2220 X110.558 Y167.181 E1469.31017
G0 F12000 X110.830 Y167.580
G1 F2220 X215.194 Y167.580 E1471.90703
G0 F12000 X214.905 Y167.979
G1 F2220 X111.102 Y167.979 E1474.48994
G0 F12000 X111.378 Y168.378
G1 F2220 X214.615 Y168.378 E1477.05876
G0 F12000 X214.325 Y168.777
G1 F2220 X111.686 Y168.777 E1479.61269
G0 F12000 X111.995 Y169.176
G1 F2220 X214.035 Y169.176 E1482.15173
G0 F12000 X213.746 Y169.575
G1 F2220 X112.304 Y169.575 E1484.67588
G0 F12000 X112.612 Y169.974
G1 F2220 X213.446 Y169.974 E1487.18491
G0 F12000 X213.118 Y170.373
G1 F2220 X112.921 Y170.373 E1489.67809
G0 F12000 X113.229 Y170.772
G1 F2220 X212.790 Y170.772 E1492.15544
G0 F12000 X212.461 Y171.171
G1 F2220 X113.538 Y171.171 E1494.61691
G0 F12000 X113.868 Y171.570
G1 F2220 X212.133 Y171.570 E1497.06201
G0 F12000 X211.805 Y171.969
G1 F2220 X114.216 Y171.969 E1499.49030
G0 F12000 X114.565 Y172.368
G1 F2220 X211.477 Y172.368 E1501.90173
G0 F12000 X211.148 Y172.767
G1 F2220 X114.914 Y172.767 E1504.29630
G0 F12000 X115.262 Y173.166
G1 F2220 X210.784 Y173.166 E1506.67315
G0 F12000 X210.413 Y173.565
G1 F2220 X115.611 Y173.565 E1509.03208
G0 F12000 X115.960 Y173.964
G1 F2220 X210.043 Y173.964 E1511.37312
G0 F12000 X209.673 Y174.363
G1 F2220 X116.323 Y174.363 E1513.69593
G0 F12000 X116.715 Y174.762
G1 F2220 X209.302 Y174.762 E1515.99974
G0 F12000 X208.932 Y175.161
G1 F2220 X117.108 Y175.161 E1518.28458
G0 F12000 X117.501 Y175.560
G1 F2220 X208.562 Y175.560 E1520.55042
G0 F12000 X208.151 Y175.959
G1 F2220 X117.894 Y175.959 E1522.79626
G0 F12000 X118.287 Y176.358
G1 F2220 X207.734 Y176.358 E1525.02195
G0 F12000 X207.316 Y176.757
G1 F2220 X118.680 Y176.757 E1527.22746
G0 F12000 X119.097 Y177.156
G1 F2220 X206.899 Y177.156 E1529.41221
G0 F12000 X206.482 Y177.555
G1 F2220 X119.540 Y177.555 E1531.57557
G0 F12000 X119.983 Y177.954
G1 F2220 X206.065 Y177.954 E1533.71752
G0 F12000 X205.636 Y178.353
G1 F2220 X120.427 Y178.353 E1535.83776
G0 F12000 X120.870 Y178.752
G1 F2220 X205.165 Y178.752 E1537.93525
G0 F12000 X204.694 Y179.151
G1 F2220 X121.313 Y179.151 E1540.00999
G0 F12000 X121.762 Y179.550
G1 F2220 X204.223 Y179.550 E1542.06185
G0 F12000 X203.752 Y179.949
G1 F2220 X122.262 Y179.949 E1544.08954
G0 F12000 X122.763 Y180.348
G1 F2220 X203.281 Y180.348 E1546.09305
G0 F12000 X202.808 Y180.747
G1 F2220 X123.263 Y180.747 E1548.07235
G0 F12000 X123.763 Y181.146
G1 F2220 X202.276 Y181.146 E1550.02597
G0 F12000 X201.744 Y181.545
G1 F2220 X124.264 Y181.545 E1551.95388
G0 F12000 X124.772 Y181.944
G1 F2220 X201.211 Y181.944 E1553.85589
G0 F12000 X200.679 Y182.343
G1 F2220 X125.339 Y182.343 E1555.73056
G0 F12000 X125.905 Y182.742
G1 F2220 X200.147 Y182.742 E1557.57790
G0 F12000 X199.594 Y183.141
G1 F2220 X126.472 Y183.141 E1559.39738
G0 F12000 X127.039 Y183.540
G1 F2220 X198.989 Y183.540 E1561.18769
G0 F12000 X198.385 Y183.939
G1 F2220 X127.606 Y183.939 E1562.94887
G0 F12000 X128.219 Y184.338
G1 F2220 X197.781 Y184.338 E1564.67976
G0 F12000 X197.176 Y184.737
G1 F2220 X128.865 Y184.737 E1566.37953
G0 F12000 X129.511 Y185.136
G1 F2220 X196.569 Y185.136 E1568.04811
G0 F12000 X195.878 Y185.535
G1 F2220 X130.156 Y185.535 E1569.68346
G0 F12000 X130.802 Y185.934
G1 F2220 X195.187 Y185.934 E1571.28553
G0 F12000 X194.496 Y186.333
G1 F2220 X131.501 Y186.333 E1572.85302
G0 F12000 X132.242 Y186.732
G1 F2220 X193.805 Y186.732 E1574.38487
G0 F12000 X193.089 Y187.131
G1 F2220 X132.984 Y187.131 E1575.88045
G0 F12000 X133.726 Y187.530
G1 F2220 X192.291 Y187.530 E1577.33771
G0 F12000 X191.494 Y187.929
G1 F2220 X134.472 Y187.929 E1578.75657
G0 F12000 X135.334 Y188.328
G1 F2220 X190.696 Y188.328 E1580.13413
G0 F12000 X189.898 Y188.727
G1 F2220 X136.196 Y188.727 E1581.47038
G0 F12000 X137.057 Y189.126
G1 F2220 X188.972 Y189.126 E1582.76217
G0 F12000 X188.039 Y189.525
G1 F2220 X137.919 Y189.525 E1584.00929
G0 F12000 X138.933 Y189.924
G1 F2220 X187.106 Y189.924 E1585.20797
G0 F12000 X186.140 Y190.323
G1 F2220 X139.948 Y190.323 E1586.35735
G0 F12000 X140.964 Y190.722
G1 F2220 X185.027 Y190.722 E1587.45376
G0 F12000 X183.913 Y191.121
G1 F2220 X142.085 Y191.121 E1588.49456
G0 F12000 X143.314 Y191.520
G1 F2220 X182.799 Y191.520 E1589.47705
G0 F12000 X181.444 Y191.919
G1 F2220 X144.542 Y191.919 E1590.39527
G0 F12000 X145.940 Y192.318
G1 F2220 X180.078 Y192.318 E1591.24472
G1 F2100 E1590.84472
G0 F12000 X178.608 Y192.717
G1 F2100 E1591.24472
G1 F2220 X147.477 Y192.717 E1592.01935
G1 F2100 E1591.61935
G0 F12000 X149.076 Y193.116
G1 F2100 E1592.01935
G1 F2220 X176.860 Y193.116 E1592.71069
G1 F2100 E1592.31069
G0 F12000 X175.020 Y193.515
G1 F2100 E1592.71069
G1 F2220 X151.098 Y193.515 E1593.30593
G1 F2100 E1592.90593
G0 F12000 X153.382 Y193.914
G1 F2100 E1593.30593
G1 F2220 X172.617 Y193.914 E1593.78455
G1 F2100 E1593.38455
G0 F12000 X169.416 Y194.313
G1 F2100 E1593.78455
G1 F2220 X156.330 Y194.313 E1594.11017
G1 F2100 E1593.71017
G0 F12000 X161.457 Y135.660
G1 F2100 E1594.11017
G1 F2220 X99.356 Y135.660 E1595.65541
G0 F12000 X99.333 Y135.261
G1 F2220 X160.543 Y135.261 E1597.17848
G0 F12000 X160.008 Y134.862
G1 F2220 X99.309 Y134.862 E1598.68884
G0 F12000 X99.285 Y134.463
G1 F2220 X159.522 Y134.463 E1600.18770
G0 F12000 X159.188 Y134.064
G1 F2220 X99.261 Y134.064 E1601.67885
G0 F12000 X99.237 Y133.665
G1 F2220 X158.853 Y133.665 E1603.16226
G0 F12000 X158.646 Y133.266
G1 F2220 X99.214 Y133.266 E1604.64109
G0 F12000 X99.190 Y132.867
G1 F2220 X158.445 Y132.867 E1606.11552
