;FLAVOR:Repetier
;TIME:3690
;Generated with Cura_SteamEngine 2.5.0
M190 S60
M104 S220
M109 S220
G28 ;Home
G1 Z15.0 F6000 ;Move the platform down 15mm
;Prime the extruder
G92 E0
G1 F200 E3
G92 E0
;LAYER_COUNT:84
;LAYER:0
M106 S255
G0 F3300 X7.843 Y-7.349 Z0.3
;TYPE:WALL-INNER
G1 F1800 X7.094 Y-8.079 E0.06523
G1 X6.412 Y-8.624 E0.11967
G1 X6.265 Y-8.742 E0.13142
G1 X5.368 Y-9.318 E0.1979
G1 X4.429 Y-9.796 E0.26361
G1 X3.522 Y-10.158 E0.32451
G1 X3.46 Y-10.183 E0.32868
G1 X2.431 Y-10.478 E0.39544
G1 X2.349 Y-10.492 E0.40063
G1 X1.391 Y-10.659 E0.46127
G1 X0.36 Y-10.745 E0.52579
G1 X0.345 Y-10.745 E0.52673
G1 X-.702 Y-10.736 E0.59202
G1 X-1.678 Y-10.621 E0.65331
G1 X-1.759 Y-10.611 E0.6584
G1 X-2.786 Y-10.391 E0.7239
G1 X-2.956 Y-10.336 E0.73504
G1 X-3.792 Y-10.063 E0.78989
G1 X-4.759 Y-9.646 E0.85556
G1 X-4.778 Y-9.636 E0.8569
G1 X-5.68 Y-9.132 E0.92134
G1 X-6.494 Y-8.572 E0.98295
G1 X-6.553 Y-8.531 E0.98743
G1 X-6.817 Y-8.307 E1.00902
G1 X-7.096 Y-8.069 E1.03189
G1 X-7.354 Y-7.849 E1.05304
G1 X-7.375 Y-7.827 E1.05494
G1 X-7.93 Y-7.258 E1.1045
G1 X-8.094 Y-7.09 E1.11915
G1 X-8.739 Y-6.269 E1.18426
G1 X-8.747 Y-6.259 E1.18505
G1 X-9.313 Y-5.381 E1.2502
G1 X-9.8 Y-4.441 E1.31622
G1 X-9.978 Y-3.99 E1.34646
G1 X-10.008 Y-3.914 E1.35155
G1 X-10.188 Y-3.456 E1.38224
G1 X-10.212 Y-3.37 E1.38781
G1 X-10.388 Y-2.761 E1.42734
G1 X-10.482 Y-2.437 E1.44838
G1 X-10.664 Y-1.395 E1.51435
G1 X-10.75 Y-.359 E1.57918
G1 X-10.743 Y0.441 E1.62907
G1 X-10.74 Y0.699 E1.64516
G1 X-10.676 Y1.245 E1.67944
G1 X-10.667 Y1.316 E1.68391
G1 X-10.616 Y1.748 E1.71104
G1 X-10.463 Y2.477 E1.75749
G1 X-10.397 Y2.788 E1.77732
G1 X-10.315 Y3.04 E1.79384
G1 X-10.085 Y3.74 E1.83979
G1 X-10.065 Y3.8 E1.84374
G1 X-9.911 Y4.155 E1.86787
G1 X-9.814 Y4.377 E1.88298
G1 X-9.649 Y4.758 E1.90887
G1 X-9.574 Y4.893 E1.9185
G1 X-9.136 Y5.677 E1.9745
G1 X-8.535 Y6.55 E2.0406
G1 X-8.497 Y6.594 E2.04423
G1 X-7.85 Y7.351 E2.10633
G1 X-7.171 Y8.013 E2.16547
G1 X-7.101 Y8.081 E2.17155
G1 X-6.272 Y8.744 E2.23775
G1 X-6.218 Y8.779 E2.24177
G1 X-5.565 Y9.198 E2.29015
G1 X-5.375 Y9.32 E2.30423
G1 X-4.452 Y9.79 E2.36883
G1 X-4.437 Y9.798 E2.36989
G1 X-3.801 Y10.052 E2.4126
G1 X-3.468 Y10.185 E2.43496
G1 X-2.654 Y10.418 E2.48776
G1 X-2.44 Y10.48 E2.50165
G1 X-1.397 Y10.661 E2.56767
G1 X-1.369 Y10.663 E2.56942
G1 X-.367 Y10.747 E2.63213
G1 X0.001 Y10.744 E2.65508
G1 X0.694 Y10.738 E2.6983
G1 X1.752 Y10.613 E2.76474
G1 X2.784 Y10.389 E2.83059
G1 X3.788 Y10.063 E2.89642
G1 X3.851 Y10.036 E2.9007
G1 X4.75 Y9.648 E2.96176
G1 X5.661 Y9.142 E3.02675
G1 X5.675 Y9.134 E3.02775
G1 X6.545 Y8.533 E3.0937
G1 X6.659 Y8.435 E3.10307
G1 X7.346 Y7.848 E3.15942
G1 X8.077 Y7.098 E3.22474
G1 X8.098 Y7.071 E3.22687
G1 X8.535 Y6.525 E3.27048
G1 X8.74 Y6.268 E3.29098
G1 X9.265 Y5.45 E3.3516
G1 X9.315 Y5.372 E3.35738
G1 X9.495 Y5.018 E3.38214
G1 X9.621 Y4.771 E3.39944
G1 X9.793 Y4.434 E3.42303
G1 X10.18 Y3.459 E3.48845
G1 X10.472 Y2.443 E3.55438
G1 X10.657 Y1.402 E3.62031
G1 X10.738 Y0.411 E3.68232
G1 X10.743 Y0.361 E3.68545
G1 X10.733 Y-.696 E3.75137
G1 X10.723 Y-.79 E3.75727
G1 X10.641 Y-1.491 E3.80128
G1 X10.609 Y-1.762 E3.8183
G1 X10.38 Y-2.786 E3.88374
G1 X10.066 Y-3.781 E3.94881
G1 X10.007 Y-3.918 E3.95811
G1 X9.686 Y-4.659 E4.00847
G1 X9.643 Y-4.758 E4.0152
G1 X9.422 Y-5.153 E4.04343
G1 X9.343 Y-5.293 E4.05345
G1 X9.129 Y-5.676 E4.08081
G1 X9.117 Y-5.694 E4.08216
G1 X8.664 Y-6.352 E4.13198
G1 X8.528 Y-6.548 E4.14686
G1 X7.862 Y-7.326 E4.21072
G1 X7.843 Y-7.349 E4.21258
G0 F3300 X8.195 Y-7.697
G1 F1800 X8.242 Y-7.65 E4.2167
G1 X8.672 Y-7.157 E4.2575
G1 X8.912 Y-6.846 E4.282
G1 X9.074 Y-6.636 E4.29828
G1 X9.523 Y-5.974 E4.34772
G1 X9.551 Y-5.926 E4.35112
G1 X9.774 Y-5.547 E4.37827
G1 X9.826 Y-5.46 E4.38459
G1 X9.866 Y-5.383 E4.39
G1 X10.072 Y-4.98 E4.41775
G1 X10.137 Y-4.855 E4.42633
G1 X10.463 Y-4.117 E4.47604
G1 X10.524 Y-3.949 E4.48702
G1 X10.656 Y-3.589 E4.51094
G1 X10.855 Y-2.931 E4.55381
G1 X10.861 Y-2.913 E4.55499
G1 X10.864 Y-2.9 E4.55582
G1 X11.018 Y-2.239 E4.59815
G1 X11.085 Y-1.844 E4.62313
G1 X11.136 Y-1.55 E4.6414
G1 X11.213 Y-.848 E4.68505
G1 X11.219 Y-.722 E4.69277
G1 X11.243 Y-.274 E4.72075
G1 X11.232 Y0.369 E4.76086
G1 X11.23 Y0.452 E4.76587
G1 X11.168 Y1.296 E4.81864
G1 X11.145 Y1.467 E4.8294
G1 X11.098 Y1.812 E4.85112
G1 X10.956 Y2.538 E4.89725
G1 X10.952 Y2.555 E4.89834
G1 X10.949 Y2.567 E4.89911
G1 X10.787 Y3.182 E4.93877
G1 X10.646 Y3.611 E4.96693
G1 X10.568 Y3.849 E4.98255
G1 X10.343 Y4.416 E5.02059
G1 X10.236 Y4.643 E5.03624
G1 X10.074 Y4.985 E5.05958
G1 X10.006 Y5.128 E5.06946
G1 X9.935 Y5.257 E5.07864
G1 X9.744 Y5.606 E5.10316
G1 X9.682 Y5.718 E5.11102
G1 X9.337 Y6.266 E5.15141
G1 X9.132 Y6.551 E5.1733
G1 X8.926 Y6.836 E5.19485
G1 X8.485 Y7.379 E5.23816
G1 X8.438 Y7.43 E5.2424
G1 X8.025 Y7.878 E5.2804
G1 X7.684 Y8.202 E5.30974
G1 X7.52 Y8.358 E5.32385
G1 X6.984 Y8.813 E5.3677
G1 X6.838 Y8.922 E5.3789
G1 X6.492 Y9.182 E5.4059
G1 X5.944 Y9.542 E5.44678
G1 X5.901 Y9.571 E5.44994
G1 X5.192 Y9.978 E5.50092
G1 X4.968 Y10.088 E5.51649
G1 X4.73 Y10.206 E5.53305
G1 X4.049 Y10.492 E5.57912
G1 X3.951 Y10.526 E5.58552
G1 X3.346 Y10.738 E5.62549
G1 X2.917 Y10.858 E5.65327
G1 X2.699 Y10.92 E5.66741
G1 X2.102 Y11.05 E5.70551
G1 X1.828 Y11.092 E5.7228
G1 X1.413 Y11.157 E5.74899
G1 X0.732 Y11.219 E5.79164
G1 X0.71 Y11.219 E5.79301
G1 X0.006 Y11.243 E5.83607
G1 X-.382 Y11.232 E5.8599
G1 X-.718 Y11.221 E5.88086
G1 X-1.409 Y11.161 E5.92412
G1 X-1.47 Y11.152 E5.92795
G1 X-1.946 Y11.08 E5.95797
G1 X-2.542 Y10.951 E5.996
G1 X-2.791 Y10.897 E6.01157
G1 X-3.331 Y10.746 E6.04654
G1 X-3.628 Y10.642 E6.06616
G1 X-3.986 Y10.516 E6.08944
G1 X-4.626 Y10.251 E6.13217
G1 X-4.676 Y10.23 E6.13545
G1 X-5.276 Y9.937 E6.17709
G1 X-5.617 Y9.742 E6.20159
G1 X-5.833 Y9.618 E6.21688
G1 X-6.484 Y9.195 E6.26487
G1 X-6.563 Y9.136 E6.27088
G1 X-6.961 Y8.84 E6.30182
G1 X-7.416 Y8.456 E6.33895
G1 X-7.519 Y8.369 E6.34725
G1 X-7.969 Y7.939 E6.38607
G1 X-8.207 Y7.684 E6.40782
G1 X-8.533 Y7.334 E6.43765
G1 X-8.874 Y6.918 E6.47119
G1 X-8.931 Y6.839 E6.47719
G1 X-9.324 Y6.298 E6.51889
G1 X-9.55 Y5.94 E6.54529
G1 X-9.674 Y5.744 E6.55976
G1 X-10.008 Y5.136 E6.60302
G1 X-10.088 Y4.967 E6.6145
G1 X-10.266 Y4.591 E6.64009
G1 X-10.326 Y4.466 E6.64873
G1 X-10.376 Y4.341 E6.65713
G1 X-10.519 Y3.981 E6.681
G1 X-10.554 Y3.895 E6.68666
G1 X-10.786 Y3.195 E6.7321
G1 X-10.861 Y2.91 E6.75002
G1 X-10.948 Y2.579 E6.77083
G1 X-11.098 Y1.846 E6.81684
G1 X-11.105 Y1.812 E6.819
G1 X-11.163 Y1.381 E6.84593
G1 X-11.172 Y1.314 E6.85015
G1 X-11.175 Y1.285 E6.85197
G1 X-11.216 Y0.736 E6.88551
G1 X-11.238 Y0.446 E6.90317
G1 X-11.251 Y-.198 E6.94334
G1 X-11.243 Y-.383 E6.95489
G1 X-11.219 Y-.856 E6.98442
G1 X-11.155 Y-1.448 E7.02156
G1 X-11.14 Y-1.577 E7.02965
G1 X-11.046 Y-2.144 E7.0655
G1 X-10.952 Y-2.547 E7.0913
G1 X-10.868 Y-2.9 E7.11352
G1 X-10.688 Y-3.506 E7.1527
G1 X-10.647 Y-3.621 E7.1602
G1 X-10.479 Y-4.084 E7.19052
G1 X-10.456 Y-4.146 E7.19465
G1 X-10.438 Y-4.188 E7.1975
G1 X-10.245 Y-4.633 E7.22726
G1 X-10.133 Y-4.89 E7.24474
G1 X-9.903 Y-5.34 E7.27626
G1 X-9.733 Y-5.628 E7.29712
G1 X-9.501 Y-6.022 E7.32563
G1 X-9.154 Y-6.535 E7.36425
G1 X-9.127 Y-6.575 E7.36721
G1 X-8.719 Y-7.108 E7.40907
G1 X-8.458 Y-7.407 E7.43382
G1 X-8.286 Y-7.604 E7.44979
G1 X-7.73 Y-8.171 E7.49881
G1 X-7.684 Y-8.213 E7.5026
G1 X-7.432 Y-8.44 E7.52356
G1 X-7.265 Y-8.59 E7.53756
G1 X-7.13 Y-8.698 E7.54834
G1 X-6.858 Y-8.913 E7.56971
G1 X-6.775 Y-8.98 E7.57624
G1 X-6.139 Y-9.427 E7.62472
G1 X-5.937 Y-9.55 E7.63947
G1 X-5.642 Y-9.731 E7.66105
G1 X-5.018 Y-10.063 E7.70513
G1 X-4.962 Y-10.088 E7.70885
G1 X-4.303 Y-10.39 E7.75406
G1 X-3.968 Y-10.519 E7.77644
G1 X-3.724 Y-10.614 E7.79277
G1 X-3.11 Y-10.806 E7.83289
G1 X-2.906 Y-10.857 E7.8457
G1 X-2.311 Y-11.009 E7.884
G1 X-1.852 Y-11.095 E7.91312
G1 X-1.737 Y-11.117 E7.92037
G1 X-1.089 Y-11.197 E7.96109
G1 X-.731 Y-11.218 E7.98345
G1 X-.367 Y-11.24 E8.00619
G1 X0.34 Y-11.241 E8.05028
G1 X0.387 Y-11.239 E8.05317
G1 X1.041 Y-11.201 E8.09402
G1 X1.451 Y-11.151 E8.11978
G1 X1.603 Y-11.132 E8.12933
G1 X2.432 Y-10.979 E8.18191
G1 X2.547 Y-10.951 E8.18914
G1 X3 Y-10.838 E8.21826
G1 X3.605 Y-10.65 E8.25777
G1 X3.705 Y-10.618 E8.26414
G1 X4.345 Y-10.374 E8.30686
G1 X4.632 Y-10.244 E8.32651
G1 X4.903 Y-10.121 E8.34507
G1 X5.587 Y-9.759 E8.39333
G1 X5.622 Y-9.738 E8.39585
G1 X6.133 Y-9.426 E8.43319
G1 X6.542 Y-9.141 E8.46428
G1 X6.724 Y-9.014 E8.47791
G1 X7.227 Y-8.616 E8.51791
G1 X7.419 Y-8.444 E8.53399
G1 X7.747 Y-8.15 E8.56146
G1 X8.195 Y-7.697 E8.60119
G0 F3300 X8.606 Y-7.993
G1 F1800 X9.06 Y-7.472 E8.64429
G1 X9.484 Y-6.922 E8.68759
G1 X9.945 Y-6.243 E8.73878
G1 X10.266 Y-5.699 E8.77817
G1 X10.582 Y-5.084 E8.82129
G1 X10.933 Y-4.289 E8.87548
G1 X11.126 Y-3.761 E8.91054
G1 X11.346 Y-3.036 E8.95779
G1 X11.509 Y-2.335 E9.00267
G1 X11.632 Y-1.614 E9.04829
G1 X11.711 Y-.892 E9.09358
G1 X11.743 Y-.274 E9.13217
G1 X11.73 Y0.48 E9.1792
G1 X11.667 Y1.334 E9.2326
G1 X11.589 Y1.908 E9.26873
G1 X11.442 Y2.658 E9.31639
G1 X11.265 Y3.328 E9.35961
G1 X11.038 Y4.021 E9.40508
G1 X10.802 Y4.616 E9.445
G1 X10.453 Y5.353 E9.49586
G1 X10.115 Y5.968 E9.53962
G1 X9.75 Y6.548 E9.58236
G1 X9.324 Y7.138 E9.62774
G1 X8.865 Y7.704 E9.67318
G1 X8.376 Y8.234 E9.71816
G1 X7.854 Y8.731 E9.7631
G1 X7.298 Y9.203 E9.80859
G1 X6.775 Y9.595 E9.84935
G1 X6.163 Y9.997 E9.89501
G1 X5.439 Y10.413 E9.94708
G1 X4.929 Y10.665 E9.98256
G1 X4.231 Y10.958 E10.02977
G1 X3.503 Y11.213 E10.07787
G1 X2.82 Y11.405 E10.12212
G1 X2.188 Y11.543 E10.16246
G1 X1.473 Y11.654 E10.20758
G1 X0.758 Y11.719 E10.25236
G1 X0.008 Y11.744 E10.29915
G1 X-.741 Y11.721 E10.34589
G1 X-1.465 Y11.658 E10.39121
G1 X-2.044 Y11.57 E10.42773
G1 X-2.903 Y11.385 E10.48253
G1 X-3.493 Y11.219 E10.52075
G1 X-4.157 Y10.986 E10.56463
G1 X-4.883 Y10.686 E10.61362
G1 X-5.508 Y10.38 E10.65702
G1 X-6.097 Y10.043 E10.69934
G1 X-6.763 Y9.61 E10.74888
G1 X-7.28 Y9.226 E10.78904
G1 X-7.85 Y8.744 E10.83559
G1 X-8.327 Y8.288 E10.87675
G1 X-8.899 Y7.675 E10.92903
G1 X-9.279 Y7.212 E10.96639
G1 X-9.736 Y6.582 E11.01492
G1 X-10.102 Y6.002 E11.05769
G1 X-10.458 Y5.355 E11.10375
G1 X-10.785 Y4.667 E11.15125
G1 X-11.025 Y4.064 E11.19173
G1 X-11.265 Y3.341 E11.23923
G1 X-11.435 Y2.694 E11.28095
G1 X-11.599 Y1.895 E11.33182
G1 X-11.67 Y1.368 E11.36498
G1 X-11.738 Y0.476 E11.42077
G1 X-11.751 Y-.197 E11.46275
G1 X-11.717 Y-.901 E11.5067
G1 X-11.637 Y-1.631 E11.5525
G1 X-11.535 Y-2.25 E11.59162
G1 X-11.353 Y-3.024 E11.64121
G1 X-11.163 Y-3.661 E11.68266
G1 X-10.915 Y-4.345 E11.72804
G1 X-10.587 Y-5.1 E11.77937
G1 X-10.339 Y-5.585 E11.81334
G1 X-9.928 Y-6.283 E11.86386
G1 X-9.531 Y-6.87 E11.90805
G1 X-9.103 Y-7.429 E11.95195
G1 X-8.658 Y-7.939 E11.99417
G1 X-8.077 Y-8.531 E12.04589
G1 X-7.591 Y-8.969 E12.08669
G1 X-7.063 Y-9.389 E12.12877
G1 X-6.422 Y-9.84 E12.17765
G1 X-5.883 Y-10.17 E12.21706
G1 X-5.237 Y-10.513 E12.26267
G1 X-4.511 Y-10.845 E12.31246
G1 X-3.882 Y-11.088 E12.35451
G1 X-3.241 Y-11.289 E12.3964
G1 X-2.429 Y-11.495 E12.44864
G1 X-1.814 Y-11.611 E12.48767
G1 X-1.132 Y-11.695 E12.53053
G1 X-.381 Y-11.74 E12.57745
G1 X0.351 Y-11.741 E12.6231
G1 X1.084 Y-11.699 E12.66888
G1 X1.689 Y-11.625 E12.70689
G1 X2.53 Y-11.47 E12.76022
G1 X3.133 Y-11.32 E12.79897
G1 X3.869 Y-11.09 E12.84706
G1 X4.533 Y-10.837 E12.89137
G1 X5.133 Y-10.565 E12.93246
G1 X5.832 Y-10.195 E12.98178
G1 X6.406 Y-9.845 E13.02371
G1 X7.02 Y-9.417 E13.07038
G1 X7.551 Y-8.997 E13.1126
G1 X8.092 Y-8.512 E13.15791
G1 X8.606 Y-7.993 E13.20347
G0 F3300 X7.478 Y-7.007
G1 F1800 X6.763 Y-7.704 E13.26574
G1 X5.973 Y-8.335 E13.32879
G1 X5.119 Y-8.884 E13.3921
G1 X4.223 Y-9.34 E13.4548
G1 X3.298 Y-9.709 E13.51691
G1 X2.319 Y-9.99 E13.58042
G1 X1.327 Y-10.163 E13.64322
G1 X0.341 Y-10.245 E13.70492
G1 X-.67 Y-10.236 E13.76797
G1 X-1.677 Y-10.117 E13.83121
G1 X-2.656 Y-9.908 E13.89364
G1 X-3.615 Y-9.595 E13.95655
G1 X-4.538 Y-9.197 E14.01923
G1 X-5.416 Y-8.707 E14.08194
G1 X-6.248 Y-8.134 E14.14494
G1 X-7.012 Y-7.483 E14.20754
G1 X-7.717 Y-6.76 E14.27051
G1 X-8.339 Y-5.968 E14.33331
G1 X-8.88 Y-5.13 E14.39552
G1 X-9.344 Y-4.234 E14.45844
G1 X-9.714 Y-3.295 E14.52138
G1 X-9.994 Y-2.324 E14.58441
G1 X-10.168 Y-1.331 E14.64727
G1 X-10.25 Y-.341 E14.70923
G1 X-10.24 Y0.667 E14.77209
G1 X-10.122 Y1.667 E14.83489
G1 X-9.913 Y2.658 E14.89805
G1 X-9.597 Y3.622 E14.96131
G1 X-9.2 Y4.536 E15.02346
G1 X-8.711 Y5.413 E15.08608
G1 X-8.138 Y6.245 E15.14908
G1 X-7.485 Y7.009 E15.21175
G1 X-6.77 Y7.706 E15.27402
G1 X-5.98 Y8.337 E15.33708
G1 X-5.126 Y8.886 E15.40039
G1 X-4.23 Y9.342 E15.46309
G1 X-3.306 Y9.711 E15.52513
G1 X-2.328 Y9.992 E15.58859
G1 X-1.333 Y10.165 E15.65157
G1 X-.348 Y10.247 E15.71321
G1 X0.662 Y10.238 E15.7762
G1 X1.67 Y10.119 E15.8395
G1 X2.654 Y9.906 E15.90229
G1 X3.611 Y9.595 E15.96504
G1 X4.529 Y9.199 E16.02739
G1 X5.411 Y8.709 E16.09031
G1 X6.24 Y8.136 E16.15316
G1 X7.004 Y7.483 E16.21584
G1 X7.702 Y6.767 E16.27819
G1 X8.333 Y5.976 E16.3413
G1 X8.881 Y5.123 E16.40452
G1 X9.337 Y4.228 E16.46716
G1 X9.706 Y3.297 E16.52962
G1 X9.984 Y2.33 E16.59237
G1 X10.161 Y1.337 E16.65527
G1 X10.243 Y0.343 E16.71747
G1 X10.233 Y-.665 E16.78033
G1 X10.115 Y-1.678 E16.84393
G1 X9.897 Y-2.656 E16.90642
G1 X9.597 Y-3.606 E16.96855
G1 X9.194 Y-4.536 E17.03176
G1 X8.704 Y-5.411 E17.0943
G1 X8.131 Y-6.243 E17.1573
G1 X7.478 Y-7.007 E17.21998
G0 F3300 X7.113 Y-6.665
G1 F1800 X6.432 Y-7.329 E17.27929
G1 X5.681 Y-7.928 E17.3392
G1 X4.87 Y-8.45 E17.39935
G1 X4.017 Y-8.884 E17.45903
G1 X3.136 Y-9.235 E17.51817
G1 X2.207 Y-9.502 E17.57845
G1 X1.263 Y-9.667 E17.63821
G1 X0.323 Y-9.745 E17.69704
G1 X-.638 Y-9.736 E17.75697
G1 X-1.595 Y-9.623 E17.81707
G1 X-2.526 Y-9.424 E17.87644
G1 X-3.438 Y-9.127 E17.93625
G1 X-4.317 Y-8.748 E17.99595
G1 X-5.152 Y-8.282 E18.05558
G1 X-5.943 Y-7.737 E18.11548
G1 X-6.67 Y-7.117 E18.17507
G1 X-7.34 Y-6.43 E18.23492
G1 X-7.932 Y-5.677 E18.29465
G1 X-8.447 Y-4.879 E18.35388
G1 X-8.888 Y-4.027 E18.41371
G1 X-9.24 Y-3.134 E18.47357
G1 X-9.506 Y-2.211 E18.53347
G1 X-9.672 Y-1.267 E18.59324
G1 X-9.75 Y-.323 E18.65232
G1 X-9.74 Y0.635 E18.71206
G1 X-9.628 Y1.586 E18.77178
G1 X-9.429 Y2.528 E18.83182
G1 X-9.129 Y3.444 E18.89193
G1 X-8.751 Y4.314 E18.95109
G1 X-8.286 Y5.149 E19.01069
G1 X-7.741 Y5.94 E19.07059
G1 X-7.12 Y6.667 E19.13022
G1 X-6.439 Y7.331 E19.18954
G1 X-5.688 Y7.93 E19.24944
G1 X-4.877 Y8.452 E19.30959
G1 X-4.024 Y8.886 E19.36928
G1 X-3.144 Y9.237 E19.42836
G1 X-2.216 Y9.504 E19.48858
G1 X-1.269 Y9.669 E19.54853
G1 X-.33 Y9.747 E19.60729
G1 X0.63 Y9.738 E19.66716
G1 X1.588 Y9.625 E19.72732
G1 X2.524 Y9.423 E19.78703
G1 X3.434 Y9.127 E19.84671
G1 X4.308 Y8.75 E19.90607
G1 X5.147 Y8.284 E19.96592
G1 X5.935 Y7.739 E20.02567
G1 X6.662 Y7.118 E20.08529
G1 X7.327 Y6.436 E20.1447
G1 X7.926 Y5.684 E20.20465
G1 X8.447 Y4.874 E20.26472
G1 X8.881 Y4.022 E20.32434
G1 X9.232 Y3.136 E20.38378
G1 X9.496 Y2.217 E20.44341
G1 X9.665 Y1.272 E20.50327
G1 X9.743 Y0.325 E20.56253
G1 X9.733 Y-.633 E20.62228
G1 X9.621 Y-1.595 E20.68268
G1 X9.414 Y-2.526 E20.74215
G1 X9.128 Y-3.431 E20.80134
G1 X8.745 Y-4.314 E20.86137
G1 X8.279 Y-5.147 E20.92089
G1 X7.734 Y-5.938 E20.98079
G1 X7.113 Y-6.665 E21.04042
G1 F6600 E19.04042
G0 F3300 X8.97 Y-8.336
G1 F6600 E21.04042
G1 F1800 X9.448 Y-7.787 E21.08582
G1 X9.898 Y-7.203 E21.13179
G1 X10.367 Y-6.512 E21.18388
G1 X10.706 Y-5.938 E21.22545
G1 X11.035 Y-5.298 E21.27033
G1 X11.397 Y-4.477 E21.32628
G1 X11.596 Y-3.933 E21.36241
G1 X11.831 Y-3.159 E21.41285
G1 X12 Y-2.431 E21.45946
G1 X12.128 Y-1.679 E21.50703
G1 X12.21 Y-.926 E21.55427
G1 X12.243 Y-.274 E21.59498
G1 X12.23 Y0.508 E21.64375
G1 X12.166 Y1.372 E21.69778
G1 X12.08 Y2.004 E21.73756
G1 X11.93 Y2.768 E21.78611
G1 X11.744 Y3.469 E21.83134
G1 X11.503 Y4.206 E21.8797
G1 X11.263 Y4.81 E21.92023
G1 X10.9 Y5.578 E21.9732
G1 X10.548 Y6.218 E22.01876
G1 X10.163 Y6.83 E22.06385
G1 X9.713 Y7.453 E22.11177
G1 X9.253 Y8.021 E22.15735
G1 X8.727 Y8.59 E22.20568
G1 X8.188 Y9.104 E22.25212
G1 X7.612 Y9.593 E22.29924
G1 X7.052 Y10.012 E22.34286
G1 X6.425 Y10.424 E22.38965
G1 X5.686 Y10.848 E22.44278
G1 X5.127 Y11.124 E22.48166
G1 X4.408 Y11.426 E22.53029
G1 X3.665 Y11.687 E22.5794
G1 X2.941 Y11.89 E22.6263
G1 X2.274 Y12.036 E22.66888
G1 X1.533 Y12.151 E22.71564
