;FLAVOR:Repetier
;TIME:679
;Generated with Cura_SteamEngine 2.5.0
M190 S60
M104 S220
M109 S220
G28 ;Home
G1 Z15.0 F6000 ;Move the platform down 15mm
;Prime the extruder
G92 E0
G1 F200 E3
G92 E0
;LAYER_COUNT:146
;LAYER:0
M106 S255
G0 F3300 X-2.934 Y-1.612 Z0.3
;TYPE:WALL-OUTER
G1 F1262.8 X-3.08 Y-1.308 E0.02103
G1 X-3.197 Y-.99 E0.04216
G1 X-3.281 Y-.661 E0.06334
G1 X-3.332 Y-.324 E0.08459
G1 X-3.347 Y0.014 E0.10569
G1 X-3.329 Y0.352 E0.1268
G1 X-3.276 Y0.687 E0.14795
G1 X-3.189 Y1.016 E0.16918
G1 X-3.07 Y1.334 E0.19035
G1 X-2.919 Y1.637 E0.21146
G1 X-2.739 Y1.924 E0.23259
G1 X-2.53 Y2.192 E0.25378
G1 X-2.295 Y2.436 E0.27491
G1 X-2.037 Y2.656 E0.29605
G1 X-1.758 Y2.849 E0.31721
G1 X-1.461 Y3.013 E0.33837
G1 X-1.148 Y3.146 E0.35958
G1 X-.823 Y3.247 E0.3808
G1 X-.491 Y3.313 E0.40191
G1 X-.154 Y3.346 E0.42303
G1 X0.185 Y3.345 E0.44417
G1 X0.523 Y3.308 E0.46537
G1 X0.855 Y3.239 E0.48652
G1 X1.178 Y3.136 E0.50766
G1 X1.489 Y3.001 E0.52881
G1 X1.785 Y2.835 E0.54997
G1 X2.063 Y2.64 E0.57115
G1 X2.319 Y2.418 E0.59228
G1 X2.553 Y2.171 E0.6135
G1 X2.759 Y1.901 E0.63468
G1 X2.938 Y1.612 E0.65588
G1 X3.084 Y1.308 E0.67691
G1 X3.201 Y0.99 E0.69804
G1 X3.285 Y0.661 E0.71921
G1 X3.336 Y0.324 E0.74047
G1 X3.35 Y-0.014 E0.76157
G1 X3.333 Y-.352 E0.78267
G1 X3.28 Y-.687 E0.80382
G1 X3.193 Y-1.016 E0.82505
G1 X3.074 Y-1.334 E0.84622
G1 X2.923 Y-1.637 E0.86733
G1 X2.743 Y-1.924 E0.88846
G1 X2.534 Y-2.192 E0.90965
G1 X2.299 Y-2.436 E0.93078
G1 X2.041 Y-2.656 E0.95193
G1 X1.762 Y-2.849 E0.97308
G1 X1.465 Y-3.013 E0.99424
G1 X1.152 Y-3.146 E1.01545
G1 X0.827 Y-3.247 E1.03667
G1 X0.495 Y-3.313 E1.05778
G1 X0.157 Y-3.346 E1.07896
G1 X-.182 Y-3.345 E1.1001
G1 X-.519 Y-3.308 E1.12124
G1 X-.851 Y-3.239 E1.14239
G1 X-1.174 Y-3.136 E1.16353
G1 X-1.485 Y-3.001 E1.18468
G1 X-1.781 Y-2.835 E1.20584
G1 X-2.059 Y-2.64 E1.22702
G1 X-2.315 Y-2.418 E1.24815
G1 X-2.549 Y-2.171 E1.26937
G1 X-2.755 Y-1.901 E1.29055
G1 X-2.934 Y-1.612 E1.31175
G0 F3300 X-3.042 Y-1.387
G0 X-3.715 Y-2.056
G1 F1262.8 X-3.531 Y-2.36 E1.33391
G1 X-3.319 Y-2.65 E1.35631
G1 X-3.081 Y-2.924 E1.37894
G1 X-2.837 Y-3.161 E1.40016
G1 X-2.559 Y-3.39 E1.42262
G1 X-2.263 Y-3.595 E1.44507
G1 X-1.954 Y-3.772 E1.46728
G1 X-1.64 Y-3.918 E1.48887
G1 X-1.299 Y-4.044 E1.51155
G1 X-.959 Y-4.139 E1.53356
G1 X-.608 Y-4.204 E1.55582
G1 X-.249 Y-4.241 E1.57833
G1 X0.108 Y-4.248 E1.6006
G1 X0.454 Y-4.225 E1.62222
G1 X0.808 Y-4.172 E1.64454
G1 X1.148 Y-4.091 E1.66634
G1 X1.498 Y-3.977 E1.6893
G1 X1.825 Y-3.838 E1.71146
G1 X2.126 Y-3.68 E1.73266
G1 X2.436 Y-3.482 E1.75559
G1 X2.717 Y-3.268 E1.77762
G1 X2.99 Y-3.021 E1.80058
G1 X3.224 Y-2.769 E1.82203
G1 X3.443 Y-2.491 E1.8441
G1 X3.642 Y-2.192 E1.8665
G1 X3.811 Y-1.88 E1.88862
G1 X3.96 Y-1.544 E1.91155
G1 X4.073 Y-1.217 E1.93312
G1 X4.158 Y-.883 E1.95461
G1 X4.22 Y-.511 E1.97813
G1 X4.248 Y-.167 E1.99966
G1 X4.247 Y0.189 E2.02186
G1 X4.215 Y0.547 E2.04427
G1 X4.158 Y0.883 E2.06553
G1 X4.066 Y1.237 E2.08834
G1 X3.946 Y1.579 E2.11094
G1 X3.802 Y1.899 E2.13282
G1 X3.634 Y2.207 E2.1547
G1 X3.43 Y2.51 E2.17748
G1 X3.211 Y2.784 E2.19936
G1 X2.968 Y3.042 E2.22146
G1 X2.71 Y3.274 E2.2431
G1 X2.414 Y3.497 E2.26621
G1 X2.114 Y3.686 E2.28832
G1 X1.795 Y3.851 E2.31072
G1 X1.478 Y3.984 E2.33216
G1 X1.136 Y4.095 E2.35458
G1 X0.779 Y4.178 E2.37744
G1 X0.445 Y4.226 E2.39848
G1 X0.075 Y4.249 E2.4216
G1 X-.271 Y4.24 E2.44318
G1 X-.629 Y4.201 E2.46564
G1 X-.979 Y4.134 E2.48787
G1 X-1.326 Y4.036 E2.51035
G1 X-1.653 Y3.913 E2.53214
G1 X-1.981 Y3.757 E2.55479
G1 X-2.28 Y3.584 E2.57633
G1 X-2.576 Y3.378 E2.59882
G1 X-2.852 Y3.148 E2.62123
G1 X-3.097 Y2.907 E2.64266
G1 X-3.336 Y2.628 E2.66557
G1 X-3.544 Y2.34 E2.68772
G1 X-3.728 Y2.034 E2.70999
G1 X-3.88 Y1.725 E2.73147
G1 X-4.017 Y1.377 E2.75479
G1 X-4.114 Y1.054 E2.77582
G1 X-4.19 Y0.688 E2.79913
G1 X-4.232 Y0.347 E2.82056
G1 X-4.248 Y-0.012 E2.84297
G1 X-4.231 Y-.367 E2.86514
G1 X-4.184 Y-.729 E2.8879
G1 X-4.112 Y-1.063 E2.90921
G1 X-4.007 Y-1.406 E2.93158
G1 X-3.879 Y-1.728 E2.95319
G1 X-3.715 Y-2.056 E2.97606
G0 F3300 X-3.586 Y-2.27
G0 X-3.294 Y-1.88
G1 F1262.8 X-3.159 Y-2.098 E2.99112
G1 X-3.012 Y-2.305 E3.00613
G1 X-2.854 Y-2.5 E3.02094
G1 X-2.682 Y-2.682 E3.03562
G1 X-2.499 Y-2.853 E3.05033
G1 X-2.305 Y-3.013 E3.0651
G1 X-2.099 Y-3.159 E3.07981
G1 X-1.88 Y-3.294 E3.09483
G1 X-1.648 Y-3.416 E3.11019
G1 X-1.403 Y-3.525 E3.12591
G1 X-1.141 Y-3.616 E3.14203
G1 X-.863 Y-3.691 E3.15884
G1 X-.565 Y-3.747 E3.17654
G1 X-.244 Y-3.78 E3.19541
G1 X0.104 Y-3.784 E3.21569
G1 X0.491 Y-3.75 E3.23836
G0 F3300 X1.059 Y-3.889
;TYPE:SKIN
G1 F1262.8 X2.015 Y-2.933 E3.28052
G0 F3300 X2.482 Y-3.174
G1 F1262.8 X3.181 Y-2.474 E3.31136
G0 F3300 X3.418 Y-1.53
G1 F1262.8 X3.655 Y-.939 E3.34679
G0 F3300 X3.697 Y-1.605
G1 F1262.8 X1.608 Y-3.694 E3.4389
G0 F3300 X1.265 Y-3.331
G1 F1262.8 X0.613 Y-3.982 E3.46763
G1 F6600 E1.46763
G0 F3300 X3.755 Y-.486
G1 F6600 E3.46763
G1 F1262.8 X3.789 Y-0.099 E3.49026
G1 X3.783 Y0.247 E3.51063
G1 X3.752 Y0.57 E3.52953
G1 X3.694 Y0.866 E3.54722
G1 X3.617 Y1.142 E3.56401
G1 X3.524 Y1.403 E3.58026
G1 X3.417 Y1.65 E3.59607
G1 X3.298 Y1.884 E3.61139
G1 X3.161 Y2.101 E3.62647
G1 X3.014 Y2.307 E3.64134
G1 X2.856 Y2.503 E3.65612
G1 X2.684 Y2.684 E3.67082
G1 X2.5 Y2.854 E3.68554
G1 X2.307 Y3.014 E3.70024
G1 X2.101 Y3.162 E3.71507
G1 X1.881 Y3.295 E3.73008
G1 X1.648 Y3.416 E3.74547
G1 X1.403 Y3.525 E3.76112
G1 X1.143 Y3.617 E3.77722
G1 X0.864 Y3.693 E3.79414
G1 X0.566 Y3.748 E3.81186
G1 X0.246 Y3.782 E3.83085
G1 X-.103 Y3.785 E3.85126
G1 X-.491 Y3.75 E3.8741
G1 X-.939 Y3.655 E3.90061
G0 F3300 X-1.605 Y3.697
G1 F1262.8 X-3.692 Y1.61 E3.99264
G0 F3300 X-3.65 Y0.944
G1 F1262.8 X-3.748 Y0.493 E4.01917
G1 X-3.784 Y0.104 E4.04178
G1 X-3.779 Y-.244 E4.0621
G1 X-3.748 Y-.566 E4.0809
G1 X-3.692 Y-.863 E4.09854
G1 X-3.615 Y-1.141 E4.11556
G1 X-3.522 Y-1.401 E4.13185
G1 X-3.414 Y-1.646 E4.14764
G1 F6600 E2.14764
G0 F3300 X-3.886 Y1.062
G1 F6600 E4.14764
G1 F1262.8 X-2.935 Y2.014 E4.1896
G0 F3300 X-3.177 Y2.479
G1 F1262.8 X-2.484 Y3.172 E4.22016
G0 F3300 X-2.024 Y2.925
G1 F1262.8 X-1.063 Y3.886 E4.26254
G1 F6600 E2.26254
G0 F3300 X-2.915 Y1.645
;TIME_ELAPSED:4.646421
;LAYER:1
M140 S60
G0 F4950 X-2.915 Y1.645 Z0.45
;TYPE:WALL-OUTER
G1 F6600 E4.26254
G1 F1124.8 X-2.733 Y1.932 E4.27314
G1 X-2.524 Y2.198 E4.28369
G1 X-2.288 Y2.443 E4.29429
G1 X-2.029 Y2.662 E4.30487
G1 X-1.749 Y2.853 E4.31544
G1 X-1.452 Y3.016 E4.326
G1 X-1.139 Y3.148 E4.33659
G1 X-.815 Y3.248 E4.34717
G1 X-.482 Y3.314 E4.35775
G1 X-.145 Y3.346 E4.36831
G1 X0.193 Y3.344 E4.37885
G1 X0.531 Y3.307 E4.38945
G1 X0.863 Y3.237 E4.40003
G1 X1.187 Y3.133 E4.41064
G1 X1.498 Y2.997 E4.42122
G1 X1.793 Y2.829 E4.43181
G1 X2.07 Y2.634 E4.44237
G1 X2.326 Y2.411 E4.45296
G1 X2.558 Y2.164 E4.46352
G1 X2.764 Y1.893 E4.47414
G1 X2.941 Y1.605 E4.48468
G1 X3.088 Y1.299 E4.49526
G1 X3.203 Y0.98 E4.50584
G1 X3.286 Y0.652 E4.51639
G1 X3.336 Y0.316 E4.52698
G1 X3.35 Y-0.023 E4.53756
G1 X3.332 Y-.361 E4.54811
G1 X3.278 Y-.697 E4.55873
G1 X3.19 Y-1.025 E4.56931
G1 X3.07 Y-1.341 E4.57985
G1 X2.919 Y-1.645 E4.59044
G1 X2.737 Y-1.932 E4.60104
G1 X2.528 Y-2.198 E4.61158
G1 X2.292 Y-2.443 E4.62219
G1 X2.033 Y-2.662 E4.63277
G1 X1.753 Y-2.853 E4.64334
G1 X1.456 Y-3.016 E4.6539
G1 X1.143 Y-3.148 E4.66449
G1 X0.819 Y-3.248 E4.67506
G1 X0.486 Y-3.314 E4.68565
G1 X0.148 Y-3.346 E4.69624
G1 X-.19 Y-3.344 E4.70678
G1 X-.528 Y-3.307 E4.71738
G1 X-.859 Y-3.237 E4.72793
G1 X-1.183 Y-3.133 E4.73854
G1 X-1.494 Y-2.997 E4.74912
G1 X-1.789 Y-2.829 E4.75971
G1 X-2.066 Y-2.634 E4.77027
G1 X-2.322 Y-2.411 E4.78086
G1 X-2.554 Y-2.164 E4.79142
G1 X-2.76 Y-1.893 E4.80204
G1 X-2.937 Y-1.605 E4.81258
G1 X-3.084 Y-1.299 E4.82316
G1 X-3.199 Y-.98 E4.83374
G1 X-3.282 Y-.652 E4.84429
G1 X-3.332 Y-.316 E4.85488
G1 X-3.347 Y0.023 E4.86546
G1 X-3.328 Y0.361 E4.87602
G1 X-3.274 Y0.697 E4.88663
G1 X-3.186 Y1.025 E4.89722
G1 X-3.066 Y1.341 E4.90776
G1 X-2.915 Y1.645 E4.91834
G0 F4950 X-2.781 Y1.856
G0 X-3.548 Y2.333
G1 F1124.8 X-3.727 Y2.036 E4.92915
G1 X-3.887 Y1.708 E4.94053
G1 X-4.016 Y1.381 E4.95149
G1 X-4.118 Y1.036 E4.96271
G1 X-4.189 Y0.689 E4.97376
G1 X-4.233 Y0.339 E4.98475
G1 X-4.247 Y-0.019 E4.99593
G1 X-4.23 Y-.373 E5.00698
G1 X-4.182 Y-.736 E5.01839
G1 X-4.109 Y-1.071 E5.02909
G1 X-4.004 Y-1.413 E5.04024
G1 X-3.875 Y-1.735 E5.05106
G1 X-3.711 Y-2.063 E5.06249
G1 X-3.521 Y-2.376 E5.07391
G1 X-3.322 Y-2.646 E5.08437
G1 X-3.075 Y-2.93 E5.0961
G1 X-2.826 Y-3.171 E5.10691
G1 X-2.56 Y-3.389 E5.11763
G1 X-2.256 Y-3.599 E5.12915
G1 X-1.947 Y-3.775 E5.14024
G1 X-1.634 Y-3.921 E5.15101
G1 X-1.291 Y-4.046 E5.16239
G1 X-.949 Y-4.141 E5.17346
G1 X-.603 Y-4.205 E5.18443
G1 X-.244 Y-4.241 E5.19568
G1 X0.114 Y-4.248 E5.20685
G1 X0.462 Y-4.224 E5.21773
G1 X0.815 Y-4.171 E5.22886
G1 X1.165 Y-4.087 E5.24008
G1 X1.494 Y-3.978 E5.25089
G1 X1.831 Y-3.834 E5.26231
G1 X2.141 Y-3.671 E5.27324
G1 X2.442 Y-3.478 E5.28438
G1 X2.721 Y-3.264 E5.29535
G1 X2.988 Y-3.022 E5.30658
G1 X3.229 Y-2.763 E5.31762
G1 X3.45 Y-2.483 E5.32874
G1 X3.644 Y-2.188 E5.33975
G1 X3.817 Y-1.869 E5.35106
G1 X3.962 Y-1.538 E5.36233
G1 X4.074 Y-1.21 E5.37314
G1 X4.159 Y-.875 E5.38392
G1 X4.221 Y-.504 E5.39564
G1 X4.248 Y-.162 E5.40634
G1 X4.246 Y0.196 E5.4175
G1 X4.215 Y0.552 E5.42865
G1 X4.154 Y0.897 E5.43957
G1 X4.064 Y1.243 E5.45072
G1 X3.943 Y1.585 E5.46203
G1 X3.804 Y1.896 E5.47265
G1 X3.626 Y2.217 E5.4841
G1 X3.425 Y2.516 E5.49533
G1 X3.213 Y2.782 E5.50594
G1 X2.958 Y3.052 E5.51752
G1 X2.697 Y3.285 E5.52843
G1 X2.415 Y3.497 E5.53943
G1 X2.103 Y3.693 E5.55092
G1 X1.803 Y3.847 E5.56143
G1 X1.462 Y3.989 E5.57295
G1 X1.132 Y4.095 E5.58376
G1 X0.781 Y4.176 E5.59499
G1 X0.428 Y4.227 E5.60611
G1 X0.069 Y4.249 E5.61733
G1 X-.288 Y4.239 E5.62846
G1 X-.627 Y4.201 E5.6391
G1 X-.994 Y4.131 E5.65075
G1 X-1.324 Y4.036 E5.66146
G1 X-1.655 Y3.912 E5.67248
G1 X-1.991 Y3.751 E5.6841
G1 X-2.281 Y3.583 E5.69455
G1 X-2.589 Y3.367 E5.70628
G1 X-2.851 Y3.148 E5.71693
G1 X-3.115 Y2.887 E5.7285
G1 X-3.336 Y2.628 E5.73912
G1 X-3.548 Y2.333 E5.75044
G0 F4950 X-3.677 Y2.119
G0 X-3.294 Y1.88
G1 F1312.3 X-3.159 Y2.098 E5.75796
G1 X-3.012 Y2.305 E5.76543
G1 X-2.854 Y2.5 E5.77279
G1 X-2.681 Y2.681 E5.7801
G1 X-2.499 Y2.853 E5.78747
G1 X-2.306 Y3.013 E5.79485
G1 X-2.097 Y3.158 E5.80229
G1 X-1.879 Y3.293 E5.80982
G1 X-1.647 Y3.415 E5.81752
G1 X-1.404 Y3.525 E5.82539
G1 X-1.141 Y3.616 E5.83353
G1 X-.863 Y3.691 E5.842
G1 X-.565 Y3.747 E5.85089
G1 X-.244 Y3.78 E5.86035
G1 X0.104 Y3.784 E5.8705
G1 X0.492 Y3.749 E5.8819
G0 F4950 X1.059 Y3.89
;TYPE:SKIN
G1 F1312.3 X2.015 Y2.933 E5.90299
G0 F4950 X2.471 Y3.185
G1 F1312.3 X3.186 Y2.469 E5.91876
G0 F4950 X3.419 Y1.529
G1 F1312.3 X3.656 Y0.939 E5.93633
G0 F4950 X3.697 Y1.605
G1 F1312.3 X1.61 Y3.692 E5.98235
G0 F4950 X1.264 Y3.331
G1 F1312.3 X0.613 Y3.982 E5.9967
G1 F6600 E3.9967
G0 F4950 X3.752 Y0.488
G1 F6600 E5.9967
G1 F1312.3 X3.789 Y0.099 E6.00801
G1 X3.785 Y-.249 E6.01816
G1 X3.751 Y-.569 E6.0276
G1 X3.693 Y-.865 E6.03642
G1 X3.617 Y-1.143 E6.04483
G1 X3.524 Y-1.403 E6.05292
G1 X3.418 Y-1.651 E6.06081
G1 X3.297 Y-1.883 E6.06846
G1 X3.161 Y-2.1 E6.07597
G1 X3.014 Y-2.307 E6.08341
G1 X2.856 Y-2.503 E6.09076
G1 X2.684 Y-2.684 E6.09806
G1 X2.5 Y-2.854 E6.10542
G1 X2.307 Y-3.014 E6.11277
G1 X2.1 Y-3.161 E6.12023
G1 X1.881 Y-3.295 E6.12783
G1 X1.649 Y-3.417 E6.13555
G1 X1.403 Y-3.525 E6.14339
G1 X1.142 Y-3.616 E6.15146
G1 X0.864 Y-3.692 E6.15996
G1 X0.567 Y-3.749 E6.16895
G1 X0.246 Y-3.782 E6.17849
G1 X-.103 Y-3.785 E6.18874
G1 X-.491 Y-3.75 E6.20019
G1 X-.938 Y-3.657 E6.21348
G0 F4950 X-1.608 Y-3.694
G1 F1312.3 X-3.693 Y-1.61 E6.25944
G0 F4950 X-3.65 Y-.945
G1 F1312.3 X-3.747 Y-.494 E6.27273
G1 X-3.784 Y-.104 E6.28405
G1 X-3.779 Y0.244 E6.29414
G1 X-3.747 Y0.565 E6.30345
G1 X-3.691 Y0.862 E6.31224
G1 X-3.615 Y1.14 E6.32068
G1 X-3.522 Y1.4 E6.32879
G1 X-3.414 Y1.647 E6.33668
G1 F6600 E4.33668
G0 F4950 X-3.884 Y-1.064
G1 F6600 E6.33668
G1 F1312.3 X-2.94 Y-2.009 E6.3575
G0 F4950 X-3.18 Y-2.476
G1 F1312.3 X-2.486 Y-3.17 E6.37281
G0 F4950 X-2.025 Y-2.923
G1 F1312.3 X-1.064 Y-3.885 E6.394
G1 F6600 E4.394
G0 F4950 X-2.765 Y-1.886
;TIME_ELAPSED:9.233012
;LAYER:2
G0 F6600 X-2.765 Y-1.886 Z0.6
;TYPE:WALL-OUTER
G1 F6600 E6.394
G1 F1042.8 X-2.941 Y-1.596 E6.40458
G1 X-3.087 Y-1.291 E6.41513
G1 X-3.202 Y-.972 E6.4257
G1 X-3.285 Y-.642 E6.43631
G1 X-3.333 Y-.306 E6.44689
G1 X-3.346 Y0.033 E6.45747
G1 X-3.326 Y0.371 E6.46803
G1 X-3.271 Y0.706 E6.47862
G1 X-3.183 Y1.033 E6.48917
G1 X-3.062 Y1.35 E6.49975
G1 X-2.91 Y1.652 E6.5103
G1 X-2.728 Y1.939 E6.52089
G1 X-2.517 Y2.206 E6.5315
G1 X-2.28 Y2.449 E6.54209
G1 X-2.021 Y2.667 E6.55264
G1 X-1.742 Y2.859 E6.56321
G1 X-1.443 Y3.021 E6.57381
G1 X-1.13 Y3.152 E6.58439
G1 X-.806 Y3.25 E6.59494
G1 X-.472 Y3.315 E6.60555
G1 X-.135 Y3.346 E6.61611
G1 X0.203 Y3.343 E6.62665
G1 X0.54 Y3.305 E6.63722
G1 X0.873 Y3.234 E6.64784
G1 X1.196 Y3.129 E6.65843
G1 X1.506 Y2.992 E6.669
G1 X1.8 Y2.824 E6.67955
G1 X2.077 Y2.627 E6.69015
G1 X2.332 Y2.404 E6.70072
G1 X2.563 Y2.156 E6.71128
G1 X2.769 Y1.886 E6.72187
G1 X2.945 Y1.596 E6.73245
G1 X3.091 Y1.291 E6.74299
G1 X3.206 Y0.972 E6.75357
G1 X3.289 Y0.642 E6.76418
G1 X3.336 Y0.306 E6.77476
G1 X3.35 Y-0.032 E6.78531
G1 X3.33 Y-.371 E6.79589
G1 X3.275 Y-.706 E6.80648
G1 X3.187 Y-1.033 E6.81704
G1 X3.066 Y-1.35 E6.82762
G1 X2.914 Y-1.652 E6.83816
G1 X2.732 Y-1.939 E6.84876
G1 X2.521 Y-2.206 E6.85937
G1 X2.284 Y-2.449 E6.86995
G1 X2.025 Y-2.667 E6.88051
G1 X1.746 Y-2.859 E6.89107
G1 X1.447 Y-3.021 E6.90167
G1 X1.134 Y-3.152 E6.91225
G1 X0.81 Y-3.25 E6.92281
G1 X0.476 Y-3.315 E6.93342
G1 X0.138 Y-3.346 E6.944
G1 X-.2 Y-3.343 E6.95454
G1 X-.536 Y-3.305 E6.96509
G1 X-.869 Y-3.234 E6.9757
G1 X-1.192 Y-3.129 E6.98629
G1 X-1.502 Y-2.992 E6.99686
G1 X-1.796 Y-2.824 E7.00742
G1 X-2.073 Y-2.627 E7.01802
G1 X-2.328 Y-2.404 E7.02858
G1 X-2.559 Y-2.156 E7.03915
G1 X-2.765 Y-1.886 E7.04974
G0 F6600 X-2.894 Y-1.673
G0 X-3.529 Y-2.363
G1 F1042.8 X-3.311 Y-2.658 E7.06118
G1 X-3.078 Y-2.926 E7.07225
G1 X-2.82 Y-3.175 E7.08343
G1 X-2.546 Y-3.399 E7.09447
G1 X-2.25 Y-3.602 E7.10566
G1 X-1.945 Y-3.776 E7.11661
G1 X-1.622 Y-3.925 E7.1277
G1 X-1.282 Y-4.049 E7.13898
G1 X-.945 Y-4.142 E7.14988
G1 X-.595 Y-4.206 E7.16098
G1 X-.236 Y-4.242 E7.17223
G1 X0.121 Y-4.247 E7.18336
G1 X0.468 Y-4.223 E7.19421
G1 X0.824 Y-4.168 E7.20544
G1 X1.169 Y-4.086 E7.2165
G1 X1.504 Y-3.974 E7.22751
G1 X1.833 Y-3.833 E7.23867
G1 X2.152 Y-3.665 E7.24991
G1 X2.447 Y-3.475 E7.26085
G1 X2.721 Y-3.264 E7.27164
G1 X2.999 Y-3.01 E7.28338
G1 X3.233 Y-2.759 E7.29408
G1 X3.455 Y-2.476 E7.3053
G1 X3.648 Y-2.181 E7.31629
G1 X3.819 Y-1.863 E7.32755
G1 X3.957 Y-1.55 E7.33821
G1 X4.079 Y-1.193 E7.34998
G1 X4.161 Y-.868 E7.36043
G1 X4.221 Y-.497 E7.37215
G1 X4.248 Y-.154 E7.38287
G1 X4.246 Y0.202 E7.39398
G1 X4.213 Y0.561 E7.40522
G1 X4.154 Y0.897 E7.41585
G1 X4.06 Y1.253 E7.42733
G1 X3.942 Y1.587 E7.43838
G1 X3.793 Y1.916 E7.44964
G1 X3.623 Y2.221 E7.46053
G1 X3.422 Y2.52 E7.47176
G1 X3.201 Y2.796 E7.48279
G1 X2.959 Y3.05 E7.49373
G1 X2.69 Y3.29 E7.50497
G1 X2.403 Y3.504 E7.51613
G1 X2.102 Y3.693 E7.52721
G1 X1.796 Y3.85 E7.53794
G1 X1.454 Y3.991 E7.54947
G1 X1.125 Y4.097 E7.56025
G1 X0.774 Y4.177 E7.57148
G1 X0.42 Y4.228 E7.58263
G1 X0.062 Y4.248 E7.59381
G1 X-.296 Y4.238 E7.60498
G1 X-.642 Y4.199 E7.61583
G1 X-.992 Y4.131 E7.62695
G1 X-1.327 Y4.035 E7.63782
G1 X-1.665 Y3.906 E7.6491
G1 X-1.992 Y3.75 E7.6604
G1 X-2.299 Y3.571 E7.67148
G1 X-2.578 Y3.375 E7.68211
G1 X-2.862 Y3.138 E7.69364
G1 X-3.12 Y2.882 E7.70498
G1 X-3.34 Y2.622 E7.7156
G1 X-3.55 Y2.331 E7.72678
G1 X-3.731 Y2.026 E7.73784
G1 X-3.89 Y1.701 E7.74913
G1 X-4.018 Y1.373 E7.7601
G1 X-4.12 Y1.03 E7.77126
G1 X-4.19 Y0.681 E7.78236
G1 X-4.233 Y0.332 E7.79333
G1 X-4.247 Y-0.024 E7.80444
G1 X-4.23 Y-.38 E7.81555
G1 X-4.18 Y-.742 E7.82694
G1 X-4.109 Y-1.071 E7.83744
G1 X-4 Y-1.423 E7.84893
G1 X-3.866 Y-1.755 E7.86009
G1 X-3.709 Y-2.069 E7.87104
G1 X-3.529 Y-2.363 E7.88179
G0 F6600 X-3.381 Y-2.564
G0 X-3.011 Y-2.304
G1 F1390.5 X-2.852 Y-2.498 E7.88917
G1 X-2.681 Y-2.681 E7.8965
G1 X-2.499 Y-2.852 E7.90385
G1 X-2.304 Y-3.011 E7.91125
G1 X-2.098 Y-3.159 E7.91866
G1 X-1.879 Y-3.293 E7.92615
G1 X-1.648 Y-3.415 E7.93384
G1 X-1.403 Y-3.524 E7.9417
G1 X-1.141 Y-3.616 E7.94979
