;FLAVOR:Repetier
;TIME:3405
;Generated with Cura_SteamEngine 2.5.0
M190 S60
M104 S220
M109 S220
G28 ;Home
G1 Z15.0 F6000 ;Move the platform down 15mm
;Prime the extruder
G92 E0
G1 F200 E3
G92 E0
;LAYER_COUNT:82
;LAYER:0
M106 S255
G0 F3300 X-20.357 Y-11.945 Z0.3
;TYPE:SKIRT
G1 F1800 X-17.103 Y-16.333 E0.34068
G1 X-16.569 Y-16.914 E0.38989
G1 X-14.634 Y-18.617 E0.55064
G1 X-14.027 Y-19.052 E0.59721
G1 X-9.294 Y-21.776 E0.93777
G1 X-8.725 Y-22.043 E0.97697
G1 X-7.504 Y-22.495 E1.05816
G1 X-7.152 Y-22.606 E1.08118
G1 X-5.362 Y-23.075 E1.19658
G1 X-4.767 Y-23.18 E1.23426
G1 X0.712 Y-23.701 E1.57748
G1 X1.44 Y-23.699 E1.62288
G1 X3.433 Y-23.5 E1.74779
G1 X3.81 Y-23.443 E1.77157
G1 X4.584 Y-23.285 E1.82083
G1 X4.992 Y-23.178 E1.84714
G1 X9.799 Y-21.618 E2.16231
G1 X10.316 Y-21.406 E2.19715
G1 X11.492 Y-20.819 E2.27912
G1 X11.794 Y-20.651 E2.30067
G1 X13.295 Y-19.72 E2.41082
G1 X13.838 Y-19.31 E2.45325
G1 X17.997 Y-15.535 E2.80353
G1 X18.476 Y-15.01 E2.84785
G1 X19.61 Y-13.5 E2.96562
G1 X19.846 Y-13.144 E2.99225
G1 X20.475 Y-12.071 E3.06982
G1 X20.666 Y-11.7 E3.09584
G1 X22.663 Y-7.212 E3.40218
G1 X22.886 Y-6.551 E3.44569
G1 X23.45 Y-4.168 E3.5984
G1 X23.519 Y-3.796 E3.622
G1 X23.613 Y-3.085 E3.66672
G1 X23.645 Y-2.591 E3.69759
G1 X23.642 Y2.684 E4.02656
G1 X23.589 Y3.308 E4.06561
G1 X23.351 Y4.714 E4.15454
G1 X23.272 Y5.075 E4.17759
G1 X22.805 Y6.787 E4.28825
G1 X22.599 Y7.356 E4.32599
G1 X20.31 Y12.374 E4.66995
G1 X19.943 Y13.006 E4.71552
G1 X18.769 Y14.64 E4.841
G1 X18.545 Y14.923 E4.86351
G1 X18.029 Y15.512 E4.91234
G1 X17.718 Y15.827 E4.93995
G1 X13.942 Y19.229 E5.25691
G1 X13.494 Y19.575 E5.29221
G1 X12.408 Y20.29 E5.37329
G1 X12.117 Y20.463 E5.39441
G1 X10.553 Y21.301 E5.50506
G1 X9.943 Y21.562 E5.54644
G1 X4.8 Y23.236 E5.88373
G1 X4.188 Y23.38 E5.92294
G1 X2.816 Y23.583 E6.00943
G1 X2.434 Y23.619 E6.03336
G1 X0.594 Y23.701 E6.14822
G1 X0.028 Y23.684 E6.18353
G1 X-5.122 Y23.133 E6.50654
G1 X-5.886 Y22.969 E6.55527
G1 X-8.608 Y22.081 E6.73382
G1 X-9.322 Y21.763 E6.78257
G1 X-14.098 Y19.002 E7.1266
G1 X-14.736 Y18.537 E7.17583
G1 X-16.847 Y16.629 E7.35328
G1 X-17.363 Y16.055 E7.40142
G1 X-20.549 Y11.68 E7.73893
G1 X-20.877 Y11.139 E7.77839
G1 X-21.5 Y9.884 E7.86577
G1 X-21.648 Y9.545 E7.88883
G1 X-22.288 Y7.855 E8.00153
G1 X-22.45 Y7.301 E8.03753
G1 X-23.524 Y2.208 E8.36213
G1 X-23.605 Y1.43 E8.41091
G1 X-23.602 Y-1.438 E8.58976
G1 X-23.521 Y-2.208 E8.63805
G1 X-22.399 Y-7.526 E8.97699
G1 X-22.217 Y-8.13 E9.01633
G1 X-21.719 Y-9.39 E9.10083
G1 X-21.556 Y-9.747 E9.1253
G1 X-20.669 Y-11.446 E9.24482
G1 X-20.357 Y-11.945 E9.28153
G0 F3300 X-19.956 Y-11.647
G1 F1800 X-16.702 Y-16.035 E9.62221
G1 X-16.238 Y-16.539 E9.66493
G1 X-14.303 Y-18.242 E9.82568
G1 X-13.777 Y-18.619 E9.86604
G1 X-9.044 Y-21.343 E10.20659
G1 X-8.551 Y-21.574 E10.24055
G1 X-7.33 Y-22.026 E10.32174
G1 X-7.026 Y-22.122 E10.34162
G1 X-5.236 Y-22.591 E10.45702
G1 X-4.72 Y-22.682 E10.4897
G1 X0.759 Y-23.203 E10.83292
G1 X1.39 Y-23.202 E10.87227
G1 X3.383 Y-23.003 E10.99718
G1 X3.71 Y-22.953 E11.01781
G1 X4.484 Y-22.795 E11.06707
G1 X4.837 Y-22.702 E11.08984
G1 X9.644 Y-21.142 E11.40501
G1 X10.092 Y-20.959 E11.43519
G1 X11.268 Y-20.372 E11.51716
G1 X11.53 Y-20.226 E11.53586
G1 X13.031 Y-19.295 E11.64601
G1 X13.502 Y-18.94 E11.68279
G1 X17.661 Y-15.165 E12.03307
G1 X18.076 Y-14.71 E12.07147
G1 X19.21 Y-13.2 E12.18924
G1 X19.415 Y-12.892 E12.21231
G1 X20.044 Y-11.819 E12.28988
G1 X20.209 Y-11.496 E12.3125
G1 X22.206 Y-7.008 E12.61884
G1 X22.4 Y-6.436 E12.65651
G1 X22.964 Y-4.053 E12.80922
G1 X23.023 Y-3.73 E12.8297
G1 X23.117 Y-3.019 E12.87442
G1 X23.145 Y-2.591 E12.90117
G1 X23.142 Y2.684 E13.23014
G1 X23.096 Y3.224 E13.26393
G1 X22.858 Y4.63 E13.35286
G1 X22.789 Y4.943 E13.37285
G1 X22.322 Y6.655 E13.48352
G1 X22.144 Y7.149 E13.51626
G1 X19.855 Y12.167 E13.86022
G1 X19.537 Y12.714 E13.89968
G1 X18.363 Y14.348 E14.02515
G1 X18.169 Y14.594 E14.04469
G1 X17.653 Y15.183 E14.09352
G1 X17.383 Y15.456 E14.11747
G1 X13.607 Y18.858 E14.43443
G1 X13.219 Y19.158 E14.46501
G1 X12.133 Y19.873 E14.5461
G1 X11.881 Y20.023 E14.56439
G1 X10.317 Y20.861 E14.67504
G1 X9.788 Y21.086 E14.71089
G1 X4.645 Y22.76 E15.04819
G1 X4.115 Y22.885 E15.08215
G1 X2.743 Y23.088 E15.16864
G1 X2.412 Y23.12 E15.18938
G1 X0.572 Y23.202 E15.30424
G1 X0.081 Y23.187 E15.33487
G1 X-5.069 Y22.636 E15.65787
G1 X-5.731 Y22.494 E15.7001
G1 X-8.453 Y21.606 E15.87865
G1 X-9.072 Y21.33 E15.92092
G1 X-13.848 Y18.569 E16.26495
G1 X-14.4 Y18.166 E16.30757
G1 X-16.511 Y16.258 E16.48503
G1 X-16.959 Y15.76 E16.5268
G1 X-20.145 Y11.385 E16.86432
G1 X-20.429 Y10.917 E16.89846
G1 X-21.052 Y9.662 E16.98583
G1 X-21.18 Y9.368 E17.00583
G1 X-21.82 Y7.678 E17.11853
G1 X-21.961 Y7.198 E17.14973
G1 X-23.035 Y2.105 E17.47433
G1 X-23.105 Y1.431 E17.51658
G1 X-23.102 Y-1.437 E17.69544
G1 X-23.032 Y-2.105 E17.73733
G1 X-21.91 Y-7.423 E18.07627
G1 X-21.752 Y-7.947 E18.1104
G1 X-21.254 Y-9.207 E18.1949
G1 X-21.113 Y-9.516 E18.21608
G1 X-20.226 Y-11.215 E18.3356
G1 X-19.956 Y-11.647 E18.36737
G1 F6600 E16.36737
G0 F3300 X-16.399 Y-7.829
;TYPE:WALL-INNER
G1 F6600 E18.36737
G1 F1800 X-16.304 Y-8.015 E18.3804
G1 X-15.751 Y-8.013 E18.41488
G1 X-15.054 Y-8.143 E18.4591
G1 X-14.395 Y-8.403 E18.50328
G1 X-13.794 Y-8.783 E18.54762
G1 X-13.276 Y-9.27 E18.59196
G1 X-12.862 Y-9.842 E18.636
G1 X-12.558 Y-10.484 E18.6803
G1 X-12.384 Y-11.171 E18.72449
G1 X-12.339 Y-11.877 E18.76861
G1 X-12.429 Y-12.583 E18.81299
G1 X-12.603 Y-13.111 E18.84766
G1 X-12.482 Y-13.233 E18.85838
G1 X-11.77 Y-13.874 E18.91812
G1 X-11.628 Y-13.988 E18.92948
G1 X-11.119 Y-13.761 E18.96424
G1 X-10.435 Y-13.6 E19.00806
G1 X-9.729 Y-13.565 E19.05214
G1 X-9.02 Y-13.668 E19.09682
G1 X-8.349 Y-13.905 E19.1412
G1 X-7.737 Y-14.258 E19.18526
G1 X-7.202 Y-14.722 E19.22942
G1 X-6.763 Y-15.273 E19.27336
G1 X-6.431 Y-15.908 E19.31804
G1 X-6.232 Y-16.586 E19.36211
G1 X-6.174 Y-17.137 E19.39666
G1 X-5.995 Y-17.205 E19.4086
G1 X-5.106 Y-17.493 E19.46688
G1 X-4.925 Y-17.542 E19.47857
G1 X-4.556 Y-17.129 E19.51311
G1 X-3.991 Y-16.699 E19.55739
G1 X-3.355 Y-16.383 E19.60168
G1 X-2.677 Y-16.194 E19.64557
G1 X-1.971 Y-16.133 E19.68977
G1 X-1.261 Y-16.207 E19.73428
G1 X-.584 Y-16.412 E19.7784
G1 X0.041 Y-16.74 E19.82241
G1 X0.599 Y-17.181 E19.86677
G1 X1.062 Y-17.719 E19.91103
G1 X1.339 Y-18.202 E19.94576
G1 X1.542 Y-18.192 E19.95843
G1 X2.417 Y-18.1 E20.0133
G1 X2.642 Y-18.063 E20.02752
G1 X2.812 Y-17.536 E20.06205
G1 X3.152 Y-16.913 E20.10631
G1 X3.602 Y-16.367 E20.15044
G1 X4.147 Y-15.916 E20.19455
G1 X4.771 Y-15.572 E20.23899
G1 X5.446 Y-15.354 E20.28322
G1 X6.149 Y-15.265 E20.32742
G1 X6.855 Y-15.31 E20.37153
G1 X7.542 Y-15.488 E20.41579
G1 X8.181 Y-15.789 E20.45984
G1 X8.633 Y-16.118 E20.4947
G1 X8.809 Y-16.029 E20.507
G1 X9.597 Y-15.573 E20.56378
G1 X9.77 Y-15.46 E20.57667
G1 X9.71 Y-14.914 E20.61092
G1 X9.765 Y-14.207 E20.65515
G1 X9.956 Y-13.521 E20.69955
G1 X10.27 Y-12.884 E20.74384
G1 X10.701 Y-12.319 E20.78816
G1 X11.227 Y-11.846 E20.83227
G1 X11.834 Y-11.479 E20.87651
G1 X12.499 Y-11.232 E20.92075
G1 X13.197 Y-11.115 E20.96489
G1 X13.903 Y-11.13 E21.00892
G1 X14.45 Y-11.246 E21.0438
G1 X14.605 Y-11.054 E21.05918
G1 X15.083 Y-10.396 E21.1099
G1 X15.219 Y-10.185 E21.12556
G1 X14.943 Y-9.706 E21.16003
G1 X14.709 Y-9.039 E21.20412
G1 X14.604 Y-8.339 E21.24826
G1 X14.63 Y-7.629 E21.29256
G1 X14.793 Y-6.937 E21.3369
G1 X15.08 Y-6.291 E21.38098
G1 X15.487 Y-5.705 E21.42548
G1 X15.995 Y-5.211 E21.46967
G1 X16.583 Y-4.82 E21.5137
G1 X17.238 Y-4.545 E21.55801
G1 X17.782 Y-4.431 E21.59267
G1 X17.838 Y-4.225 E21.60598
G1 X18.02 Y-3.363 E21.66092
G1 X18.054 Y-3.147 E21.67456
G1 X17.606 Y-2.826 E21.70893
G1 X17.117 Y-2.306 E21.75344
G1 X16.739 Y-1.709 E21.79751
G1 X16.478 Y-1.054 E21.84148
G1 X16.343 Y-.356 E21.88582
G1 X16.343 Y0.356 E21.93022
G1 X16.477 Y1.051 E21.97436
G1 X16.738 Y1.707 E22.01839
G1 X17.116 Y2.305 E22.06251
G1 X17.605 Y2.825 E22.10702
G1 X18.054 Y3.148 E22.14152
G1 X18.023 Y3.349 E22.1542
G1 X17.844 Y4.2 E22.20843
G1 X17.781 Y4.431 E22.22336
G1 X17.239 Y4.544 E22.25789
G1 X16.584 Y4.819 E22.30219
G1 X15.996 Y5.21 E22.34623
G1 X15.488 Y5.704 E22.39042
G1 X15.08 Y6.288 E22.43485
G1 X14.793 Y6.937 E22.4791
G1 X14.63 Y7.627 E22.52331
G1 X14.604 Y8.335 E22.5675
G1 X14.705 Y9.035 E22.6116
G1 X14.942 Y9.705 E22.65592
G1 X15.22 Y10.186 E22.69057
G1 X15.115 Y10.347 E22.70256
G1 X14.573 Y11.093 E22.76006
G1 X14.448 Y11.248 E22.77248
G1 X13.91 Y11.131 E22.80681
G1 X13.203 Y11.113 E22.85092
G1 X12.5 Y11.231 E22.89537
G1 X11.832 Y11.478 E22.93979
G1 X11.224 Y11.847 E22.98414
G1 X10.702 Y12.319 E23.02803
G1 X10.271 Y12.882 E23.07225
G1 X9.957 Y13.521 E23.11665
G1 X9.769 Y14.203 E23.16077
G1 X9.71 Y14.908 E23.20489
G1 X9.769 Y15.462 E23.23963
G1 X9.604 Y15.57 E23.25193
G1 X8.822 Y16.021 E23.30822
G1 X8.632 Y16.117 E23.3215
G1 X8.182 Y15.79 E23.35619
G1 X7.543 Y15.489 E23.40024
G1 X6.86 Y15.311 E23.44426
G1 X6.152 Y15.264 E23.48851
G1 X5.446 Y15.354 E23.53289
G1 X4.773 Y15.571 E23.57699
G1 X4.149 Y15.914 E23.62139
G1 X3.603 Y16.367 E23.66564
G1 X3.153 Y16.912 E23.70971
G1 X2.813 Y17.534 E23.75392
G1 X2.641 Y18.064 E23.78867
G1 X2.417 Y18.1 E23.80282
G1 X1.542 Y18.192 E23.85769
G1 X1.34 Y18.202 E23.8703
G1 X1.063 Y17.72 E23.90497
G1 X0.6 Y17.182 E23.94923
G1 X0.044 Y16.741 E23.99349
G1 X-.58 Y16.413 E24.03745
G1 X-1.26 Y16.207 E24.08176
G1 X-1.968 Y16.133 E24.12616
G1 X-2.672 Y16.193 E24.17022
G1 X-3.354 Y16.382 E24.21435
G1 X-3.99 Y16.698 E24.25864
G1 X-4.555 Y17.128 E24.30292
G1 X-4.926 Y17.544 E24.33768
G1 X-5.103 Y17.497 E24.3491
G1 X-5.973 Y17.213 E24.40618
G1 X-6.173 Y17.136 E24.41954
G1 X-6.228 Y16.589 E24.45382
G1 X-6.43 Y15.906 E24.49824
G1 X-6.762 Y15.274 E24.54276
G1 X-7.2 Y14.723 E24.58666
G1 X-7.735 Y14.258 E24.63086
G1 X-8.351 Y13.902 E24.67523
G1 X-9.022 Y13.669 E24.71953
G1 X-9.721 Y13.566 E24.76359
G1 X-10.43 Y13.596 E24.80785
G1 X-11.119 Y13.76 E24.85201
G1 X-11.628 Y13.988 E24.8868
G1 X-11.781 Y13.864 E24.89908
G1 X-12.482 Y13.233 E24.9579
G1 X-12.604 Y13.111 E24.96866
G1 X-12.43 Y12.584 E25.00327
G1 X-12.34 Y11.882 E25.0474
G1 X-12.383 Y11.176 E25.09151
G1 X-12.557 Y10.485 E25.13595
G1 X-12.862 Y9.841 E25.18039
G1 X-13.276 Y9.27 E25.22437
G1 X-13.793 Y8.784 E25.26862
G1 X-14.394 Y8.404 E25.31297
G1 X-15.053 Y8.144 E25.35715
G1 X-15.747 Y8.014 E25.40118
G1 X-16.305 Y8.014 E25.43598
G1 X-16.407 Y7.813 E25.45003
G1 X-16.783 Y6.967 E25.50777
G1 X-16.84 Y6.819 E25.51766
G1 X-16.465 Y6.404 E25.55254
G1 X-16.098 Y5.798 E25.59672
G1 X-15.851 Y5.136 E25.64079
G1 X-15.731 Y4.441 E25.68477
G1 X-15.744 Y3.728 E25.72924
G1 X-15.893 Y3.031 E25.77369
G1 X-16.169 Y2.379 E25.81785
G1 X-16.56 Y1.792 E25.86183
G1 X-17.055 Y1.284 E25.90606
G1 X-17.64 Y0.881 E25.95036
G1 X-18.149 Y0.655 E25.98509
G1 X-18.159 Y0.484 E25.99578
G1 X-18.159 Y-.473 E26.05546
G1 X-18.149 Y-.654 E26.06676
G1 X-17.642 Y-.88 E26.10138
G1 X-17.056 Y-1.283 E26.14573
G1 X-16.561 Y-1.791 E26.18997
G1 X-16.17 Y-2.378 E26.23395
G1 X-15.893 Y-3.031 E26.27819
G1 X-15.745 Y-3.725 E26.32244
G1 X-15.73 Y-4.435 E26.36673
G1 X-15.85 Y-5.135 E26.41102
G1 X-16.097 Y-5.797 E26.45508
G1 X-16.464 Y-6.403 E26.49926
G1 X-16.84 Y-6.817 E26.53414
G1 X-16.783 Y-6.967 E26.54415
G1 X-16.399 Y-7.829 E26.603
G1 F6600 E24.603
G0 F3300 X-5.473 Y-2.269
G1 F6600 E26.603
G1 F1800 X-5.721 Y-1.523 E26.65202
G1 X-5.87 Y-.755 E26.70081
G1 X-5.918 Y0.031 E26.74992
G1 X-5.861 Y0.812 E26.79875
G1 X-5.704 Y1.581 E26.8477
G1 X-5.45 Y2.324 E26.89667
G1 X-5.099 Y3.027 E26.94567
G1 X-4.659 Y3.678 E26.99467
G1 X-4.136 Y4.265 E27.0437
G1 X-3.545 Y4.78 E27.09259
G1 X-2.89 Y5.212 E27.14152
G1 X-2.186 Y5.557 E27.19041
G1 X-1.44 Y5.806 E27.23946
G1 X-.671 Y5.954 E27.28829
G1 X0.115 Y6.003 E27.33741
G1 X0.897 Y5.945 E27.38631
G1 X1.665 Y5.79 E27.43517
G1 X2.411 Y5.534 E27.48435
G1 X3.111 Y5.18 E27.53327
G1 X3.76 Y4.744 E27.58203
G1 X4.349 Y4.224 E27.63103
G1 X4.864 Y3.631 E27.68001
G1 X5.297 Y2.974 E27.72908
G1 X5.641 Y2.269 E27.778
G1 X5.89 Y1.527 E27.82681
G1 X6.039 Y0.755 E27.87584
G1 X6.087 Y-0.031 E27.92495
G1 X6.03 Y-.812 E27.97378
G1 X5.873 Y-1.581 E28.02273
G1 X5.618 Y-2.324 E28.07172
G1 X5.268 Y-3.026 E28.12064
G1 X4.828 Y-3.677 E28.16964
G1 X4.308 Y-4.265 E28.21859
G1 X3.714 Y-4.78 E28.26762
G1 X3.059 Y-5.212 E28.31655
G1 X2.355 Y-5.557 E28.36544
G1 X1.609 Y-5.806 E28.41449
G1 X0.838 Y-5.954 E28.46345
G1 X0.053 Y-6.002 E28.51249
G1 X-.728 Y-5.945 E28.56133
G1 X-1.496 Y-5.79 E28.61019
G1 X-2.242 Y-5.534 E28.65937
G1 X-2.942 Y-5.18 E28.70829
G1 X-3.592 Y-4.743 E28.75714
G1 X-4.177 Y-4.224 E28.80591
G1 X-4.696 Y-3.631 E28.85505
G1 X-5.128 Y-2.973 E28.90414
G1 X-5.473 Y-2.269 E28.95303
G0 F3300 X-5.009 Y-2.079
G1 F1800 X-5.236 Y-1.396 E28.99792
G1 X-5.373 Y-.692 E29.04264
G1 X-5.417 Y0.028 E29.08763
G1 X-5.365 Y0.744 E29.1324
G1 X-5.221 Y1.449 E29.17727
G1 X-4.988 Y2.13 E29.22216
G1 X-4.666 Y2.774 E29.26706
G1 X-4.263 Y3.371 E29.31198
G1 X-3.784 Y3.909 E29.3569
G1 X-3.242 Y4.381 E29.40172
G1 X-2.641 Y4.777 E29.44661
G1 X-1.996 Y5.093 E29.4914
G1 X-1.313 Y5.321 E29.5363
G1 X-.608 Y5.457 E29.58108
G1 X0.112 Y5.502 E29.62607
G1 X0.829 Y5.449 E29.6709
G1 X1.534 Y5.306 E29.71577
G1 X2.216 Y5.072 E29.76073
G1 X2.858 Y4.748 E29.80558
G1 X3.454 Y4.347 E29.85038
G1 X3.993 Y3.871 E29.89522
G1 X4.465 Y3.328 E29.94009
G1 X4.862 Y2.726 E29.98506
G1 X5.177 Y2.079 E30.02994
G1 X5.405 Y1.399 E30.07466
G1 X5.542 Y0.692 E30.11957
G1 X5.586 Y-0.028 E30.16456
G1 X5.534 Y-.744 E30.20933
G1 X5.39 Y-1.449 E30.2542
G1 X5.156 Y-2.13 E30.29911
G1 X4.835 Y-2.773 E30.34393
G1 X4.432 Y-3.37 E30.38884
G1 X3.955 Y-3.909 E30.43373
G1 X3.411 Y-4.381 E30.47865
G1 X2.81 Y-4.777 E30.52353
G1 X2.165 Y-5.093 E30.56832
G1 X1.482 Y-5.321 E30.61323
G1 X0.775 Y-5.457 E30.65813
G1 X0.056 Y-5.501 E30.70305
G1 X-.66 Y-5.449 E30.74782
G1 X-1.365 Y-5.306 E30.79268
G1 X-2.047 Y-5.072 E30.83764
G1 X-2.689 Y-4.748 E30.88249
G1 X-3.285 Y-4.347 E30.92729
G1 X-3.822 Y-3.871 E30.97204
G1 X-4.297 Y-3.328 E31.01703
G1 X-4.693 Y-2.725 E31.06202
G1 X-5.009 Y-2.079 E31.10687
G1 F6600 E29.10687
G0 F3300 X-16.244 Y-3.783
G1 F6600 E31.10687
G1 F1800 X-16.231 Y-4.398 E31.14523
G1 X-16.335 Y-5.004 E31.18357
G1 X-16.549 Y-5.578 E31.22178
G1 X-16.867 Y-6.103 E31.26005
G1 X-17.277 Y-6.555 E31.29811
G1 X-17.429 Y-6.672 E31.31007
G1 X-17.24 Y-7.17 E31.34329
G1 X-16.851 Y-8.044 E31.40295
G1 X-16.592 Y-8.55 E31.4384
G1 X-16.41 Y-8.515 E31.44996
G1 X-15.797 Y-8.513 E31.48819
G1 X-15.193 Y-8.626 E31.52651
G1 X-14.622 Y-8.851 E31.56478
G1 X-14.102 Y-9.18 E31.60316
G1 X-13.653 Y-9.602 E31.64158
G1 X-13.294 Y-10.098 E31.67977
G1 X-13.031 Y-10.654 E31.71812
G1 X-12.88 Y-11.249 E31.75641
G1 X-12.841 Y-11.861 E31.79465
G1 X-12.919 Y-12.472 E31.83306
G1 X-13.109 Y-13.049 E31.87095
G1 X-13.201 Y-13.219 E31.883
G1 X-12.817 Y-13.605 E31.91696
G1 X-12.105 Y-14.246 E31.9767
G1 X-11.673 Y-14.593 E32.01126
G1 X-11.518 Y-14.486 E32.023
G1 X-10.959 Y-14.237 E32.06117
G1 X-10.365 Y-14.097 E32.09922
G1 X-9.753 Y-14.067 E32.13744
G1 X-9.14 Y-14.156 E32.17606
G1 X-8.559 Y-14.361 E32.21449
G1 X-8.028 Y-14.667 E32.25271
G1 X-7.564 Y-15.069 E32.29099
G1 X-7.184 Y-15.547 E32.32907
G1 X-6.897 Y-16.096 E32.36771
G1 X-6.724 Y-16.684 E32.40593
G1 X-6.66 Y-17.29 E32.44393
G1 X-6.675 Y-17.48 E32.45582
G1 X-6.159 Y-17.678 E32.49029
G1 X-5.255 Y-17.971 E32.54955
G1 X-4.721 Y-18.114 E32.58402
G1 X-4.622 Y-17.953 E32.59581
G1 X-4.215 Y-17.498 E32.63388
G1 X-3.726 Y-17.126 E32.6722
G1 X-3.175 Y-16.852 E32.71057
G1 X-2.587 Y-16.688 E32.74864
G1 X-1.975 Y-16.635 E32.78695
G1 X-1.36 Y-16.699 E32.82551
G1 X-.774 Y-16.877 E32.8637
G1 X-.232 Y-17.161 E32.90186
G1 X0.251 Y-17.543 E32.94027
G1 X0.652 Y-18.009 E32.97861
G1 X0.955 Y-18.538 E33.01663
G1 X1.019 Y-18.718 E33.02854
G1 X1.582 Y-18.69 E33.06369
G1 X2.496 Y-18.594 E33.12101
G1 X3.061 Y-18.502 E33.1567
G1 X3.085 Y-18.318 E33.16828
G1 X3.273 Y-17.734 E33.20654
G1 X3.568 Y-17.195 E33.24486
G1 X3.958 Y-16.722 E33.28309
G1 X4.43 Y-16.331 E33.32131
G1 X4.97 Y-16.033 E33.35977
G1 X5.555 Y-15.844 E33.39811
G1 X6.165 Y-15.767 E33.43646
G1 X6.776 Y-15.806 E33.47464
G1 X7.371 Y-15.96 E33.51297
G1 X7.925 Y-16.221 E33.55116
G1 X8.418 Y-16.58 E33.58919
G1 X8.551 Y-16.72 E33.60123
