;FLAVOR:Repetier
;TIME:3225
;Generated with Cura_SteamEngine 2.5.0
M190 S60
M104 S220
M109 S220
G28 ;Home
G1 Z15.0 F6000 ;Move the platform down 15mm
;Prime the extruder
G92 E0
G1 F200 E3
G92 E0
;LAYER_COUNT:126
;LAYER:0
M106 S255
G0 F3300 X0.257 Y6.95 Z0.3
;TYPE:WALL-INNER
G1 F1800 X0.71 Y6.95 E0.02825
G1 X1.217 Y6.95 E0.05987
G1 X1.657 Y6.95 E0.08731
G1 X1.786 Y6.949 E0.09535
G1 X1.658 Y6.983
G1 X1.217 Y7.07
G1 X0.71 Y7.137 E0.10071
G1 X0.257 Y7.17 E0.11227
G1 X-1.431 Y7.184 E0.21755
G1 X-1.985 Y6.95 E0.25505
G1 X-1.431 Y6.95 E0.26256
G1 X0.257 Y6.95 E0.30625
G0 F3300 X0.282 Y7.67
G1 F1800 X-1.53 Y7.685 E0.41925
G1 X-3.181 Y6.986 E0.53106
G1 X-3.276 Y6.939 E0.53767
G1 X-3.654 Y6.751 E0.564
G1 X-4.054 Y6.52 E0.5928
G1 X-4.075 Y6.507 E0.59434
G1 X-4.453 Y6.253 E0.62275
G1 X-4.848 Y5.951 E0.65375
G1 X-5.202 Y5.646 E0.68289
G1 X-5.555 Y5.299 E0.71376
G1 X-6.114 Y4.75 E0.76262
G1 X-6.517 Y4.353 E0.7979
G1 X-6.656 Y4.009 E0.82104
G1 X-6.948 Y3.286 E0.86967
G1 X-7.207 Y2.647 E0.91267
G1 X-7.242 Y2.54 E0.91969
G1 X-7.355 Y2.205 E0.94174
G1 X-7.473 Y1.761 E0.97039
G1 X-7.564 Y1.297 E0.99987
G1 X-7.608 Y0.965 E1.02076
G1 X-7.635 Y0.762 E1.03353
G1 X-7.67 Y0.282 E1.06354
G1 X-7.671 Y0.142 E1.07227
G1 X-7.677 Y-.64 E1.12104
G1 X-7.684 Y-1.422 E1.16981
G1 X-7.685 Y-1.531 E1.17661
G1 X-7.668 Y-1.571 E1.17932
G1 X-7.36 Y-2.301 E1.22873
G1 X-7.056 Y-3.019 E1.27736
G1 X-6.999 Y-3.153 E1.28644
G1 X-6.732 Y-3.69 E1.32384
G1 X-6.698 Y-3.748 E1.32803
G1 X-6.541 Y-4.019 E1.34756
G1 X-6.268 Y-4.428 E1.37823
G1 X-6.235 Y-4.477 E1.38191
G1 X-5.951 Y-4.849 E1.4111
G1 X-5.756 Y-5.074 E1.42967
G1 X-5.648 Y-5.199 E1.43997
G1 X-5.201 Y-5.654 E1.47975
G1 X-4.654 Y-6.211 E1.52843
G1 X-4.353 Y-6.517 E1.5552
G1 X-3.887 Y-6.705 E1.58654
G1 X-3.154 Y-7.002 E1.63586
G1 X-2.647 Y-7.207 E1.66996
G1 X-2.404 Y-7.288 E1.68594
G1 X-2.205 Y-7.355 E1.69903
G1 X-1.761 Y-7.473 E1.72768
G1 X-1.619 Y-7.5 E1.7367
G1 X-1.297 Y-7.564 E1.75717
G1 X-.823 Y-7.626 E1.78698
G1 X-.762 Y-7.635 E1.79083
G1 X-.282 Y-7.67 E1.82084
G1 X-0.005 Y-7.672 E1.83812
G1 X0.776 Y-7.678 E1.88682
G1 X1.531 Y-7.685 E1.93391
G1 X1.696 Y-7.615 E1.94509
G1 X2.424 Y-7.307 E1.99438
G1 X3.152 Y-6.999 E2.04368
G1 X3.162 Y-6.995 E2.04435
G1 X3.671 Y-6.743 E2.07977
G1 X3.876 Y-6.623 E2.09458
G1 X4.033 Y-6.531 E2.10593
G1 X4.477 Y-6.235 E2.13921
G1 X4.554 Y-6.176 E2.14526
G1 X4.875 Y-5.93 E2.17048
G1 X5.174 Y-5.67 E2.19519
G1 X5.189 Y-5.657 E2.19643
G1 X5.75 Y-5.107 E2.24542
G1 X6.315 Y-4.553 E2.29477
G1 X6.515 Y-4.356 E2.31228
G1 X6.761 Y-3.748 E2.35318
G1 X7.055 Y-3.022 E2.40203
G1 X7.208 Y-2.644 E2.42746
G1 X7.331 Y-2.275 E2.45171
G1 X7.356 Y-2.202 E2.45653
G1 X7.479 Y-1.736 E2.48658
G1 X7.53 Y-1.479 E2.50292
G1 X7.559 Y-1.337 E2.51196
G1 X7.635 Y-.769 E2.5477
G1 X7.641 Y-.674 E2.55363
G1 X7.67 Y-.285 E2.57796
G1 X7.673 Y0.133 E2.60403
G1 X7.679 Y0.919 E2.65305
G1 X7.685 Y1.531 E2.69121
G1 X7.561 Y1.824 E2.71106
G1 X7.255 Y2.548 E2.76007
G1 X6.991 Y3.171 E2.80227
G1 X6.934 Y3.286 E2.81027
G1 X6.745 Y3.667 E2.8368
G1 X6.554 Y3.997 E2.86058
G1 X6.541 Y4.019 E2.86217
G1 X6.241 Y4.468 E2.89585
G1 X6.088 Y4.668 E2.91155
G1 X5.957 Y4.839 E2.92498
G1 X5.629 Y5.219 E2.95629
G1 X5.561 Y5.288 E2.96233
G1 X4.355 Y6.516 E3.06967
G1 X4.092 Y6.622 E3.08735
G1 X3.348 Y6.923 E3.1374
G1 X2.647 Y7.207 E3.18457
G1 X2.205 Y7.355 E3.21364
G1 X1.761 Y7.473 E3.24229
G1 X1.297 Y7.564 E3.27177
G1 X0.762 Y7.635 E3.30543
G1 X0.282 Y7.67 E3.33544
G1 F6600 E1.33544
G0 F3300 X4.021 Y6.449
G1 F6600 E3.33544
G1 F1800 X4.162 Y6.315 E3.33612
G1 X5.403 Y5.135 E3.38906
G1 X5.456 Y5.073 E3.38943
G1 X5.783 Y4.69 E3.40061
G1 X5.914 Y4.537 E3.40276
G1 X6.05 Y4.339
G1 X6.355 Y3.893 E3.41762
G1 X6.361 Y3.884
G1 X6.539 Y3.556
G1 X6.738 Y3.19 E3.42139
G1 X6.78 Y3.086
G1 X7.039 Y2.456 E3.44106
G1 X7.26 Y1.698 E3.46872
G1 X7.301 Y1.464 E3.47695
G1 X7.397 Y0.922 E3.4994
G1 X7.455 Y0.135 E3.52444
G1 X7.44 Y-.277
G1 X7.426 Y-.657 E3.52856
G1 X7.415 Y-.737
G1 X7.333 Y-1.303 E3.54234
G1 X7.313 Y-1.436
G1 X7.252 Y-1.678 E3.54572
G1 X7.134 Y-2.145 E3.55833
G1 X7.119 Y-2.202 E3.55833
G1 X6.987 Y-2.562
G1 X6.848 Y-2.939 E3.56591
G1 X6.502 Y-3.643 E3.5905
G1 X6.185 Y-4.148 E3.61319
G1 X6.081 Y-4.314 E3.61824
G1 X5.585 Y-4.938 E3.64722
G1 X5.031 Y-5.503 E3.66949
G1 X4.729 Y-5.749
G1 X4.42 Y-6.001 E3.67271
G1 X4.353 Y-6.045
G1 X3.907 Y-6.339 E3.68518
G1 X3.765 Y-6.433
G1 X3.565 Y-6.535
G1 X3.064 Y-6.793 E3.70115
G1 X2.329 Y-7.081 E3.72423
G1 X1.56 Y-7.291 E3.75398
G1 X1.473 Y-7.304 E3.75534
G1 X0.779 Y-7.413 E3.7833
G1 X-0.003 Y-7.455 E3.80716
G1 X-.269 Y-7.442 E3.81071
G1 X-.75 Y-7.416 E3.82307
G1 X-.795 Y-7.413 E3.82401
G1 X-1.26 Y-7.337 E3.83305
G1 X-1.576 Y-7.284 E3.83794
G1 X-1.7 Y-7.251
G1 X-2.143 Y-7.131 E3.84813
G1 X-2.333 Y-7.079
G1 X-2.563 Y-6.99
G1 X-3.069 Y-6.795 E3.86343
G1 X-3.774 Y-6.429 E3.88932
G1 X-4.134 Y-6.19 E3.90731
G1 X-4.431 Y-5.992 E3.92236
G1 X-5.036 Y-5.493 E3.94895
G1 X-5.484 Y-5.038 E3.96467
G1 X-5.59 Y-4.931
G1 X-5.768 Y-4.706
G1 X-6.059 Y-4.339 E3.97695
G1 X-6.085 Y-4.306
G1 X-6.343 Y-3.894 E3.98686
G1 X-6.505 Y-3.637 E3.99146
G1 X-6.527 Y-3.591
G1 X-6.792 Y-3.051 E4.00634
G1 X-6.85 Y-2.933 E4.00747
G1 X-7.121 Y-2.2 E4.03099
G1 X-7.317 Y-1.437 E4.06127
G1 X-7.32 Y-1.425
G1 X-7.426 Y-.643 E4.09166
G1 X-7.455 Y0.14 E4.11472
G1 X-7.446 Y0.265 E4.11562
G1 X-7.411 Y0.745 E4.12604
G1 X-7.397 Y0.937 E4.12815
G1 X-7.338 Y1.254 E4.1329
G1 X-7.253 Y1.712 E4.14599
G1 X-7.128 Y2.138 E4.15464
G1 X-7.031 Y2.468 E4.15657
G1 X-6.994 Y2.558
G1 X-6.731 Y3.198 E4.17661
G1 X-6.358 Y3.888 E4.20385
G1 X-6.192 Y4.13 E4.21481
G1 X-5.91 Y4.542 E4.23552
G1 X-5.399 Y5.14 E4.26111
G1 X-5.043 Y5.476 E4.27487
G1 X-4.704 Y5.797 E4.28772
G1 X-4.344 Y6.137 E4.29365
G1 X-4.014 Y6.45
G1 X-3.655 Y6.45
G1 X-3.232 Y6.45 E4.31493
G1 X3.218 Y6.449 E4.71717
G1 X4.021 Y6.449 E4.75186
G0 F3300 X3.821 Y5.949
G1 F1800 X5.04 Y4.79 E4.85676
G1 X5.517 Y4.232 E4.90254
G1 X5.934 Y3.623 E4.94857
G1 X6.286 Y2.975 E4.99456
G1 X6.566 Y2.291 E5.04065
G1 X6.772 Y1.584 E5.08657
G1 X6.9 Y0.86 E5.13242
G1 X6.954 Y0.126 E5.17832
G1 X6.927 Y-.612 E5.22438
G1 X6.822 Y-1.339 E5.27018
G1 X6.641 Y-2.054 E5.31618
G1 X6.388 Y-2.742 E5.3619
G1 X6.065 Y-3.399 E5.40755
G1 X5.672 Y-4.025 E5.45365
G1 X5.21 Y-4.607 E5.49999
G1 X4.694 Y-5.133 E5.54594
G1 X4.124 Y-5.597 E5.59177
G1 X3.512 Y-6.001 E5.63751
G1 X2.858 Y-6.337 E5.68336
G1 X2.172 Y-6.606 E5.72931
G1 X1.455 Y-6.801 E5.77565
G1 X0.727 Y-6.915 E5.8216
G1 X-0.003 Y-6.954 E5.86719
G1 X-.741 Y-6.915 E5.91328
G1 X-1.47 Y-6.795 E5.95935
G1 X-2.177 Y-6.603 E6.00504
G1 X-2.863 Y-6.338 E6.0509
G1 X-3.52 Y-5.998 E6.09704
G1 X-4.133 Y-5.59 E6.14296
G1 X-4.698 Y-5.124 E6.18863
G1 X-5.215 Y-4.599 E6.23458
G1 X-5.676 Y-4.017 E6.28088
G1 X-6.068 Y-3.393 E6.32684
G1 X-6.39 Y-2.736 E6.37247
G1 X-6.643 Y-2.051 E6.41801
G1 X-6.828 Y-1.329 E6.46449
G1 X-6.927 Y-.6 E6.51037
G1 X-6.954 Y0.131 E6.55599
G1 X-6.9 Y0.873 E6.60238
G1 X-6.766 Y1.596 E6.64824
G1 X-6.559 Y2.302 E6.69412
G1 X-6.279 Y2.983 E6.74004
G1 X-5.931 Y3.627 E6.78569
G1 X-5.513 Y4.237 E6.8318
G1 X-5.036 Y4.795 E6.87758
G1 X-3.815 Y5.95 E6.9824
G1 X3.821 Y5.949 E7.4586
G0 F3300 X2.821 Y7.676
G1 F1800 X2.344 Y7.835 E7.48996
G1 X1.868 Y7.962 E7.52068
G1 X1.377 Y8.058 E7.55188
G1 X0.813 Y8.133 E7.58736
G1 X0.308 Y8.17 E7.61894
G1 X-1.629 Y8.186 E7.73974
G1 X-3.402 Y7.435 E7.85982
G1 X-3.884 Y7.195 E7.8934
G1 X-4.341 Y6.931 E7.92631
G1 X-4.732 Y6.668 E7.9557
G1 X-5.168 Y6.335 E7.98991
G1 X-5.542 Y6.012 E8.02073
G1 X-6.941 Y4.637 E8.14306
G1 X-7.676 Y2.821 E8.26524
G1 X-7.835 Y2.344 E8.29659
G1 X-7.962 Y1.868 E8.32731
G1 X-8.058 Y1.377 E8.35851
G1 X-8.133 Y0.813 E8.394
G1 X-8.17 Y0.308 E8.42557
G1 X-8.186 Y-1.629 E8.54638
G1 X-7.447 Y-3.376 E8.66467
G1 X-7.18 Y-3.913 E8.70207
G1 X-6.957 Y-4.297 E8.72976
G1 X-6.645 Y-4.764 E8.76479
G1 X-6.341 Y-5.162 E8.79602
G1 X-6.014 Y-5.54 E8.82719
G1 X-4.637 Y-6.941 E8.9497
G1 X-2.821 Y-7.676 E9.07187
G1 X-2.344 Y-7.835 E9.10323
G1 X-1.868 Y-7.962 E9.13395
G1 X-1.377 Y-8.058 E9.16515
G1 X-.813 Y-8.133 E9.20063
G1 X-.308 Y-8.17 E9.23221
G1 X1.629 Y-8.186 E9.35301
G1 X3.376 Y-7.447 E9.4713
G1 X3.91 Y-7.182 E9.50848
G1 X4.301 Y-6.954 E9.53671
G1 X4.764 Y-6.645 E9.57142
G1 X5.187 Y-6.321 E9.60465
G1 X5.531 Y-6.022 E9.63307
G1 X6.939 Y-4.64 E9.75611
G1 X7.677 Y-2.818 E9.8787
G1 X7.835 Y-2.345 E9.9098
G1 X7.967 Y-1.845 E9.94205
G1 X8.054 Y-1.413 E9.96953
G1 X8.133 Y-.821 E10.00678
G1 X8.17 Y-.31 E10.03873
G1 X8.186 Y1.629 E10.15966
G1 X7.443 Y3.385 E10.27856
G1 X7.188 Y3.899 E10.31435
G1 X6.964 Y4.285 E10.34218
G1 X6.646 Y4.762 E10.37793
G1 X6.341 Y5.161 E10.40925
G1 X6.002 Y5.552 E10.44152
G1 X4.639 Y6.94 E10.56284
G1 X2.821 Y7.676 E10.68515
G0 F3300 X2.991 Y8.146
G1 F1800 X2.492 Y8.313 E10.71797
G1 X1.968 Y8.452 E10.75178
G1 X1.46 Y8.552 E10.78406
G1 X0.866 Y8.631 E10.82143
G1 X0.333 Y8.67 E10.85476
G1 X-1.728 Y8.687 E10.9833
G1 X-3.61 Y7.89 E11.11075
G1 X-4.127 Y7.632 E11.14679
G1 X-4.599 Y7.359 E11.18079
G1 X-5.03 Y7.07 E11.21315
G1 X-5.481 Y6.725 E11.24856
G1 X-5.891 Y6.371 E11.28234
G1 X-7.364 Y4.923 E11.41116
G1 X-8.146 Y2.991 E11.54114
G1 X-8.313 Y2.492 E11.57395
G1 X-8.452 Y1.968 E11.60776
G1 X-8.552 Y1.46 E11.64005
G1 X-8.631 Y0.866 E11.67742
G1 X-8.67 Y0.333 E11.71075
G1 X-8.687 Y-1.728 E11.83928
G1 X-7.895 Y-3.599 E11.96598
G1 X-7.628 Y-4.136 E12.00338
G1 X-7.373 Y-4.575 E12.03505
G1 X-7.055 Y-5.051 E12.07074
G1 X-6.731 Y-5.475 E12.10402
G1 X-6.371 Y-5.891 E12.13833
G1 X-4.923 Y-7.364 E12.26714
G1 X-2.991 Y-8.146 E12.39712
G1 X-2.492 Y-8.313 E12.42994
G1 X-1.968 Y-8.452 E12.46375
G1 X-1.46 Y-8.552 E12.49604
G1 X-.866 Y-8.631 E12.53341
G1 X-.333 Y-8.67 E12.56673
G1 X1.728 Y-8.687 E12.69527
G1 X3.599 Y-7.895 E12.82197
G1 X4.136 Y-7.628 E12.85937
G1 X4.576 Y-7.372 E12.89112
G1 X5.051 Y-7.055 E12.92673
G1 X5.499 Y-6.712 E12.96192
G1 X5.873 Y-6.387 E12.99282
G1 X7.363 Y-4.924 E13.12304
G1 X8.146 Y-2.992 E13.25305
G1 X8.314 Y-2.488 E13.28618
G1 X8.455 Y-1.955 E13.32056
G1 X8.549 Y-1.488 E13.35027
G1 X8.631 Y-.873 E13.38896
G1 X8.67 Y-.335 E13.4226
G1 X8.687 Y1.728 E13.55126
G1 X7.895 Y3.599 E13.67796
G1 X7.631 Y4.131 E13.715
G1 X7.38 Y4.563 E13.74616
G1 X7.061 Y5.041 E13.78199
G1 X6.725 Y5.481 E13.81652
G1 X6.368 Y5.893 E13.85052
G1 X4.923 Y7.364 E13.97911
G1 X2.991 Y8.146 E14.10909
G1 F6600 E12.10909
G0 F3300 X3.621 Y5.449
G1 F6600 E14.10909
G1 F1800 X4.677 Y4.445 E14.19996
G1 X5.12 Y3.927 E14.24246
G1 X5.507 Y3.362 E14.28517
G1 X5.834 Y2.76 E14.3279
G1 X6.093 Y2.126 E14.37061
G1 X6.284 Y1.47 E14.41321
G1 X6.403 Y0.798 E14.45577
G1 X6.453 Y0.117 E14.49836
G1 X6.428 Y-.567 E14.54104
G1 X6.331 Y-1.242 E14.58357
G1 X6.163 Y-1.906 E14.62628
G1 X5.928 Y-2.545 E14.66874
G1 X5.628 Y-3.155 E14.71114
G1 X5.263 Y-3.736 E14.75393
G1 X4.835 Y-4.275 E14.79685
G1 X4.356 Y-4.763 E14.83949
G1 X3.828 Y-5.194 E14.882
G1 X3.259 Y-5.569 E14.92449
G1 X2.652 Y-5.881 E14.96706
G1 X2.015 Y-6.131 E15.00973
G1 X1.351 Y-6.311 E15.05263
G1 X0.675 Y-6.417 E15.09531
G1 X-0.003 Y-6.453 E15.13765
G1 X-.687 Y-6.417 E15.18036
G1 X-1.364 Y-6.306 E15.22315
G1 X-2.021 Y-6.127 E15.26561
G1 X-2.657 Y-5.881 E15.30814
G1 X-3.266 Y-5.566 E15.3509
G1 X-3.835 Y-5.188 E15.3935
G1 X-4.36 Y-4.755 E15.43594
G1 X-4.84 Y-4.267 E15.47862
G1 X-5.267 Y-3.728 E15.52151
G1 X-5.631 Y-3.149 E15.56416
G1 X-5.93 Y-2.539 E15.60652
G1 X-6.165 Y-1.902 E15.64887
G1 X-6.336 Y-1.233 E15.69193
G1 X-6.428 Y-.557 E15.73447
G1 X-6.453 Y0.122 E15.77685
G1 X-6.403 Y0.809 E15.8198
G1 X-6.279 Y1.48 E15.86236
G1 X-6.087 Y2.136 E15.90498
G1 X-5.827 Y2.768 E15.9476
G1 X-5.504 Y3.366 E15.98999
G1 X-5.116 Y3.932 E16.03278
G1 X-4.673 Y4.45 E16.07529
G1 X-3.616 Y5.45 E16.16603
G1 X3.621 Y5.449 E16.61735
G0 F3300 X3.421 Y4.949
G1 F1800 X4.314 Y4.1 E16.69419
G1 X4.723 Y3.622 E16.73342
G1 X5.08 Y3.101 E16.77281
G1 X5.381 Y2.546 E16.81218
G1 X5.62 Y1.961 E16.85159
G1 X5.796 Y1.356 E16.89089
G1 X5.906 Y0.736 E16.93016
G1 X5.952 Y0.108 E16.96942
G1 X5.929 Y-.522 E17.00874
G1 X5.84 Y-1.145 E17.04799
G1 X5.685 Y-1.758 E17.08742
G1 X5.468 Y-2.348 E17.12662
G1 X5.191 Y-2.911 E17.16575
G1 X4.854 Y-3.447 E17.20524
G1 X4.46 Y-3.943 E17.24474
G1 X4.018 Y-4.393 E17.28407
G1 X3.531 Y-4.791 E17.3233
G1 X3.006 Y-5.137 E17.36251
G1 X2.446 Y-5.425 E17.40178
G1 X1.858 Y-5.656 E17.44118
G1 X1.247 Y-5.821 E17.48065
G1 X0.623 Y-5.919 E17.52004
G1 X-0.003 Y-5.952 E17.55913
G1 X-.633 Y-5.919 E17.59847
G1 X-1.257 Y-5.817 E17.6379
G1 X-1.864 Y-5.651 E17.67715
G1 X-2.451 Y-5.424 E17.7164
G1 X-3.012 Y-5.134 E17.75578
G1 X-3.537 Y-4.786 E17.79506
G1 X-4.022 Y-4.386 E17.83427
G1 X-4.465 Y-3.936 E17.87365
G1 X-4.858 Y-3.439 E17.91316
G1 X-5.194 Y-2.905 E17.9525
G1 X-5.47 Y-2.342 E17.99161
G1 X-5.687 Y-1.753 E18.03075
G1 X-5.844 Y-1.137 E18.0704
G1 X-5.929 Y-.514 E18.10961
G1 X-5.952 Y0.113 E18.14874
G1 X-5.906 Y0.745 E18.18825
G1 X-5.792 Y1.364 E18.2275
G1 X-5.615 Y1.97 E18.26688
G1 X-5.375 Y2.553 E18.30619
G1 X-5.077 Y3.105 E18.34531
G1 X-4.719 Y3.627 E18.38479
G1 X-4.31 Y4.105 E18.42402
G1 X-3.417 Y4.95 E18.50069
G1 X3.421 Y4.949 E18.92713
G1 F6600 E16.92713
G0 F3300 X6.734 Y6.234
G1 F6600 E18.92713
G1 F1800 X5.207 Y7.788 E19.06299
G1 X3.165 Y8.615 E19.20039
G1 X2.631 Y8.793 E19.23549
G1 X2.075 Y8.941 E19.27137
G1 X1.54 Y9.046 E19.30537
G1 X0.919 Y9.129 E19.34444
G1 X0.358 Y9.17 E19.37952
G1 X-1.827 Y9.188 E19.51579
G1 X-3.831 Y8.339 E19.65152
G1 X-4.365 Y8.073 E19.68872
G1 X-4.85 Y7.792 E19.72368
G1 X-5.328 Y7.472 E19.75955
G1 X-5.803 Y7.109 E19.79683
G1 X-6.224 Y6.744 E19.83158
G1 X-7.788 Y5.207 E19.96833
G1 X-8.615 Y3.165 E20.10572
G1 X-8.793 Y2.631 E20.14083
G1 X-8.941 Y2.075 E20.17671
G1 X-9.046 Y1.54 E20.21071
G1 X-9.129 Y0.919 E20.24978
G1 X-9.17 Y0.358 E20.28486
G1 X-9.188 Y-1.827 E20.42112
G1 X-8.343 Y-3.822 E20.55624
G1 X-8.076 Y-4.359 E20.59364
G1 X-7.789 Y-4.853 E20.62927
G1 X-7.471 Y-5.329 E20.66497
G1 X-7.109 Y-5.803 E20.70216
G1 X-6.744 Y-6.224 E20.73691
G1 X-5.207 Y-7.788 E20.87366
G1 X-3.165 Y-8.615 E21.01105
G1 X-2.631 Y-8.793 E21.04615
G1 X-2.075 Y-8.941 E21.08204
G1 X-1.54 Y-9.046 E21.11604
G1 X-.919 Y-9.129 E21.15511
G1 X-.358 Y-9.17 E21.19019
G1 X1.827 Y-9.188 E21.32645
G1 X3.822 Y-8.343 E21.46157
G1 X4.359 Y-8.076 E21.49897
G1 X4.85 Y-7.791 E21.53437
G1 X5.338 Y-7.465 E21.57097
G1 X5.811 Y-7.103 E21.60812
G1 X6.215 Y-6.752 E21.64149
G1 X7.787 Y-5.208 E21.7789
G1 X8.616 Y-3.162 E21.91657
G1 X8.792 Y-2.636 E21.95116
G1 X8.943 Y-2.065 E21.988
G1 X9.044 Y-1.563 E22.01993
G1 X9.129 Y-.925 E22.06007
G1 X9.17 Y-.36 E22.0954
G1 X9.188 Y1.827 E22.23179
G1 X8.343 Y3.822 E22.3669
G1 X8.077 Y4.357 E22.40416
G1 X7.796 Y4.841 E22.43907
G1 X7.469 Y5.33 E22.47575
G1 X7.117 Y5.792 E22.51197
G1 X6.734 Y6.234 E22.54845
G0 F3300 X5.788 Y7.91
G1 F1800 X6.206 Y8.327 E22.58527
G1 X6.414 Y8.535 E22.60361
G1 X6.174 Y8.706 E22.61497
G1 X5.963 Y8.857 E22.63115
G1 X5.681 Y9.034 E22.65192
G1 X5.431 Y9.191 E22.67033
G1 X5.319 Y8.918 E22.68169
G1 X5.094 Y8.373 E22.71847
G1 X3.335 Y9.085 E22.83681
G1 X2.779 Y9.271 E22.87337
G1 X2.175 Y9.431 E22.91234
G1 X1.622 Y9.54 E22.94749
G1 X0.974 Y9.627 E22.98826
G1 X0.382 Y9.67 E23.02528
G1 X-1.5 Y9.685 E23.14265
G1 X-1.5 Y10.276 E23.1795
G1 X-1.5 Y10.277 E23.17956
G1 X-1.5 Y10.571 E23.1979
G1 X-1.791 Y10.523 E23.20927
G1 X-2.083 Y10.473 E23.22774
G1 X-2.372 Y10.407 E23.24623
G1 X-2.66 Y10.341 E23.26466
G1 X-2.547 Y10.068 E23.27604
G1 X-2.32 Y9.522 E23.31292
G1 X-4.039 Y8.794 E23.42934
G1 X-4.616 Y8.506 E23.46955
G1 X-5.113 Y8.218 E23.50537
G1 X-5.615 Y7.882 E23.54305
G1 X-6.125 Y7.492 E23.58308
G1 X-6.557 Y7.117 E23.61876
G1 X-7.91 Y5.788 E23.73703
G1 X-8.328 Y6.206 E23.7739
G1 X-8.536 Y6.414 E23.79224
G1 X-8.707 Y6.174 E23.8036
G1 X-8.868 Y5.948 E23.82091
G1 X-9.035 Y5.682 E23.84049
G1 X-9.191 Y5.432 E23.85887
G1 X-8.919 Y5.32 E23.87021
G1 X-8.373 Y5.094 E23.90706
G1 X-9.085 Y3.335 E24.02541
G1 X-9.271 Y2.779 E24.06197
G1 X-9.431 Y2.175 E24.10093
G1 X-9.54 Y1.622 E24.13608
G1 X-9.627 Y0.974 E24.17686
G1 X-9.67 Y0.382 E24.21387
G1 X-9.685 Y-1.5 E24.33124
G1 X-10.276 Y-1.5 E24.3681
G1 X-10.278 Y-1.5 E24.36823
G1 X-10.571 Y-1.5 E24.3865
G1 X-10.523 Y-1.79 E24.39784
G1 X-10.475 Y-2.071 E24.41562
G1 X-10.406 Y-2.371 E24.43481
G1 X-10.341 Y-2.659 E24.45322
G1 X-10.068 Y-2.546 E24.46461
G1 X-9.522 Y-2.32 E24.50146
