;-- START GCODE --
;Sliced for Type A Machines Series 1
;Sliced at: Mon 24-07-2017 19:40:41
;Basic settings:
;	Layer height: 0.15
;	Walls: 0.8
;	Fill: 5
;	Print Speed: 60
;	Support: 0
;	Retraction Speed: 35
;	Retraction Distance: 0.4
;Print time: 3 hours 34 minutes
;Filament used: 10.842m 32.0g
;Settings based on: Generic PLA
G21        ;metric values
G90        ;absolute positioning
G28     ;move to endstops
G29		;allows for auto-levelling
G1 Z15.0 F12000 ;move the platform down 15mm
G1 X150 Y5 F12000 ;center
M109 S220 ;Heat To temp
G1 X150 Y5 Z0.3 ;move the platform to purge extrusion
G92 E0 ;zero the extruded length
G1 F200 X250 E30 ;extrude 30mm of feed stock
G92 E0 ;zero the extruded length again
G1 X150 Y150  Z25 F12000 ;recenter and begin
G1 F12000

;Layer count: 101
;LAYER:0
M107
G0 F12000 X64.407 Y125.387 Z0.200
;TYPE:SKIRT
G1 F1800 X64.407 Y216.285 E3.02328
G1 X96.330 Y216.286 E4.08504
G1 X96.330 Y125.387 E7.10836
G1 X64.407 Y125.387 E8.17012
G0 F12000 X64.007 Y124.987
G1 F1800 X64.007 Y216.685 E11.22001
G1 X96.730 Y216.686 E12.30838
G1 X96.730 Y124.987 E15.35830
G1 X64.007 Y124.987 E16.44667
G0 F12000 X63.607 Y124.587
G1 F1800 X63.607 Y217.085 E19.52317
G1 X97.130 Y217.086 E20.63815
G1 X97.130 Y124.587 E23.71468
G1 X63.607 Y124.587 E24.82966
G0 F12000 X63.207 Y124.187
G1 F1800 X63.207 Y217.193 E27.92305
G1 X63.225 Y217.358 E27.92857
G1 X63.237 Y217.395 E27.92986
G1 X63.251 Y217.416 E27.93070
G1 X63.276 Y217.441 E27.93188
G1 X63.300 Y217.457 E27.93284
G1 X63.324 Y217.465 E27.93368
G1 X63.497 Y217.485 E27.93947
G1 X97.408 Y217.486 E29.06735
G1 X97.530 Y217.244 E29.07637
G1 X97.530 Y124.187 E32.17146
G1 X63.207 Y124.187 E33.31304
G0 F12000 X62.807 Y123.787
G1 F1800 X62.807 Y217.210 E36.42031
G1 X62.834 Y217.453 E36.42844
G1 X62.873 Y217.565 E36.43238
G1 X62.938 Y217.670 E36.43649
G1 X63.021 Y217.752 E36.44037
G1 X63.125 Y217.819 E36.44449
G1 X63.235 Y217.857 E36.44836
G1 X63.479 Y217.885 E36.45652
G1 X97.655 Y217.886 E37.59322
G1 X97.930 Y217.339 E37.61359
G1 X97.930 Y123.787 E40.72514
G1 X62.807 Y123.787 E41.89333
G0 F12000 X62.407 Y123.387
G1 F1800 X62.407 Y217.237 E45.01480
G1 X62.440 Y217.537 E45.02484
G1 X62.511 Y217.740 E45.03199
G1 X62.624 Y217.921 E45.03909
G1 X62.770 Y218.068 E45.04598
G1 X62.950 Y218.182 E45.05306
G1 X63.144 Y218.250 E45.05990
G1 X63.451 Y218.285 E45.07018
G1 X97.901 Y218.286 E46.21599
G1 X98.330 Y217.433 E46.24775
G1 X98.330 Y123.387 E49.37573
G1 X62.407 Y123.387 E50.57053
G0 F12000 X62.007 Y122.987
G1 F1800 X62.007 Y217.263 E53.70617
G1 X62.047 Y217.626 E53.71831
G1 X62.148 Y217.913 E53.72843
G1 X62.307 Y218.169 E53.73845
G1 X62.520 Y218.383 E53.74850
G1 X62.772 Y218.543 E53.75843
G1 X63.055 Y218.642 E53.76840
G1 X63.431 Y218.685 E53.78098
G1 X98.148 Y218.686 E54.93568
G1 X98.730 Y217.528 E54.97878
G1 X98.730 Y123.019 E58.12216
G1 X98.726 Y122.991 E58.12311
G1 X98.698 Y122.987 E58.12405
G1 X62.007 Y122.987 E59.34439
G0 F12000 X61.607 Y122.587
G1 F1800 X61.607 Y217.280 E62.49390
G1 X61.656 Y217.719 E62.50859
G1 X61.783 Y218.085 E62.52147
G1 X61.993 Y218.421 E62.53465
G1 X62.268 Y218.696 E62.54759
G1 X62.595 Y218.904 E62.56048
G1 X62.964 Y219.034 E62.57349
G1 X63.413 Y219.085 E62.58852
G1 X98.395 Y219.086 E63.75202
G1 X99.130 Y217.624 E63.80645
G1 X99.130 Y122.993 E66.95389
G1 X99.109 Y122.836 E66.95916
G1 X99.077 Y122.760 E66.96190
G1 X99.025 Y122.693 E66.96472
G1 X98.954 Y122.639 E66.96769
G1 X98.877 Y122.607 E66.97046
G1 X98.729 Y122.587 E66.97543
G1 X61.607 Y122.587 E68.21011
G0 F12000 X61.207 Y122.187
G1 F1800 X61.207 Y217.306 E71.37378
G1 X61.262 Y217.802 E71.39038
G1 X61.423 Y218.265 E71.40668
G1 X61.674 Y218.667 E71.42245
G1 X62.017 Y219.011 E71.43860
G1 X62.422 Y219.268 E71.45456
G1 X62.875 Y219.427 E71.47053
G1 X63.384 Y219.485 E71.48757
G1 X98.641 Y219.486 E72.66022
G1 X99.530 Y217.717 E72.72607
G1 X99.530 Y122.961 E75.87766
G1 X99.499 Y122.734 E75.88528
G1 X99.426 Y122.558 E75.89162
G1 X99.311 Y122.408 E75.89791
G1 X99.156 Y122.289 E75.90441
G1 X98.982 Y122.218 E75.91066
G1 X98.752 Y122.187 E75.91838
G1 X61.207 Y122.187 E77.16713
G0 F12000 X60.807 Y121.787
G1 F1800 X60.807 Y217.323 E80.34467
G1 X60.871 Y217.896 E80.36385
G1 X61.058 Y218.434 E80.38279
G1 X61.361 Y218.921 E80.40187
G1 X61.764 Y219.324 E80.42082
G1 X62.245 Y219.629 E80.43977
G1 X62.784 Y219.818 E80.45876
G1 X63.365 Y219.885 E80.47822
G1 X98.887 Y219.886 E81.65968
G1 X99.930 Y217.813 E81.73687
G1 X99.930 Y122.936 E84.89249
G1 X99.888 Y122.626 E84.90289
G1 X99.776 Y122.355 E84.91265
G1 X99.596 Y122.122 E84.92244
G1 X99.356 Y121.939 E84.93248
G1 X99.086 Y121.827 E84.94220
G1 X98.782 Y121.787 E84.95240
G1 X60.807 Y121.787 E86.21545
G0 F12000 X58.092 Y119.638
G1 F1800 X102.520 Y119.637 E87.69313
G1 X102.520 Y135.428 E88.21834
G1 X114.520 Y135.428 E88.61746
G1 X114.520 Y203.820 E90.89219
G1 X102.520 Y203.820 E91.29131
G1 X102.520 Y217.447 E91.74455
G1 X100.287 Y221.890 E91.90994
G1 X100.212 Y222.036 E91.91540
G1 X63.350 Y222.036 E93.14143
G1 X62.687 Y221.988 E93.16354
G1 X62.026 Y221.844 E93.18604
G1 X61.386 Y221.603 E93.20879
G1 X60.805 Y221.283 E93.23085
G1 X56.354 Y218.386 E93.40748
G1 X55.870 Y217.999 E93.42810
G1 X55.463 Y217.511 E93.44923
G1 X55.159 Y216.954 E93.47034
G1 X54.971 Y216.347 E93.49147
G1 X54.908 Y215.724 E93.51230
G1 X54.907 Y122.827 E96.60206
G1 X54.967 Y122.218 E96.62242
G1 X55.148 Y121.617 E96.64329
G1 X55.443 Y121.064 E96.66414
G1 X55.844 Y120.574 E96.68520
G1 X56.328 Y120.176 E96.70604
G1 X56.877 Y119.883 E96.72674
G1 X57.477 Y119.700 E96.74760
G1 X58.092 Y119.638 E96.76816
G0 F12000 X58.072 Y119.238
G1 F1800 X102.920 Y119.237 E98.25981
G1 X102.920 Y135.028 E98.78502
G1 X114.920 Y135.028 E99.18414
G1 X114.920 Y204.220 E101.48548
G1 X102.920 Y204.220 E101.88460
G1 X102.920 Y217.542 E102.32769
G1 X100.644 Y222.071 E102.49628
G1 X100.456 Y222.436 E102.50994
G1 X63.335 Y222.436 E103.74458
G1 X62.630 Y222.385 E103.76809
G1 X61.912 Y222.229 E103.79253
G1 X61.218 Y221.967 E103.81720
G1 X60.599 Y221.626 E103.84071
G1 X56.119 Y218.711 E104.01848
G1 X55.589 Y218.286 E104.04108
G1 X55.131 Y217.737 E104.06486
G1 X54.789 Y217.111 E104.08858
G1 X54.577 Y216.427 E104.11240
G1 X54.508 Y215.744 E104.13523
G1 X54.507 Y122.808 E107.22630
G1 X54.573 Y122.140 E107.24862
G1 X54.777 Y121.464 E107.27211
G1 X55.108 Y120.841 E107.29557
G1 X55.559 Y120.290 E107.31925
G1 X56.105 Y119.842 E107.34274
G1 X56.723 Y119.512 E107.36605
G1 X57.398 Y119.306 E107.38952
G1 X58.072 Y119.238 E107.41205
G0 F12000 X58.052 Y118.838
G1 F1800 X103.320 Y118.837 E108.91767
G1 X103.320 Y134.628 E109.44288
G1 X115.320 Y134.628 E109.84200
G1 X115.320 Y204.620 E112.16995
G1 X103.320 Y204.620 E112.56907
G1 X103.320 Y217.637 E113.00201
G1 X101.001 Y222.252 E113.17380
G1 X100.701 Y222.836 E113.19564
G1 X63.321 Y222.836 E114.43890
G1 X62.573 Y222.782 E114.46384
G1 X61.799 Y222.614 E114.49019
G1 X61.050 Y222.331 E114.51682
G1 X60.393 Y221.969 E114.54177
G1 X55.964 Y219.087 E114.71752
G1 X55.885 Y219.036 E114.72064
G1 X55.308 Y218.573 E114.74525
G1 X54.799 Y217.964 E114.77165
G1 X54.418 Y217.267 E114.79807
G1 X54.183 Y216.507 E114.82453
G1 X54.108 Y215.764 E114.84936
G1 X54.107 Y122.788 E117.94176
G1 X54.178 Y122.062 E117.96602
G1 X54.405 Y121.311 E117.99212
G1 X54.774 Y120.618 E118.01823
G1 X55.275 Y120.006 E118.04453
G1 X55.882 Y119.507 E118.07067
G1 X56.569 Y119.141 E118.09656
G1 X57.319 Y118.912 E118.12264
G1 X58.052 Y118.838 E118.14715
G0 F12000 X58.032 Y118.438
G1 F1800 X103.720 Y118.437 E119.66673
G1 X103.720 Y134.228 E120.19195
G1 X115.720 Y134.228 E120.59107
G1 X115.720 Y205.020 E122.94562
G1 X103.720 Y205.020 E123.34474
G1 X103.720 Y217.732 E123.76754
G1 X101.357 Y222.433 E123.94254
G1 X100.945 Y223.236 E123.97256
G1 X63.307 Y223.236 E125.22440
G1 X62.516 Y223.179 E125.25078
G1 X61.685 Y222.998 E125.27907
G1 X60.882 Y222.696 E125.30760
G1 X60.187 Y222.312 E125.33401
G1 X55.746 Y219.423 E125.51022
G1 X55.650 Y219.360 E125.51404
G1 X55.026 Y218.860 E125.54064
G1 X54.466 Y218.190 E125.56968
G1 X54.048 Y217.424 E125.59870
G1 X53.789 Y216.587 E125.62785
G1 X53.708 Y215.785 E125.65466
G1 X53.707 Y122.768 E128.74841
G1 X53.784 Y121.984 E128.77462
G1 X54.033 Y121.158 E128.80331
G1 X54.439 Y120.395 E128.83206
G1 X54.991 Y119.722 E128.86101
G1 X55.659 Y119.173 E128.88976
G1 X56.415 Y118.770 E128.91826
G1 X57.240 Y118.518 E128.94695
G1 X58.032 Y118.438 E128.97343
G0 F12000 X58.011 Y118.038
G1 F1800 X104.120 Y118.037 E130.50702
G1 X104.120 Y133.828 E131.03223
G1 X116.120 Y133.828 E131.43135
G1 X116.120 Y205.420 E133.81251
G1 X104.120 Y205.420 E134.21163
G1 X104.120 Y217.827 E134.62429
G1 X101.714 Y222.614 E134.80249
G1 X101.189 Y223.636 E134.84070
G1 X63.292 Y223.636 E136.10116
G1 X62.459 Y223.576 E136.12894
G1 X61.571 Y223.383 E136.15916
G1 X60.714 Y223.060 E136.18962
G1 X59.981 Y222.655 E136.21748
G1 X55.526 Y219.757 E136.39424
G1 X55.415 Y219.685 E136.39864
G1 X54.745 Y219.147 E136.42722
G1 X54.134 Y218.416 E136.45891
G1 X53.678 Y217.580 E136.49058
G1 X53.395 Y216.667 E136.52237
G1 X53.308 Y215.805 E136.55119
G1 X53.307 Y122.749 E139.64625
G1 X53.390 Y121.905 E139.67445
G1 X53.662 Y121.005 E139.70572
G1 X54.105 Y120.172 E139.73710
G1 X54.706 Y119.438 E139.76866
G1 X55.435 Y118.839 E139.80004
G1 X56.261 Y118.399 E139.83117
G1 X57.160 Y118.124 E139.86243
G1 X58.011 Y118.038 E139.89088
G0 F12000 X57.991 Y117.638
G1 F1800 X104.520 Y117.637 E141.43844
G1 X104.520 Y133.428 E141.96365
G1 X116.520 Y133.428 E142.36278
G1 X116.520 Y205.820 E144.77054
G1 X104.520 Y205.820 E145.16967
G1 X104.520 Y217.922 E145.57218
G1 X102.070 Y222.795 E145.75359
G1 X101.433 Y224.036 E145.79998
G1 X63.278 Y224.036 E147.06902
G1 X62.401 Y223.973 E147.09827
G1 X61.457 Y223.767 E147.13040
G1 X60.546 Y223.424 E147.16278
G1 X59.775 Y222.999 E147.19206
G1 X55.308 Y220.092 E147.36933
G1 X55.181 Y220.009 E147.37437
G1 X54.464 Y219.434 E147.40494
G1 X53.802 Y218.643 E147.43925
G1 X53.307 Y217.737 E147.47359
G1 X53.001 Y216.747 E147.50805
G1 X52.908 Y215.825 E147.53887
G1 X52.907 Y122.729 E150.63526
G1 X52.996 Y121.827 E150.66540
G1 X53.290 Y120.852 E150.69927
G1 X53.770 Y119.950 E150.73326
G1 X54.422 Y119.154 E150.76748
G1 X55.212 Y118.504 E150.80151
G1 X56.107 Y118.027 E150.83524
G1 X57.081 Y117.730 E150.86911
G1 X57.991 Y117.638 E150.89953
G0 F12000 X57.971 Y117.238
G1 F1800 X104.920 Y117.237 E152.46106
G1 X104.920 Y133.028 E152.98627
G1 X116.920 Y133.028 E153.38539
G1 X116.920 Y206.220 E155.81977
G1 X104.920 Y206.220 E156.21889
G1 X104.920 Y218.017 E156.61126
G1 X102.427 Y222.977 E156.79589
G1 X101.678 Y224.436 E156.85044
G1 X63.264 Y224.436 E158.12810
G1 X62.344 Y224.370 E158.15877
G1 X61.344 Y224.152 E158.19282
G1 X60.378 Y223.788 E158.22715
G1 X59.569 Y223.342 E158.25788
G1 X55.090 Y220.427 E158.43562
G1 X54.946 Y220.334 E158.44132
G1 X54.182 Y219.721 E158.47390
G1 X53.470 Y218.869 E158.51083
G1 X52.937 Y217.893 E158.54782
G1 X52.607 Y216.827 E158.58493
G1 X52.508 Y215.845 E158.61776
G1 X52.507 Y122.710 E161.71544
G1 X52.601 Y121.749 E161.74756
G1 X52.919 Y120.698 E161.78408
G1 X53.435 Y119.727 E161.82065
G1 X54.137 Y118.870 E161.85750
G1 X54.989 Y118.170 E161.89417
G1 X55.953 Y117.656 E161.93051
G1 X57.002 Y117.336 E161.96699
G1 X57.971 Y117.238 E161.99938
G0 F12000 X57.951 Y116.838
G1 F1800 X105.320 Y116.837 E163.57488
G1 X105.320 Y132.628 E164.10009
G1 X117.320 Y132.628 E164.49921
G1 X117.320 Y206.620 E166.96019
G1 X105.320 Y206.620 E167.35932
G1 X105.320 Y218.112 E167.74154
G1 X102.784 Y223.158 E167.92938
G1 X101.922 Y224.836 E167.99212
G1 X63.249 Y224.836 E169.27839
G1 X62.287 Y224.767 E169.31047
G1 X61.230 Y224.537 E169.34645
G1 X60.210 Y224.152 E169.38271
G1 X59.363 Y223.685 E169.41488
G1 X54.872 Y220.763 E169.59308
G1 X54.712 Y220.659 E169.59943
G1 X53.901 Y220.008 E169.63402
G1 X53.138 Y219.095 E169.67359
G1 X52.567 Y218.050 E169.71320
G1 X52.213 Y216.907 E169.75300
G1 X52.108 Y215.865 E169.78783
G1 X52.107 Y122.690 E172.88684
G1 X52.207 Y121.671 E172.92090
G1 X52.547 Y120.545 E172.96002
G1 X53.101 Y119.504 E172.99924
G1 X53.853 Y118.586 E173.03871
G1 X54.766 Y117.836 E173.07801
G1 X55.799 Y117.285 E173.11695
G1 X56.923 Y116.942 E173.15603
G1 X57.951 Y116.838 E173.19040
G0 F12000 X57.931 Y116.438
G1 F1800 X105.720 Y116.437 E174.77987
G1 X105.720 Y132.228 E175.30508
G1 X117.720 Y132.228 E175.70420
G1 X117.720 Y207.020 E178.19179
G1 X105.720 Y207.020 E178.59092
G1 X105.720 Y218.206 E178.96296
G1 X103.140 Y223.339 E179.15404
G1 X102.166 Y225.236 E179.22496
G1 X63.235 Y225.236 E180.51982
G1 X62.230 Y225.164 E180.55333
G1 X61.116 Y224.921 E180.59125
G1 X60.042 Y224.516 E180.62943
G1 X59.157 Y224.028 E180.66304
G1 X54.654 Y221.098 E180.84173
G1 X54.477 Y220.983 E180.84875
G1 X53.619 Y220.295 E180.88532
G1 X52.805 Y219.321 E180.92754
G1 X52.197 Y218.206 E180.96978
G1 X51.819 Y216.987 E181.01223
G1 X51.708 Y215.886 E181.04904
G1 X51.707 Y122.670 E184.14941
G1 X51.813 Y121.593 E184.18541
G1 X52.176 Y120.392 E184.22714
G1 X52.766 Y119.281 E184.26898
G1 X53.568 Y118.302 E184.31107
G1 X54.543 Y117.502 E184.35302
G1 X55.645 Y116.914 E184.39456
G1 X56.843 Y116.548 E184.43623
G1 X57.931 Y116.438 E184.47260
G0 F12000 X57.911 Y116.038
G1 F1800 X106.120 Y116.037 E186.07604
G1 X106.120 Y131.828 E186.60125
G1 X118.120 Y131.828 E187.00037
G1 X118.120 Y207.420 E189.51457
G1 X106.120 Y207.420 E189.91369
G1 X106.120 Y218.301 E190.27559
G1 X103.497 Y223.520 E190.46987
G1 X102.410 Y225.636 E190.54899
G1 X63.221 Y225.636 E191.85242
G1 X62.173 Y225.561 E191.88737
G1 X61.003 Y225.306 E191.92719
G1 X59.874 Y224.880 E191.96733
G1 X58.951 Y224.372 E192.00237
G1 X54.440 Y221.436 E192.18139
G1 X54.243 Y221.308 E192.18920
G1 X53.338 Y220.582 E192.22779
G1 X52.473 Y219.548 E192.27263
G1 X51.826 Y218.363 E192.31753
G1 X51.426 Y217.067 E192.36264
G1 X51.308 Y215.906 E192.40146
G1 X51.307 Y122.651 E195.50313
G1 X51.419 Y121.515 E195.54110
G1 X51.804 Y120.239 E195.58543
G1 X52.432 Y119.058 E195.62992
G1 X53.284 Y118.018 E195.67463
G1 X54.319 Y117.167 E195.71920
G1 X55.491 Y116.542 E195.76338
G1 X56.764 Y116.154 E195.80764
G1 X57.911 Y116.038 E195.84598
G0 F12000 X173.522 Y111.663
G1 F1800 X219.403 Y111.663 E197.37199
G1 X231.549 Y132.700 E198.17993
G1 X254.355 Y132.700 E198.93846
G1 X255.748 Y132.834 E198.98501
G1 X257.278 Y133.285 E199.03806
G1 X258.545 Y133.943 E199.08555
G1 X263.330 Y137.058 E199.27545
G1 X264.194 Y137.788 E199.31307
G1 X264.538 Y138.132 E199.32925
G1 X265.425 Y139.371 E199.37993
G1 X266.042 Y140.948 E199.43625
G1 X266.221 Y142.382 E199.48432
G1 X266.222 Y145.912 E199.60173
G1 X266.222 Y235.757 E202.58998
G1 X266.021 Y237.271 E202.64078
G1 X265.339 Y238.916 E202.70001
G1 X264.253 Y240.332 E202.75936
G1 X262.838 Y241.416 E202.81865
G1 X261.192 Y242.099 E202.87792
G1 X259.670 Y242.299 E202.92898
G1 X232.084 Y242.299 E203.84649
G1 X220.698 Y262.020 E204.60389
G1 X219.398 Y264.262 E204.69009
G1 X169.522 Y264.262 E206.34897
G1 X169.522 Y247.862 E206.89444
G1 X210.015 Y247.862 E208.24124
G1 X211.409 Y245.448 E208.33395
G1 X211.409 Y131.027 E212.13961
G1 X210.015 Y128.613 E212.23233
G1 X173.522 Y128.613 E213.44609
G1 X173.522 Y111.663 E214.00985
G0 F12000 X173.922 Y112.063
G1 F1800 X219.172 Y112.063 E215.51487
G1 X231.318 Y133.100 E216.32281
G1 X254.335 Y133.100 E217.08836
G1 X255.672 Y133.229 E217.13303
G1 X257.128 Y133.657 E217.18351
G1 X258.343 Y134.289 E217.22906
G1 X263.091 Y137.379 E217.41748
G1 X263.923 Y138.083 E217.45373
G1 X264.232 Y138.391 E217.46824
G1 X265.071 Y139.563 E217.51618
G1 X265.651 Y141.047 E217.56917
G1 X265.821 Y142.407 E217.61476
G1 X265.822 Y145.912 E217.73133
G1 X265.822 Y235.730 E220.71869
G1 X265.632 Y237.166 E220.76687
G1 X264.989 Y238.714 E220.82262
G1 X263.968 Y240.046 E220.87844
G1 X262.637 Y241.067 E220.93424
G1 X261.087 Y241.710 E220.99005
G1 X259.644 Y241.899 E221.03845
G1 X231.853 Y241.899 E221.96279
G1 X220.352 Y261.820 E222.72786
G1 X219.168 Y263.862 E222.80636
G1 X169.922 Y263.862 E224.44429
G1 X169.922 Y248.262 E224.96315
G1 X210.246 Y248.262 E226.30433
G1 X211.809 Y245.554 E226.40833
G1 X211.809 Y130.921 E230.22104
G1 X210.246 Y128.213 E230.32503
G1 X173.922 Y128.213 E231.53317
G1 X173.922 Y112.063 E232.07032
G0 F12000 X174.322 Y112.463
G1 F1800 X218.941 Y112.463 E233.55436
G1 X231.086 Y133.500 E234.36228
G1 X254.316 Y133.500 E235.13491
G1 X255.596 Y133.623 E235.17768
G1 X256.978 Y134.030 E235.22560
G1 X258.141 Y134.635 E235.26920
G1 X262.851 Y137.701 E235.45613
G1 X263.652 Y138.378 E235.49101
G1 X263.926 Y138.651 E235.50387
G1 X264.716 Y139.755 E235.54902
G1 X265.260 Y141.146 E235.59870
G1 X265.421 Y142.432 E235.64181
G1 X265.422 Y235.703 E238.74401
G1 X265.242 Y237.061 E238.78958
G1 X264.640 Y238.512 E238.84183
G1 X263.682 Y239.761 E238.89418
G1 X262.435 Y240.717 E238.94644
G1 X260.983 Y241.320 E238.99873
G1 X259.618 Y241.499 E239.04452
G1 X231.621 Y241.499 E239.97571
G1 X220.006 Y261.619 E240.74840
G1 X218.938 Y263.462 E240.81925
G1 X170.322 Y263.462 E242.43623
G1 X170.322 Y248.662 E242.92848
G1 X210.477 Y248.662 E244.26404
G1 X212.209 Y245.662 E244.37925
G1 X212.209 Y130.813 E248.19915
G1 X210.477 Y127.813 E248.31436
G1 X174.322 Y127.813 E249.51688
G1 X174.322 Y112.463 E250.02742
G0 F12000 X174.722 Y112.863
G1 F1800 X218.710 Y112.863 E251.49047
G1 X230.856 Y133.900 E252.29841
G1 X254.297 Y133.900 E253.07806
G1 X255.519 Y134.018 E253.11890
G1 X256.828 Y134.403 E253.16428
G1 X257.939 Y134.981 E253.20593
G1 X262.612 Y138.022 E253.39137
G1 X263.381 Y138.673 E253.42488
G1 X263.619 Y138.911 E253.43607
G1 X264.362 Y139.947 E253.47848
G1 X264.870 Y141.246 E253.52487
G1 X265.021 Y142.457 E253.56546
G1 X265.022 Y235.677 E256.66597
G1 X264.853 Y236.957 E256.70891
G1 X264.291 Y238.311 E256.75767
G1 X263.397 Y239.476 E256.80651
G1 X262.233 Y240.368 E256.85529
G1 X260.878 Y240.930 E256.90408
G1 X259.592 Y241.099 E256.94722
G1 X231.392 Y241.099 E257.88515
G1 X219.660 Y261.419 E258.66556
G1 X218.707 Y263.062 E258.72873
G1 X170.722 Y263.062 E260.32472
G1 X170.722 Y249.062 E260.79036
G1 X210.707 Y249.062 E262.12027
G1 X212.609 Y245.768 E262.24678
G1 X212.609 Y130.706 E266.07376
G1 X210.708 Y127.413 E266.20022
G1 X174.722 Y127.413 E267.39712
G1 X174.722 Y112.863 E267.88106
G0 F12000 X175.122 Y113.263
G1 F1800 X218.479 Y113.263 E269.32312
G1 X230.624 Y134.300 E270.13104
G1 X254.278 Y134.300 E270.91778
G1 X255.443 Y134.412 E270.95670
G1 X256.678 Y134.776 E270.99953
G1 X257.737 Y135.327 E271.03923
G1 X262.373 Y138.344 E271.22320
G1 X263.110 Y138.967 E271.25530
G1 X263.313 Y139.170 E271.26485
G1 X264.008 Y140.140 E271.30453
G1 X264.479 Y141.345 E271.34757
G1 X264.621 Y142.482 E271.38568
G1 X264.622 Y235.651 E274.48449
G1 X264.463 Y236.852 E274.52478
G1 X263.941 Y238.109 E274.57005
G1 X263.112 Y239.190 E274.61536
G1 X262.032 Y240.018 E274.66063
G1 X260.774 Y240.540 E274.70593
G1 X259.566 Y240.699 E274.74645
G1 X231.160 Y240.699 E275.69124
G1 X219.313 Y261.219 E276.47932
G1 X218.477 Y262.662 E276.53478
G1 X171.122 Y262.662 E278.10982
G1 X171.122 Y249.462 E278.54885
G1 X210.939 Y249.462 E279.87317
G1 X213.009 Y245.876 E280.01089
G1 X213.009 Y130.598 E283.84505
G1 X210.939 Y127.013 E283.98273
G1 X175.122 Y127.013 E285.17401
G1 X175.122 Y113.263 E285.63134
G0 F12000 X175.522 Y113.663
G1 F1800 X218.248 Y113.663 E287.05241
G1 X230.282 Y134.506 E287.85290
G1 X230.394 Y134.700 E287.86035
G1 X254.259 Y134.700 E288.65411
G1 X255.367 Y134.807 E288.69113
G1 X256.528 Y135.149 E288.73139
G1 X257.535 Y135.673 E288.76914
G1 X262.134 Y138.666 E288.95164
G1 X262.839 Y139.262 E288.98235
G1 X263.007 Y139.430 E288.99025
G1 X263.653 Y140.332 E289.02715
G1 X264.088 Y141.444 E289.06687
G1 X264.221 Y142.507 E289.10250
G1 X264.222 Y235.624 E292.19958
G1 X264.073 Y236.747 E292.23726
G1 X263.592 Y237.907 E292.27903
G1 X262.827 Y238.905 E292.32085
G1 X261.830 Y239.669 E292.36263
G1 X260.669 Y240.151 E292.40444
G1 X259.540 Y240.299 E292.44231
G1 X230.928 Y240.299 E293.39395
G1 X218.967 Y261.018 E294.18965
G1 X218.246 Y262.262 E294.23748
G1 X171.522 Y262.262 E295.79152
G1 X171.522 Y249.862 E296.20395
G1 X211.170 Y249.862 E297.52265
G1 X213.409 Y245.984 E297.67158
G1 X213.409 Y130.492 E301.51286
G1 X211.170 Y126.613 E301.66183
G1 X175.522 Y126.613 E302.84749
G1 X175.522 Y113.663 E303.27821
G0 F12000 X175.922 Y114.063
G1 F1800 X218.017 Y114.063 E304.67829
G1 X229.935 Y134.706 E305.47109
G1 X230.163 Y135.100 E305.48623
G1 X254.239 Y135.100 E306.28700
G1 X255.290 Y135.201 E306.32212
G1 X256.377 Y135.521 E306.35981
G1 X257.333 Y136.018 E306.39565
G1 X261.895 Y138.987 E306.57668
G1 X262.568 Y139.557 E306.60602
G1 X262.701 Y139.689 E306.61225
G1 X263.299 Y140.524 E306.64641
G1 X263.698 Y141.543 E306.68281
G1 X263.821 Y142.532 E306.71595
G1 X263.822 Y235.598 E309.81134
G1 X263.684 Y236.642 E309.84637
G1 X263.243 Y237.705 E309.88464
G1 X262.541 Y238.620 E309.92300
G1 X261.628 Y239.320 E309.96127
G1 X260.565 Y239.761 E309.99954
G1 X259.513 Y239.899 E310.03483
G1 X230.697 Y239.899 E310.99326
G1 X230.594 Y240.079 E311.00016
G1 X218.621 Y260.818 E311.79664
G1 X218.016 Y261.862 E311.83677
G1 X171.922 Y261.862 E313.36986
G1 X171.922 Y250.262 E313.75568
G1 X211.401 Y250.262 E315.06876
G1 X213.809 Y246.090 E315.22897
G1 X213.809 Y130.383 E319.07740
G1 X211.401 Y126.213 E319.23756
G1 X175.922 Y126.213 E320.41760
G1 X175.922 Y114.063 E320.82171
G0 F12000 X176.322 Y114.463
G1 F1800 X217.786 Y114.463 E322.20081
G1 X229.589 Y134.907 E322.98596
G1 X229.897 Y135.438 E323.00638
G1 X229.933 Y135.500 E323.00876
G1 X254.220 Y135.500 E323.81655
G1 X255.214 Y135.596 E323.84977
G1 X256.227 Y135.894 E323.88489
G1 X257.132 Y136.364 E323.91880
G1 X261.656 Y139.309 E324.09835
G1 X262.297 Y139.851 E324.12627
G1 X262.395 Y139.949 E324.13088
G1 X262.945 Y140.716 E324.16227
G1 X263.307 Y141.642 E324.19534
G1 X263.421 Y142.557 E324.22600
G1 X263.422 Y235.572 E327.31970
G1 X263.294 Y236.538 E327.35211
G1 X262.893 Y237.503 E327.38686
G1 X262.256 Y238.334 E327.42169
G1 X261.426 Y238.970 E327.45647
G1 X260.460 Y239.371 E327.49125
G1 X259.487 Y239.499 E327.52389
G1 X230.467 Y239.499 E328.48910
G1 X230.247 Y239.879 E328.50371
G1 X218.275 Y260.618 E329.30017
G1 X217.785 Y261.462 E329.33263
G1 X172.322 Y261.462 E330.84474
G1 X172.322 Y250.662 E331.20395
G1 X211.632 Y250.662 E332.51140
G1 X214.209 Y246.197 E332.68287
G1 X214.209 Y130.277 E336.53838
G1 X211.632 Y125.813 E336.70982
G1 X176.322 Y125.813 E337.88424
G1 X176.322 Y114.463 E338.26174
G0 F12000 X176.722 Y114.863
G1 F1800 X217.555 Y114.863 E339.61985
G1 X229.702 Y135.900 E340.42781
G1 X254.201 Y135.900 E341.24265
G1 X255.138 Y135.990 E341.27396
G1 X256.077 Y136.267 E341.30652
G1 X256.930 Y136.710 E341.33849
G1 X261.417 Y139.631 E341.51656
G1 X262.026 Y140.146 E341.54309
G1 X262.089 Y140.209 E341.54605
G1 X262.590 Y140.909 E341.57468
G1 X262.916 Y141.741 E341.60440
G1 X263.021 Y142.582 E341.63259
G1 X263.022 Y235.545 E344.72455
G1 X262.904 Y236.433 E344.75435
G1 X262.544 Y237.302 E344.78563
G1 X261.971 Y238.049 E344.81695
G1 X261.225 Y238.621 E344.84821
G1 X260.356 Y238.982 E344.87951
G1 X259.461 Y239.099 E344.90953
G1 X230.236 Y239.099 E345.88156
G1 X217.555 Y261.062 E346.72507
G1 X172.722 Y261.062 E348.21622
G1 X172.722 Y251.062 E348.54882
G1 X211.862 Y251.062 E349.85063
G1 X214.609 Y246.306 E350.03330
G1 X214.609 Y130.170 E353.89600
G1 X211.862 Y125.413 E354.07870
G1 X176.722 Y125.413 E355.24746
G1 X176.722 Y114.863 E355.59836
G0 F12000 X177.122 Y115.263
G1 F1800 X217.324 Y115.263 E356.93548
G1 X229.470 Y136.300 E357.74342
G1 X254.182 Y136.300 E358.56535
G1 X255.061 Y136.385 E358.59472
G1 X255.927 Y136.640 E358.62475
G1 X256.728 Y137.056 E358.65477
G1 X261.178 Y139.952 E358.83136
G1 X261.755 Y140.441 E358.85651
G1 X261.783 Y140.468 E358.85781
G1 X262.236 Y141.101 E358.88370
G1 X262.525 Y141.840 E358.91009
G1 X262.621 Y142.607 E358.93580
G1 X262.622 Y235.519 E362.02606
G1 X262.515 Y236.328 E362.05320
G1 X262.195 Y237.100 E362.08100
G1 X261.686 Y237.764 E362.10883
G1 X261.023 Y238.272 E362.13661
G1 X260.251 Y238.592 E362.16440
G1 X259.435 Y238.699 E362.19178
G1 X230.004 Y238.699 E363.17065
G1 X217.324 Y260.662 E364.01415
G1 X173.122 Y260.662 E365.48431
G1 X173.122 Y251.462 E365.79031
G1 X212.094 Y251.462 E367.08652
G1 X215.009 Y246.413 E367.28043
G1 X215.009 Y130.062 E371.15028
G1 X212.094 Y125.013 E371.34419
G1 X177.122 Y125.013 E372.50736
G1 X177.122 Y115.263 E372.83165
G0 F12000 X218.642 Y138.450
G1 F1800 X217.600 Y140.523 E372.90882
G1 X217.600 Y235.402 E376.06450
G1 X217.641 Y235.711 E376.07487
G1 X217.757 Y235.985 E376.08477
G1 X217.938 Y236.219 E376.09461
G1 X218.167 Y236.394 E376.10419
G1 X218.445 Y236.510 E376.11421
G1 X218.747 Y236.549 E376.12434
G1 X256.722 Y236.549 E377.38739
G1 X256.722 Y141.005 E380.56520
G1 X256.634 Y140.342 E380.58744
G1 X256.380 Y139.727 E380.60958
G1 X255.974 Y139.199 E380.63173
G1 X255.446 Y138.794 E380.65386
G1 X254.829 Y138.538 E380.67608
G1 X254.161 Y138.450 E380.69849
G1 X218.642 Y138.450 E381.87986
G0 F12000 X218.888 Y138.850
G1 F1800 X218.000 Y140.617 E381.94563
G1 X218.000 Y235.371 E385.09716
G1 X218.032 Y235.608 E385.10512
G1 X218.104 Y235.778 E385.11126
G1 X218.224 Y235.934 E385.11780
G1 X218.370 Y236.045 E385.12390
G1 X218.548 Y236.119 E385.13031
G1 X218.775 Y236.149 E385.13793
G1 X256.322 Y236.149 E386.38675
G1 X256.322 Y141.036 E389.55022
G1 X256.243 Y140.446 E389.57002
G1 X256.029 Y139.926 E389.58872
G1 X255.689 Y139.484 E389.60727
G1 X255.245 Y139.143 E389.62589
G1 X254.728 Y138.929 E389.64450
G1 X254.131 Y138.850 E389.66453
G1 X218.888 Y138.850 E390.83671
G0 F12000 X219.135 Y139.250
G1 F1800 X218.400 Y140.713 E390.89117
G1 X218.400 Y235.348 E394.03874
G1 X218.420 Y235.498 E394.04378
G1 X218.453 Y235.577 E394.04662
G1 X218.510 Y235.650 E394.04970
G1 X218.570 Y235.696 E394.05222
G1 X218.649 Y235.729 E394.05507
G1 X218.803 Y235.749 E394.06023
G1 X255.922 Y235.749 E395.29481
G1 X255.922 Y141.059 E398.44422
G1 X255.854 Y140.549 E398.46133
G1 X255.681 Y140.130 E398.47641
G1 X255.405 Y139.770 E398.49149
G1 X255.043 Y139.493 E398.50665
G1 X254.620 Y139.317 E398.52189
G1 X254.109 Y139.250 E398.53903
G1 X219.135 Y139.250 E399.70227
G0 F12000 X219.382 Y139.650
G1 F1800 X218.800 Y140.807 E399.74535
G1 X218.800 Y235.316 E402.88873
G1 X218.804 Y235.346 E402.88974
G1 X218.825 Y235.349 E402.89044
G1 X255.522 Y235.349 E404.11099
G1 X255.522 Y141.089 E407.24609
G1 X255.464 Y140.653 E407.26072
G1 X255.331 Y140.331 E407.27231
G1 X255.119 Y140.055 E407.28388
G1 X254.840 Y139.841 E407.29558
G1 X254.519 Y139.708 E407.30714
G1 X254.080 Y139.650 E407.32186
G1 X219.382 Y139.650 E408.47592
G0 F12000 X219.628 Y140.050
G1 F1800 X219.200 Y140.901 E408.50761
G1 X219.200 Y234.949 E411.63566
G1 X255.122 Y234.949 E412.83043
G1 X255.122 Y141.112 E415.95146
G1 X255.075 Y140.761 E415.96324
G1 X254.981 Y140.532 E415.97147
G1 X254.832 Y140.339 E415.97958
G1 X254.642 Y140.193 E415.98755
G1 X254.413 Y140.098 E415.99579
G1 X254.050 Y140.050 E416.00797
G1 X219.628 Y140.050 E417.15285
G0 F12000 X219.875 Y140.450
G1 F1800 X219.600 Y140.997 E417.17322
G1 X219.600 Y234.549 E420.28477
G1 X254.722 Y234.549 E421.45293
G1 X254.722 Y141.143 E424.55963
G1 X254.685 Y140.863 E424.56902
G1 X254.631 Y140.734 E424.57367
G1 X254.549 Y140.626 E424.57818
G1 X254.436 Y140.540 E424.58290
G1 X254.309 Y140.487 E424.58748
G1 X254.028 Y140.450 E424.59691
G1 X219.875 Y140.450 E425.73284
G0 F12000 X220.121 Y140.850
G1 F1800 X220.000 Y141.091 E425.74181
G1 X220.000 Y234.149 E428.83693
G1 X254.322 Y234.149 E429.97849
G1 X254.322 Y141.166 E433.07111
G1 X254.296 Y140.967 E433.07779
G1 X254.283 Y140.937 E433.07888
G1 X254.262 Y140.910 E433.08001
G1 X254.238 Y140.891 E433.08103
G1 X254.204 Y140.877 E433.08226
G1 X253.999 Y140.850 E433.08913
G1 X220.121 Y140.850 E434.21592
G0 F12000 X220.400 Y141.250
G1 F1800 X220.400 Y233.749 E437.29245
G1 X253.922 Y233.749 E438.40740
G1 X253.922 Y141.250 E441.48392
G1 X220.400 Y141.250 E442.59887
G0 F12000 X220.800 Y141.650
G1 F1800 X220.800 Y233.349 E445.64879
G1 X253.522 Y233.349 E446.73713
G1 X253.522 Y141.650 E449.78705
G1 X220.800 Y141.650 E450.87539
G0 F12000 X221.200 Y142.050
G1 F1800 X221.200 Y232.949 E453.89870
G1 X253.122 Y232.949 E454.96043
G1 X253.122 Y142.050 E457.98375
G1 X221.200 Y142.050 E459.04548
G1 F2100 E458.64548
G0 F12000 X113.720 Y136.228
;TYPE:WALL-INNER
G1 F2100 E459.04548
G1 F1800 X113.720 Y203.020 E461.26699
G1 X101.720 Y203.020 E461.66611
G1 X101.720 Y217.258 E462.13967
G1 X99.721 Y221.236 E462.28774
G1 X63.372 Y221.236 E463.49671
G1 X62.804 Y221.195 E463.51565
G1 X62.253 Y221.075 E463.53441
G1 X61.722 Y220.875 E463.55328
G1 X61.219 Y220.598 E463.57238
G1 X56.821 Y217.736 E463.74691
G1 X56.433 Y217.425 E463.76344
G1 X56.129 Y217.061 E463.77922
G1 X55.898 Y216.637 E463.79528
G1 X55.759 Y216.188 E463.81091
G1 X55.708 Y215.684 E463.82776
G1 X55.707 Y122.865 E466.91493
G1 X55.755 Y122.372 E466.93141
G1 X55.890 Y121.928 E466.94684
G1 X56.114 Y121.507 E466.96270
G1 X56.410 Y121.144 E466.97828
G1 X56.779 Y120.842 E466.99414
G1 X57.182 Y120.627 E467.00933
G1 X57.636 Y120.488 E467.02512
G1 X58.132 Y120.438 E467.04170
G1 X101.720 Y120.437 E468.49145
G1 X101.720 Y136.228 E469.01666
G1 X113.720 Y136.228 E469.41578
G1 F2100 E469.01578
G0 F12000 X100.730 Y122.883
G1 F2100 E469.41578
G1 F1800 X100.666 Y122.416 E469.43146
G1 X100.475 Y121.952 E469.44815
G1 X100.165 Y121.550 E469.46503
G1 X99.758 Y121.239 E469.48207
G1 X99.296 Y121.049 E469.49868
G1 X98.833 Y120.987 E469.51422
G1 X60.007 Y120.987 E470.80558
G1 X60.007 Y217.369 E474.01126
G1 X60.085 Y218.074 E474.03485
G1 X60.332 Y218.783 E474.05982
G1 X60.730 Y219.420 E474.08480
G1 X61.260 Y219.952 E474.10978
G1 X61.894 Y220.354 E474.13475
G1 X62.604 Y220.603 E474.15977
G1 X63.317 Y220.685 E474.18364
G1 X99.381 Y220.686 E475.38314
G1 X100.651 Y218.160 E475.47717
G1 X100.730 Y218.010 E475.48281
G1 X100.730 Y122.883 E478.64675
G0 F12000 X100.330 Y122.910
;TYPE:WALL-OUTER
G1 F1800 X100.277 Y122.521 E478.65980
G1 X100.126 Y122.154 E478.67300
G1 X99.880 Y121.836 E478.68638
G1 X99.557 Y121.589 E478.69990
G1 X99.191 Y121.438 E478.71307
G1 X98.806 Y121.387 E478.72599
G1 X60.407 Y121.387 E480.00314
G1 X60.407 Y217.347 E483.19478
G1 X60.478 Y217.985 E483.21613
G1 X60.695 Y218.609 E483.23811
G1 X61.045 Y219.170 E483.26010
G1 X61.512 Y219.638 E483.28209
G1 X62.070 Y219.992 E483.30407
G1 X62.694 Y220.211 E483.32607
G1 X63.340 Y220.285 E483.34769
G1 X99.134 Y220.286 E484.53820
G1 X100.297 Y217.974 E484.62428
G1 X100.330 Y217.911 E484.62665
G1 X100.330 Y122.910 E487.78639
G1 F2100 E487.38639
G0 F12000 X102.120 Y120.037
G1 F2100 E487.78639
G1 F1800 X102.120 Y135.828 E488.31161
G1 X114.120 Y135.828 E488.71073
G1 X114.120 Y203.420 E490.95885
G1 X102.120 Y203.420 E491.35797
G1 X102.120 Y217.352 E491.82135
G1 X99.967 Y221.636 E491.98082
G1 X63.357 Y221.636 E493.19847
G1 X62.746 Y221.592 E493.21884
G1 X62.142 Y221.461 E493.23940
G1 X61.554 Y221.239 E493.26031
G1 X61.013 Y220.940 E493.28086
G1 X56.586 Y218.060 E493.45652
G1 X56.150 Y217.710 E493.47512
G1 X55.798 Y217.289 E493.49337
G1 X55.528 Y216.795 E493.51210
G1 X55.365 Y216.267 E493.53047
G1 X55.308 Y215.704 E493.54930
G1 X55.307 Y122.847 E496.63773
G1 X55.361 Y122.294 E496.65621
G1 X55.518 Y121.774 E496.67428
G1 X55.778 Y121.287 E496.69264
G1 X56.128 Y120.858 E496.71106
G1 X56.555 Y120.508 E496.72942
G1 X57.030 Y120.254 E496.74733
G1 X57.555 Y120.094 E496.76559
G1 X58.112 Y120.038 E496.78421
G1 X102.120 Y120.037 E498.24792
G0 F12000 X101.200 Y120.577
;TYPE:SKIN
G1 F1800 X101.200 Y217.981 E501.48759
G0 F12000 X100.800 Y218.178
G1 F1800 X100.600 Y218.873 E501.50743
G1 X100.200 Y219.669 E501.52743
G1 X99.800 Y220.464 E501.54741
G1 X99.400 Y221.096 E501.56520
G1 X99.000 Y220.826 E501.57419
G1 X98.600 Y221.096 E501.58318
G1 X98.200 Y220.826 E501.59217
G1 X97.800 Y221.096 E501.60116
G1 X97.400 Y220.826 E501.61015
G1 X97.000 Y221.096 E501.61913
G1 X96.600 Y220.826 E501.62812
G1 X96.200 Y221.096 E501.63711
G1 X95.800 Y220.826 E501.64610
G1 X95.400 Y221.096 E501.65509
G1 X95.000 Y220.826 E501.66408
G1 X94.600 Y221.096 E501.67307
G1 X94.200 Y220.826 E501.68205
G1 X93.800 Y221.096 E501.69104
G1 X93.400 Y220.826 E501.70003
G1 X93.000 Y221.096 E501.70902
G1 X92.600 Y220.826 E501.71801
G1 X92.200 Y221.096 E501.72700
G1 X91.800 Y220.826 E501.73599
G1 X91.400 Y221.096 E501.74498
G1 X91.000 Y220.826 E501.75396
G1 X90.600 Y221.096 E501.76295
G1 X90.200 Y220.826 E501.77194
G1 X89.800 Y221.096 E501.78093
G1 X89.400 Y220.826 E501.78992
G1 X89.000 Y221.096 E501.79891
G1 X88.600 Y220.826 E501.80790
G1 X88.200 Y221.096 E501.81689
G1 X87.800 Y220.826 E501.82587
G1 X87.400 Y221.096 E501.83486
G1 X87.000 Y220.826 E501.84385
G1 X86.600 Y221.096 E501.85284
G1 X86.200 Y220.826 E501.86183
G1 X85.800 Y221.096 E501.87082
G1 X85.400 Y220.826 E501.87981
G1 X85.000 Y221.096 E501.88879
G1 X84.600 Y220.826 E501.89778
G1 X84.200 Y221.096 E501.90677
G1 X83.800 Y220.826 E501.91576
G1 X83.400 Y221.096 E501.92475
G1 X83.000 Y220.826 E501.93374
G1 X82.600 Y221.096 E501.94273
G1 X82.200 Y220.826 E501.95172
G1 X81.800 Y221.096 E501.96070
G1 X81.400 Y220.826 E501.96969
G1 X81.000 Y221.096 E501.97868
G1 X80.600 Y220.826 E501.98767
G1 X80.200 Y221.096 E501.99666
G1 X79.800 Y220.826 E502.00565
G1 X79.400 Y221.096 E502.01464
G1 X79.000 Y220.826 E502.02363
G1 X78.600 Y221.096 E502.03261
G1 X78.200 Y220.826 E502.04160
G1 X77.800 Y221.096 E502.05059
G1 X77.400 Y220.826 E502.05958
G1 X77.000 Y221.096 E502.06857
G1 X76.600 Y220.826 E502.07756
G1 X76.200 Y221.096 E502.08655
G1 X75.800 Y220.826 E502.09553
G1 X75.400 Y221.096 E502.10452
G1 X75.000 Y220.826 E502.11351
G1 X74.600 Y221.096 E502.12250
G1 X74.200 Y220.826 E502.13149
G1 X73.800 Y221.096 E502.14048
G1 X73.400 Y220.826 E502.14947
G1 X73.000 Y221.096 E502.15846
G1 X72.600 Y220.826 E502.16744
G1 X72.200 Y221.096 E502.17643
G1 X71.800 Y220.826 E502.18542
G1 X71.400 Y221.096 E502.19441
G1 X71.000 Y220.826 E502.20340
G1 X70.600 Y221.096 E502.21239
G1 X70.200 Y220.826 E502.22138
G1 X69.800 Y221.096 E502.23037
G1 X69.400 Y220.826 E502.23935
G1 X69.000 Y221.096 E502.24834
G1 X68.600 Y220.826 E502.25733
G1 X68.200 Y221.096 E502.26632
G1 X67.800 Y220.826 E502.27531
G1 X67.400 Y221.096 E502.28430
G1 X67.000 Y220.826 E502.29329
G1 X66.600 Y221.096 E502.30227
G1 X66.200 Y220.826 E502.31126
G1 X65.800 Y221.096 E502.32025
G1 X65.400 Y220.826 E502.32924
G1 X65.000 Y221.096 E502.33823
G1 X64.600 Y220.826 E502.34722
G1 X64.200 Y221.096 E502.35621
G1 X63.800 Y220.826 E502.36520
G1 X63.400 Y221.089 E502.37415
G1 X63.000 Y220.790 E502.38312
G1 X62.600 Y221.007 E502.39254
G1 X62.200 Y220.609 E502.40197
G1 X61.800 Y220.739 E502.41166
G1 X61.400 Y220.375 E502.42214
G1 X61.000 Y220.118 E502.43337
G1 X60.600 Y219.793 E502.44892
G1 X60.400 Y219.156 E502.47113
G0 F12000 X60.000 Y219.637
G1 F1800 X60.000 Y218.255 E502.51710
G0 F12000 X59.200 Y219.117
G1 F1800 X59.200 Y120.577 E505.79455
G0 F12000 X58.800 Y120.577
G1 F1800 X58.800 Y218.856 E509.06332
G0 F12000 X58.400 Y218.596
G1 F1800 X58.400 Y120.577 E512.32345
G0 F12000 X58.000 Y120.592
G1 F1800 X58.000 Y218.336 E515.57443
G0 F12000 X57.600 Y218.076
G1 F1800 X57.600 Y120.645 E518.81499
G0 F12000 X57.200 Y120.775
G1 F1800 X57.200 Y217.816 E522.04259
G0 F12000 X56.800 Y217.540
G1 F1800 X56.800 Y121.006 E525.25332
G0 F12000 X56.400 Y121.376
G1 F1800 X56.400 Y217.167 E528.43935
G0 F12000 X56.000 Y216.494
G1 F1800 X56.000 Y122.045 E531.58073
G1 F2100 E531.18073
G0 F12000 X59.600 Y120.577
G1 F2100 E531.58073
G1 F1800 X59.600 Y219.377 E534.86683
G1 F2100 E534.46683
G0 F12000 X101.600 Y202.880
G1 F2100 E534.86683
G1 F1800 X101.600 Y136.368 E537.07903
G0 F12000 X102.000 Y136.368
G1 F1800 X102.000 Y202.880 E539.29123
G0 F12000 X102.400 Y202.880
G1 F1800 X102.400 Y136.368 E541.50343
G0 F12000 X102.800 Y136.368
G1 F1800 X102.800 Y202.880 E543.71563
G0 F12000 X103.200 Y202.880
G1 F1800 X103.200 Y136.368 E545.92782
G0 F12000 X103.600 Y136.368
G1 F1800 X103.600 Y202.880 E548.14002
G0 F12000 X104.000 Y202.880
G1 F1800 X104.000 Y136.368 E550.35222
G0 F12000 X104.400 Y136.368
G1 F1800 X104.400 Y202.880 E552.56442
G0 F12000 X104.800 Y202.880
G1 F1800 X104.800 Y136.368 E554.77662
G0 F12000 X105.200 Y136.368
G1 F1800 X105.200 Y202.880 E556.98881
G0 F12000 X105.600 Y202.880
G1 F1800 X105.600 Y136.368 E559.20101
G0 F12000 X106.000 Y136.368
G1 F1800 X106.000 Y202.880 E561.41321
G0 F12000 X106.400 Y202.880
G1 F1800 X106.400 Y136.368 E563.62541
G0 F12000 X106.800 Y136.368
G1 F1800 X106.800 Y202.880 E565.83761
G0 F12000 X107.200 Y202.880
G1 F1800 X107.200 Y136.368 E568.04981
G0 F12000 X107.600 Y136.368
G1 F1800 X107.600 Y202.880 E570.26200
G0 F12000 X108.000 Y202.880
G1 F1800 X108.000 Y136.368 E572.47420
G0 F12000 X108.400 Y136.368
G1 F1800 X108.400 Y202.880 E574.68640
G0 F12000 X108.800 Y202.880
G1 F1800 X108.800 Y136.368 E576.89860
G0 F12000 X109.200 Y136.368
G1 F1800 X109.200 Y202.880 E579.11080
G0 F12000 X109.600 Y202.880
G1 F1800 X109.600 Y136.368 E581.32299
G0 F12000 X110.000 Y136.368
G1 F1800 X110.000 Y202.880 E583.53519
G0 F12000 X110.400 Y202.880
G1 F1800 X110.400 Y136.368 E585.74739
G0 F12000 X110.800 Y136.368
G1 F1800 X110.800 Y202.880 E587.95959
G0 F12000 X111.200 Y202.880
G1 F1800 X111.200 Y136.368 E590.17179
G0 F12000 X111.600 Y136.368
G1 F1800 X111.600 Y202.880 E592.38398
G0 F12000 X112.000 Y202.880
G1 F1800 X112.000 Y136.368 E594.59618
G0 F12000 X112.400 Y136.368
G1 F1800 X112.400 Y202.880 E596.80838
G0 F12000 X112.800 Y202.880
G1 F1800 X112.800 Y136.368 E599.02058
G0 F12000 X113.200 Y136.368
G1 F1800 X113.200 Y202.880 E601.23278
G1 F2100 E600.83278
G0 F12000 X100.800 Y122.372
G1 F2100 E601.23278
G1 F1800 X100.800 Y120.577 E601.29248
G0 F12000 X100.400 Y120.577
G1 F1800 X100.400 Y121.625 E601.32734
G0 F12000 X100.000 Y121.247
G1 F1800 X99.800 Y120.577 E601.34960
G1 X99.400 Y120.958 E601.36439
G1 X99.000 Y120.577 E601.37491
G1 X98.600 Y120.847 E601.38390
G1 X98.200 Y120.577 E601.39289
G1 X97.800 Y120.847 E601.40188
G1 X97.400 Y120.577 E601.41087
G1 X97.000 Y120.847 E601.41986
G1 X96.600 Y120.577 E601.42884
G1 X96.200 Y120.847 E601.43783
G1 X95.800 Y120.577 E601.44682
G1 X95.400 Y120.847 E601.45581
G1 X95.000 Y120.577 E601.46480
G1 X94.600 Y120.847 E601.47379
G1 X94.200 Y120.577 E601.48278
G1 X93.800 Y120.847 E601.49177
G1 X93.400 Y120.577 E601.50075
G1 X93.000 Y120.847 E601.50974
G1 X92.600 Y120.577 E601.51873
G1 X92.200 Y120.847 E601.52772
G1 X91.800 Y120.577 E601.53671
G1 X91.400 Y120.847 E601.54570
G1 X91.000 Y120.577 E601.55469
G1 X90.600 Y120.847 E601.56368
G1 X90.200 Y120.577 E601.57266
G1 X89.800 Y120.847 E601.58165
G1 X89.400 Y120.577 E601.59064
G1 X89.000 Y120.847 E601.59963
G1 X88.600 Y120.577 E601.60862
G1 X88.200 Y120.847 E601.61761
G1 X87.800 Y120.577 E601.62660
G1 X87.400 Y120.847 E601.63558
G1 X87.000 Y120.577 E601.64457
G1 X86.600 Y120.847 E601.65356
G1 X86.200 Y120.577 E601.66255
G1 X85.800 Y120.847 E601.67154
G1 X85.400 Y120.577 E601.68053
G1 X85.000 Y120.847 E601.68952
G1 X84.600 Y120.577 E601.69851
G1 X84.200 Y120.847 E601.70749
G1 X83.800 Y120.577 E601.71648
G1 X83.400 Y120.847 E601.72547
G1 X83.000 Y120.577 E601.73446
G1 X82.600 Y120.847 E601.74345
G1 X82.200 Y120.577 E601.75244
G1 X81.800 Y120.847 E601.76143
G1 X81.400 Y120.577 E601.77042
G1 X81.000 Y120.847 E601.77940
G1 X80.600 Y120.577 E601.78839
G1 X80.200 Y120.847 E601.79738
G1 X79.800 Y120.577 E601.80637
G1 X79.400 Y120.847 E601.81536
G1 X79.000 Y120.577 E601.82435
G1 X78.600 Y120.847 E601.83334
G1 X78.200 Y120.577 E601.84232
G1 X77.800 Y120.847 E601.85131
G1 X77.400 Y120.577 E601.86030
G1 X77.000 Y120.847 E601.86929
G1 X76.600 Y120.577 E601.87828
G1 X76.200 Y120.847 E601.88727
G1 X75.800 Y120.577 E601.89626
G1 X75.400 Y120.847 E601.90525
G1 X75.000 Y120.577 E601.91423
G1 X74.600 Y120.847 E601.92322
G1 X74.200 Y120.577 E601.93221
G1 X73.800 Y120.847 E601.94120
G1 X73.400 Y120.577 E601.95019
G1 X73.000 Y120.847 E601.95918
G1 X72.600 Y120.577 E601.96817
G1 X72.200 Y120.847 E601.97716
G1 X71.800 Y120.577 E601.98614
G1 X71.400 Y120.847 E601.99513
G1 X71.000 Y120.577 E602.00412
G1 X70.600 Y120.847 E602.01311
G1 X70.200 Y120.577 E602.02210
G1 X69.800 Y120.847 E602.03109
G1 X69.400 Y120.577 E602.04008
G1 X69.000 Y120.847 E602.04906
G1 X68.600 Y120.577 E602.05805
G1 X68.200 Y120.847 E602.06704
G1 X67.800 Y120.577 E602.07603
G1 X67.400 Y120.847 E602.08502
G1 X67.000 Y120.577 E602.09401
G1 X66.600 Y120.847 E602.10300
G1 X66.200 Y120.577 E602.11199
G1 X65.800 Y120.847 E602.12097
G1 X65.400 Y120.577 E602.12996
G1 X65.000 Y120.847 E602.13895
G1 X64.600 Y120.577 E602.14794
G1 X64.200 Y120.847 E602.15693
G1 X63.800 Y120.577 E602.16592
G1 X63.400 Y120.847 E602.17491
G1 X63.000 Y120.577 E602.18390
G1 X62.600 Y120.847 E602.19288
G1 X62.200 Y120.577 E602.20187
G1 X61.800 Y120.847 E602.21086
G1 X61.400 Y120.577 E602.21985
G1 X61.000 Y120.847 E602.22884
G1 X60.600 Y120.577 E602.23783
G1 X60.200 Y120.847 E602.24682
G1 X60.000 Y120.577 E602.25799
G1 F2100 E601.85799
G0 F12000 X177.922 Y124.213
;TYPE:WALL-INNER
G1 F2100 E602.25799
G1 F1800 X177.922 Y116.063 E602.52906
G1 X216.862 Y116.063 E603.82421
G1 X229.009 Y137.100 E604.63217
G1 X254.145 Y137.100 E605.46820
G1 X254.906 Y137.173 E605.49362
G1 X255.629 Y137.386 E605.51869
G1 X256.323 Y137.747 E605.54471
G1 X260.702 Y140.597 E605.71849
G1 X261.182 Y141.003 E605.73940
G1 X261.527 Y141.484 E605.75908
G1 X261.745 Y142.042 E605.77901
G1 X261.821 Y142.653 E605.79949
G1 X261.822 Y235.465 E608.88643
G1 X261.735 Y236.120 E608.90840
G1 X261.496 Y236.696 E608.92915
G1 X261.115 Y237.193 E608.94998
G1 X260.620 Y237.573 E608.97073
G1 X260.043 Y237.812 E608.99150
G1 X259.382 Y237.899 E609.01368
G1 X229.543 Y237.899 E610.00613
G1 X216.862 Y259.862 E610.84964
G1 X173.922 Y259.862 E612.27783
G1 X173.922 Y252.262 E612.53060
G1 X212.555 Y252.262 E613.81554
G1 X215.688 Y246.836 E614.02394
G1 X215.809 Y246.627 E614.03197
G1 X215.809 Y129.848 E617.91605
G1 X212.768 Y124.582 E618.11831
G1 X212.555 Y124.213 E618.13248
G1 X177.922 Y124.213 E619.28438
G1 F2100 E618.88438
G0 F12000 X216.875 Y140.184
G1 F2100 E619.28438
G1 F1800 X216.800 Y140.333 E619.28993
G1 X216.800 Y235.453 E622.45363
G1 X216.863 Y235.925 E622.46947
G1 X217.061 Y236.391 E622.48631
G1 X217.369 Y236.791 E622.50310
G1 X217.765 Y237.094 E622.51968
G1 X218.233 Y237.289 E622.53655
G1 X218.697 Y237.349 E622.55211
G1 X257.522 Y237.349 E623.84343
G1 X257.522 Y140.954 E627.04954
G1 X257.412 Y140.132 E627.07713
G1 X257.078 Y139.323 E627.10624
G1 X256.545 Y138.628 E627.13537
G1 X255.850 Y138.095 E627.16450
G1 X255.041 Y137.760 E627.19362
G1 X254.211 Y137.650 E627.22147
G1 X218.148 Y137.650 E628.42093
G1 X216.875 Y140.184 E628.51525
G0 F12000 X217.200 Y140.428
;TYPE:WALL-OUTER
G1 F1800 X217.200 Y235.426 E631.67489
G1 X217.252 Y235.818 E631.68805
G1 X217.409 Y236.188 E631.70142
G1 X217.654 Y236.505 E631.71474
G1 X217.967 Y236.745 E631.72786
G1 X218.338 Y236.899 E631.74122
G1 X218.723 Y236.949 E631.75413
G1 X257.122 Y236.949 E633.03129
G1 X257.122 Y140.981 E636.22320
G1 X257.023 Y140.237 E636.24816
G1 X256.729 Y139.524 E636.27381
G1 X256.260 Y138.913 E636.29943
G1 X255.648 Y138.444 E636.32508
G1 X254.936 Y138.149 E636.35071
G1 X254.185 Y138.050 E636.37590
G1 X218.395 Y138.050 E637.56628
G1 X217.200 Y140.428 E637.65480
G1 F2100 E637.25480
G0 F12000 X215.409 Y129.955
G1 F2100 E637.65480
G1 F1800 X212.324 Y124.613 E637.85998
G1 X177.522 Y124.613 E639.01750
G1 X177.522 Y115.663 E639.31517
G1 X217.094 Y115.663 E640.63134
G1 X229.240 Y136.700 E641.43929
G1 X254.163 Y136.700 E642.26823
G1 X254.984 Y136.779 E642.29566
G1 X255.780 Y137.013 E642.32326
G1 X256.518 Y137.397 E642.35093
G1 X260.939 Y140.275 E642.52638
G1 X261.479 Y140.731 E642.54989
G1 X261.882 Y141.294 E642.57292
G1 X262.135 Y141.940 E642.59599
G1 X262.221 Y142.628 E642.61905
G1 X262.222 Y235.495 E645.70782
G1 X262.126 Y236.221 E645.73218
G1 X261.845 Y236.898 E645.75656
G1 X261.400 Y237.478 E645.78087
G1 X260.821 Y237.922 E645.80514
G1 X260.144 Y238.203 E645.82952
G1 X259.411 Y238.299 E645.85411
G1 X229.774 Y238.299 E646.83984
G1 X217.094 Y260.262 E647.68333
G1 X173.522 Y260.262 E649.13254
G1 X173.522 Y251.862 E649.41193
G1 X212.324 Y251.862 E650.70249
G1 X215.409 Y246.520 E650.90766
G1 X215.409 Y129.955 E654.78463
G0 F12000 X215.600 Y129.205
;TYPE:SKIN
G1 F1800 X215.600 Y116.203 E655.21708
G0 F12000 X215.200 Y116.203
G1 F1800 X215.200 Y128.513 E655.62651
G0 F12000 X214.800 Y127.820
G1 F1800 X214.800 Y116.203 E656.01290
G0 F12000 X214.400 Y116.203
G1 F1800 X214.400 Y127.128 E656.37626
G0 F12000 X214.000 Y126.436
G1 F1800 X214.000 Y116.203 E656.71661
G0 F12000 X213.600 Y116.203
G1 F1800 X213.600 Y125.743 E657.03392
G0 F12000 X213.200 Y125.051
G1 F1800 X213.200 Y116.203 E657.32820
G0 F12000 X212.800 Y116.203
G1 F1800 X212.800 Y124.358 E657.59944
G0 F12000 X212.400 Y124.073
G1 F1800 X212.400 Y116.203 E657.86119
G0 F12000 X212.000 Y116.203
G1 F1800 X212.000 Y124.073 E658.12295
G0 F12000 X211.600 Y124.073
G1 F1800 X211.600 Y116.203 E658.38471
G0 F12000 X211.200 Y116.203
G1 F1800 X211.200 Y124.073 E658.64647
G0 F12000 X210.800 Y124.073
G1 F1800 X210.800 Y116.203 E658.90822
G0 F12000 X210.400 Y116.203
G1 F1800 X210.400 Y124.073 E659.16998
G0 F12000 X210.000 Y124.073
G1 F1800 X210.000 Y116.203 E659.43174
G0 F12000 X209.600 Y116.203
G1 F1800 X209.600 Y124.073 E659.69350
G0 F12000 X209.200 Y124.073
G1 F1800 X209.200 Y116.203 E659.95525
G0 F12000 X208.800 Y116.203
G1 F1800 X208.800 Y124.073 E660.21701
G0 F12000 X208.400 Y124.073
G1 F1800 X208.400 Y116.203 E660.47877
G0 F12000 X208.000 Y116.203
G1 F1800 X208.000 Y124.073 E660.74052
G0 F12000 X207.600 Y124.073
G1 F1800 X207.600 Y116.203 E661.00228
G0 F12000 X207.200 Y116.203
G1 F1800 X207.200 Y124.073 E661.26404
G0 F12000 X206.800 Y124.073
G1 F1800 X206.800 Y116.203 E661.52580
G0 F12000 X206.400 Y116.203
G1 F1800 X206.400 Y124.073 E661.78755
G0 F12000 X206.000 Y124.073
G1 F1800 X206.000 Y116.203 E662.04931
G0 F12000 X205.600 Y116.203
G1 F1800 X205.600 Y124.073 E662.31107
G0 F12000 X205.200 Y124.073
G1 F1800 X205.200 Y116.203 E662.57283
G0 F12000 X204.800 Y116.203
G1 F1800 X204.800 Y124.073 E662.83458
G0 F12000 X204.400 Y124.073
G1 F1800 X204.400 Y116.203 E663.09634
G0 F12000 X204.000 Y116.203
G1 F1800 X204.000 Y124.073 E663.35810
G0 F12000 X203.600 Y124.073
G1 F1800 X203.600 Y116.203 E663.61985
G0 F12000 X203.200 Y116.203
G1 F1800 X203.200 Y124.073 E663.88161
G0 F12000 X202.800 Y124.073
G1 F1800 X202.800 Y116.203 E664.14337
G0 F12000 X202.400 Y116.203
G1 F1800 X202.400 Y124.073 E664.40513
G0 F12000 X202.000 Y124.073
G1 F1800 X202.000 Y116.203 E664.66688
G0 F12000 X201.600 Y116.203
G1 F1800 X201.600 Y124.073 E664.92864
G0 F12000 X201.200 Y124.073
G1 F1800 X201.200 Y116.203 E665.19040
G0 F12000 X200.800 Y116.203
G1 F1800 X200.800 Y124.073 E665.45216
G0 F12000 X200.400 Y124.073
G1 F1800 X200.400 Y116.203 E665.71391
G0 F12000 X200.000 Y116.203
G1 F1800 X200.000 Y124.073 E665.97567
G1 F2100 E665.57567
G0 F12000 X217.200 Y116.927
G1 F2100 E665.97567
G1 F1800 X217.200 Y139.227 E666.71737
G0 F12000 X217.600 Y138.430
G1 F1800 X217.600 Y117.620 E667.40951
G0 F12000 X218.000 Y118.313
G1 F1800 X218.000 Y137.634 E668.05213
G0 F12000 X218.400 Y137.510
G1 F1800 X218.400 Y119.006 E668.66758
G0 F12000 X218.800 Y119.698
G1 F1800 X218.800 Y137.510 E669.26001
G0 F12000 X219.200 Y137.510
G1 F1800 X219.200 Y120.391 E669.82939
G0 F12000 X219.600 Y121.084
G1 F1800 X219.600 Y137.510 E670.37572
G0 F12000 X220.000 Y137.510
G1 F1800 X220.000 Y121.777 E670.89900
G0 F12000 X220.400 Y122.469
G1 F1800 X220.400 Y137.510 E671.39927
G0 F12000 X220.800 Y137.510
G1 F1800 X220.800 Y123.162 E671.87648
G0 F12000 X221.200 Y123.855
G1 F1800 X221.200 Y137.510 E672.33065
G0 F12000 X221.600 Y137.510
G1 F1800 X221.600 Y124.548 E672.76177
G0 F12000 X222.000 Y125.240
G1 F1800 X222.000 Y137.510 E673.16987
G0 F12000 X222.400 Y137.510
G1 F1800 X222.400 Y125.933 E673.55492
G0 F12000 X222.800 Y126.626
G1 F1800 X222.800 Y137.510 E673.91693
G0 F12000 X223.200 Y137.510
G1 F1800 X223.200 Y127.319 E674.25588
G0 F12000 X223.600 Y128.011
G1 F1800 X223.600 Y137.510 E674.57182
G0 F12000 X224.000 Y137.510
G1 F1800 X224.000 Y128.704 E674.86471
G0 F12000 X224.400 Y129.397
G1 F1800 X224.400 Y137.510 E675.13455
G0 F12000 X224.800 Y137.510
G1 F1800 X224.800 Y130.090 E675.38134
G0 F12000 X225.200 Y130.782
G1 F1800 X225.200 Y137.510 E675.60511
G0 F12000 X225.600 Y137.510
G1 F1800 X225.600 Y131.475 E675.80584
G0 F12000 X226.000 Y132.168
G1 F1800 X226.000 Y137.510 E675.98351
G0 F12000 X226.400 Y137.510
G1 F1800 X226.400 Y132.861 E676.13814
G0 F12000 X226.800 Y133.553
G1 F1800 X226.800 Y137.510 E676.26975
G0 F12000 X227.200 Y137.510
G1 F1800 X227.200 Y134.246 E676.37831
G0 F12000 X227.600 Y134.939
G1 F1800 X227.600 Y137.510 E676.46382
G0 F12000 X228.000 Y137.510
G1 F1800 X228.000 Y135.632 E676.52628
G0 F12000 X228.400 Y136.324
G1 F1800 X228.400 Y137.510 E676.56573
G0 F12000 X228.800 Y137.510
G1 F1800 X229.000 Y137.128 E676.58211
G1 X229.400 Y137.510 E676.59108
G1 X229.800 Y137.240 E676.60007
G1 X230.200 Y137.510 E676.60906
G1 X230.600 Y137.240 E676.61805
G1 X231.000 Y137.510 E676.62704
G1 X231.400 Y137.240 E676.63603
G1 X231.800 Y137.510 E676.64502
G1 X232.200 Y137.240 E676.65400
G1 X232.600 Y137.510 E676.66299
G1 X233.000 Y137.240 E676.67198
G1 X233.400 Y137.510 E676.68097
G1 X233.800 Y137.240 E676.68996
G1 X234.200 Y137.510 E676.69895
G1 X234.600 Y137.240 E676.70794
G1 X235.000 Y137.510 E676.71692
G1 X235.400 Y137.240 E676.72591
G1 X235.800 Y137.510 E676.73490
G1 X236.200 Y137.240 E676.74389
G1 X236.600 Y137.510 E676.75288
G1 X237.000 Y137.240 E676.76187
G1 X237.400 Y137.510 E676.77086
G1 X237.800 Y137.240 E676.77985
G1 X238.200 Y137.510 E676.78883
G1 X238.600 Y137.240 E676.79782
G1 X239.000 Y137.510 E676.80681
G1 X239.400 Y137.240 E676.81580
G1 X239.800 Y137.510 E676.82479
G1 X240.200 Y137.240 E676.83378
G1 X240.600 Y137.510 E676.84277
G1 X241.000 Y137.240 E676.85176
G1 X241.400 Y137.510 E676.86074
G1 X241.800 Y137.240 E676.86973
G1 X242.200 Y137.510 E676.87872
G1 X242.600 Y137.240 E676.88771
G1 X243.000 Y137.510 E676.89670
G1 X243.400 Y137.240 E676.90569
G1 X243.800 Y137.510 E676.91468
G1 X244.200 Y137.240 E676.92366
G1 X244.600 Y137.510 E676.93265
G1 X245.000 Y137.240 E676.94164
G1 X245.400 Y137.510 E676.95063
G1 X245.800 Y137.240 E676.95962
G1 X246.200 Y137.510 E676.96861
G1 X246.600 Y137.240 E676.97760
G1 X247.000 Y137.510 E676.98659
G1 X247.400 Y137.240 E676.99557
G1 X247.800 Y137.510 E677.00456
G1 X248.200 Y137.240 E677.01355
G1 X248.600 Y137.510 E677.02254
G1 X249.000 Y137.240 E677.03153
G1 X249.400 Y137.510 E677.04052
G1 X249.800 Y137.240 E677.04951
G1 X250.200 Y137.510 E677.05850
G1 X250.600 Y137.240 E677.06748
G1 X251.000 Y137.510 E677.07647
G1 X251.400 Y137.240 E677.08546
G1 X251.800 Y137.510 E677.09445
G1 X252.200 Y137.240 E677.10344
G1 X252.600 Y137.510 E677.11243
G1 X253.000 Y137.240 E677.12142
G1 X253.400 Y137.510 E677.13040
G1 X253.800 Y137.240 E677.13939
G1 X254.200 Y137.521 E677.14838
G1 X254.600 Y137.285 E677.15726
G1 X255.000 Y137.629 E677.16665
G1 X255.400 Y137.467 E677.17551
G1 X255.800 Y137.788 E677.18583
G1 X256.200 Y137.999 E677.19568
G1 X256.600 Y138.282 E677.20815
G1 X257.000 Y138.608 E677.22493
G1 X257.200 Y139.253 E677.24739
G0 F12000 X257.600 Y138.746
G1 F1800 X257.600 Y140.477 E677.30496
G1 F2100 E676.90496
G0 F12000 X259.600 Y140.048
G1 F2100 E677.30496
G1 F1800 X259.600 Y237.730 E680.55388
G0 F12000 X259.200 Y237.759
G1 F1800 X259.200 Y139.788 E683.81241
G0 F12000 X258.800 Y139.527
G1 F1800 X258.800 Y237.759 E687.07961
G0 F12000 X258.400 Y237.759
G1 F1800 X258.400 Y139.267 E690.35547
G0 F12000 X258.000 Y139.007
G1 F1800 X258.000 Y237.759 E693.63998
G0 F12000 X257.600 Y237.759
G1 F1800 X257.400 Y237.489 E693.64895
G1 X257.000 Y237.759 E693.65793
G1 X256.600 Y237.489 E693.66692
G1 X256.200 Y237.759 E693.67591
G1 X255.800 Y237.489 E693.68490
G1 X255.400 Y237.759 E693.69389
G1 X255.000 Y237.489 E693.70288
G1 X254.600 Y237.759 E693.71187
G1 X254.200 Y237.489 E693.72085
G1 X253.800 Y237.759 E693.72984
G1 X253.400 Y237.489 E693.73883
G1 X253.000 Y237.759 E693.74782
G1 X252.600 Y237.489 E693.75681
G1 X252.200 Y237.759 E693.76580
G1 X251.800 Y237.489 E693.77479
G1 X251.400 Y237.759 E693.78378
G1 X251.000 Y237.489 E693.79276
G1 X250.600 Y237.759 E693.80175
G1 X250.200 Y237.489 E693.81074
G1 X249.800 Y237.759 E693.81973
G1 X249.400 Y237.489 E693.82872
G1 X249.000 Y237.759 E693.83771
G1 X248.600 Y237.489 E693.84670
G1 X248.200 Y237.759 E693.85569
G1 X247.800 Y237.489 E693.86467
G1 X247.400 Y237.759 E693.87366
G1 X247.000 Y237.489 E693.88265
G1 X246.600 Y237.759 E693.89164
G1 X246.200 Y237.489 E693.90063
G1 X245.800 Y237.759 E693.90962
G1 X245.400 Y237.489 E693.91861
G1 X245.000 Y237.759 E693.92759
G1 X244.600 Y237.489 E693.93658
G1 X244.200 Y237.759 E693.94557
G1 X243.800 Y237.489 E693.95456
G1 X243.400 Y237.759 E693.96355
G1 X243.000 Y237.489 E693.97254
G1 X242.600 Y237.759 E693.98153
G1 X242.200 Y237.489 E693.99052
G1 X241.800 Y237.759 E693.99950
G1 X241.400 Y237.489 E694.00849
G1 X241.000 Y237.759 E694.01748
G1 X240.600 Y237.489 E694.02647
G1 X240.200 Y237.759 E694.03546
G1 X239.800 Y237.489 E694.04445
G1 X239.400 Y237.759 E694.05344
G1 X239.000 Y237.489 E694.06243
G1 X238.600 Y237.759 E694.07141
G1 X238.200 Y237.489 E694.08040
G1 X237.800 Y237.759 E694.08939
G1 X237.400 Y237.489 E694.09838
G1 X237.000 Y237.759 E694.10737
G1 X236.600 Y237.489 E694.11636
G1 X236.200 Y237.759 E694.12535
G1 X235.800 Y237.489 E694.13434
G1 X235.400 Y237.759 E694.14332
G1 X235.000 Y237.489 E694.15231
G1 X234.600 Y237.759 E694.16130
G1 X234.200 Y237.489 E694.17029
G1 X233.800 Y237.759 E694.17928
G1 X233.400 Y237.489 E694.18827
G1 X233.000 Y237.759 E694.19726
G1 X232.600 Y237.489 E694.20624
G1 X232.200 Y237.759 E694.21523
G1 X231.800 Y237.489 E694.22422
G1 X231.400 Y237.759 E694.23321
G1 X231.000 Y237.489 E694.24220
G1 X230.600 Y237.759 E694.25119
G1 X230.200 Y237.489 E694.26018
G1 X229.800 Y237.759 E694.26917
G1 X229.400 Y237.489 E694.27815
G1 X229.200 Y238.215 E694.30320
G0 F12000 X228.800 Y238.908
G1 F1800 X228.800 Y237.489 E694.35040
G0 F12000 X228.400 Y237.489
G1 F1800 X228.400 Y239.601 E694.42064
G0 F12000 X228.000 Y240.293
G1 F1800 X228.000 Y237.489 E694.51390
G0 F12000 X227.600 Y237.489
G1 F1800 X227.600 Y240.986 E694.63021
G0 F12000 X227.200 Y241.679
G1 F1800 X227.200 Y237.489 E694.76957
G0 F12000 X226.800 Y237.489
G1 F1800 X226.800 Y242.372 E694.93198
G0 F12000 X226.400 Y243.064
G1 F1800 X226.400 Y237.489 E695.11741
G0 F12000 X226.000 Y237.489
G1 F1800 X226.000 Y243.757 E695.32588
G0 F12000 X225.600 Y244.450
G1 F1800 X225.600 Y237.489 E695.55741
G0 F12000 X225.200 Y237.489
G1 F1800 X225.200 Y245.143 E695.81198
G0 F12000 X224.800 Y245.836
G1 F1800 X224.800 Y237.489 E696.08960
G0 F12000 X224.400 Y237.489
G1 F1800 X224.400 Y246.528 E696.39024
G0 F12000 X224.000 Y247.221
G1 F1800 X224.000 Y237.489 E696.71393
G0 F12000 X223.600 Y237.489
G1 F1800 X223.600 Y247.914 E697.06067
G0 F12000 X223.200 Y248.607
G1 F1800 X223.200 Y237.489 E697.43045
G0 F12000 X222.800 Y237.489
G1 F1800 X222.800 Y249.300 E697.82329
G0 F12000 X222.400 Y249.992
G1 F1800 X222.400 Y237.489 E698.23914
G0 F12000 X222.000 Y237.489
G1 F1800 X222.000 Y250.685 E698.67804
G0 F12000 X221.600 Y251.378
G1 F1800 X221.600 Y237.489 E699.13999
G0 F12000 X221.200 Y237.489
G1 F1800 X221.200 Y252.071 E699.62499
G0 F12000 X220.800 Y252.763
G1 F1800 X220.800 Y237.489 E700.13300
G0 F12000 X220.400 Y237.489
G1 F1800 X220.400 Y253.456 E700.66407
G0 F12000 X220.000 Y254.149
G1 F1800 X220.000 Y237.489 E701.21818
G0 F12000 X219.600 Y237.489
G1 F1800 X219.600 Y254.842 E701.79535
G0 F12000 X219.200 Y255.535
G1 F1800 X219.200 Y237.489 E702.39556
G0 F12000 X218.800 Y237.489
G1 F1800 X218.800 Y256.227 E703.01879
G0 F12000 X218.400 Y256.920
G1 F1800 X218.400 Y237.452 E703.66629
G0 F12000 X218.000 Y237.345
G1 F1800 X218.000 Y257.613 E704.34041
G0 F12000 X217.600 Y258.306
G1 F1800 X217.600 Y237.144 E705.04426
G0 F12000 X217.200 Y236.801
G1 F1800 X217.200 Y258.999 E705.78257
G0 F12000 X216.800 Y259.691
G1 F1800 X216.800 Y236.137 E706.56598
G1 F2100 E706.16598
G0 F12000 X215.600 Y247.269
G1 F2100 E706.56598
G1 F1800 X215.600 Y259.722 E706.98017
G0 F12000 X215.200 Y259.722
G1 F1800 X215.200 Y247.961 E707.37134
G0 F12000 X214.800 Y248.654
G1 F1800 X214.800 Y259.722 E707.73946
G0 F12000 X214.400 Y259.722
G1 F1800 X214.400 Y249.346 E708.08457
G0 F12000 X214.000 Y250.038
G1 F1800 X214.000 Y259.722 E708.40666
G0 F12000 X213.600 Y259.722
G1 F1800 X213.600 Y250.731 E708.70570
G0 F12000 X213.200 Y251.423
G1 F1800 X213.200 Y259.722 E708.98173
G0 F12000 X212.800 Y259.722
G1 F1800 X212.800 Y252.116 E709.23471
G0 F12000 X212.400 Y252.402
G1 F1800 X212.400 Y259.722 E709.47817
G0 F12000 X212.000 Y259.722
G1 F1800 X212.000 Y252.402 E709.72163
G0 F12000 X211.600 Y252.402
G1 F1800 X211.600 Y259.722 E709.96510
G0 F12000 X211.200 Y259.722
G1 F1800 X211.200 Y252.402 E710.20856
G0 F12000 X210.800 Y252.402
G1 F1800 X210.800 Y259.722 E710.45203
G0 F12000 X210.400 Y259.722
G1 F1800 X210.400 Y252.402 E710.69549
G0 F12000 X210.000 Y252.402
G1 F1800 X210.000 Y259.722 E710.93896
G0 F12000 X209.600 Y259.722
G1 F1800 X209.600 Y252.402 E711.18242
G0 F12000 X209.200 Y252.402
G1 F1800 X209.200 Y259.722 E711.42588
G0 F12000 X208.800 Y259.722
G1 F1800 X208.800 Y252.402 E711.66935
G0 F12000 X208.400 Y252.402
G1 F1800 X208.400 Y259.722 E711.91281
G0 F12000 X208.000 Y259.722
G1 F1800 X208.000 Y252.402 E712.15628
G0 F12000 X207.600 Y252.402
G1 F1800 X207.600 Y259.722 E712.39974
G0 F12000 X207.200 Y259.722
G1 F1800 X207.200 Y252.402 E712.64320
G0 F12000 X206.800 Y252.402
G1 F1800 X206.800 Y259.722 E712.88667
G0 F12000 X206.400 Y259.722
G1 F1800 X206.400 Y252.402 E713.13013
G0 F12000 X206.000 Y252.402
G1 F1800 X206.000 Y259.722 E713.37360
G0 F12000 X205.600 Y259.722
G1 F1800 X205.600 Y252.402 E713.61706
G0 F12000 X205.200 Y252.402
G1 F1800 X205.200 Y259.722 E713.86053
G0 F12000 X204.800 Y259.722
G1 F1800 X204.800 Y252.402 E714.10399
G0 F12000 X204.400 Y252.402
G1 F1800 X204.400 Y259.722 E714.34745
G0 F12000 X204.000 Y259.722
G1 F1800 X204.000 Y252.402 E714.59092
G0 F12000 X203.600 Y252.402
G1 F1800 X203.600 Y259.722 E714.83438
G0 F12000 X203.200 Y259.722
G1 F1800 X203.200 Y252.402 E715.07785
G0 F12000 X202.800 Y252.402
G1 F1800 X202.800 Y259.722 E715.32131
G0 F12000 X202.400 Y259.722
G1 F1800 X202.400 Y252.402 E715.56478
G0 F12000 X202.000 Y252.402
G1 F1800 X202.000 Y259.722 E715.80824
G0 F12000 X201.600 Y259.722
G1 F1800 X201.600 Y252.402 E716.05170
G0 F12000 X201.200 Y252.402
G1 F1800 X201.200 Y259.722 E716.29517
G0 F12000 X200.800 Y259.722
G1 F1800 X200.800 Y252.402 E716.53863
G0 F12000 X200.400 Y252.402
G1 F1800 X200.400 Y259.722 E716.78210
G0 F12000 X200.000 Y259.722
G1 F1800 X200.000 Y252.402 E717.02556
G1 F2100 E716.62556
G0 F12000 X216.000 Y259.722
G1 F2100 E717.02556
G1 F1800 X216.000 Y116.203 E721.79902
G0 F12000 X216.400 Y116.203
G1 F1800 X216.400 Y259.722 E726.57248
G1 F2100 E726.17248
G0 F12000 X199.600 Y259.722
G1 F2100 E726.57248
G1 F1800 X199.600 Y252.402 E726.81595
G0 F12000 X199.200 Y252.402
G1 F1800 X199.200 Y259.722 E727.05941
G0 F12000 X198.800 Y259.722
G1 F1800 X198.800 Y252.402 E727.30288
G0 F12000 X198.400 Y252.402
G1 F1800 X198.400 Y259.722 E727.54634
G0 F12000 X198.000 Y259.722
G1 F1800 X198.000 Y252.402 E727.78980
G0 F12000 X197.600 Y252.402
G1 F1800 X197.600 Y259.722 E728.03327
G0 F12000 X197.200 Y259.722
G1 F1800 X197.200 Y252.402 E728.27673
G0 F12000 X196.800 Y252.402
G1 F1800 X196.800 Y259.722 E728.52020
G0 F12000 X196.400 Y259.722
G1 F1800 X196.400 Y252.402 E728.76366
G0 F12000 X196.000 Y252.402
G1 F1800 X196.000 Y259.722 E729.00712
G0 F12000 X195.600 Y259.722
G1 F1800 X195.600 Y252.402 E729.25059
G0 F12000 X195.200 Y252.402
G1 F1800 X195.200 Y259.722 E729.49405
G0 F12000 X194.800 Y259.722
G1 F1800 X194.800 Y252.402 E729.73752
G0 F12000 X194.400 Y252.402
G1 F1800 X194.400 Y259.722 E729.98098
G0 F12000 X194.000 Y259.722
G1 F1800 X194.000 Y252.402 E730.22445
G0 F12000 X193.600 Y252.402
G1 F1800 X193.600 Y259.722 E730.46791
G0 F12000 X193.200 Y259.722
G1 F1800 X193.200 Y252.402 E730.71137
G0 F12000 X192.800 Y252.402
G1 F1800 X192.800 Y259.722 E730.95484
G0 F12000 X192.400 Y259.722
G1 F1800 X192.400 Y252.402 E731.19830
G0 F12000 X192.000 Y252.402
G1 F1800 X192.000 Y259.722 E731.44177
G0 F12000 X191.600 Y259.722
G1 F1800 X191.600 Y252.402 E731.68523
G0 F12000 X191.200 Y252.402
G1 F1800 X191.200 Y259.722 E731.92870
G0 F12000 X190.800 Y259.722
G1 F1800 X190.800 Y252.402 E732.17216
G0 F12000 X190.400 Y252.402
G1 F1800 X190.400 Y259.722 E732.41562
G0 F12000 X190.000 Y259.722
G1 F1800 X190.000 Y252.402 E732.65909
G0 F12000 X189.600 Y252.402
G1 F1800 X189.600 Y259.722 E732.90255
G0 F12000 X189.200 Y259.722
G1 F1800 X189.200 Y252.402 E733.14602
G0 F12000 X188.800 Y252.402
G1 F1800 X188.800 Y259.722 E733.38948
G0 F12000 X188.400 Y259.722
G1 F1800 X188.400 Y252.402 E733.63294
G0 F12000 X188.000 Y252.402
G1 F1800 X188.000 Y259.722 E733.87641
G0 F12000 X187.600 Y259.722
G1 F1800 X187.600 Y252.402 E734.11987
G0 F12000 X187.200 Y252.402
G1 F1800 X187.200 Y259.722 E734.36334
G0 F12000 X186.800 Y259.722
G1 F1800 X186.800 Y252.402 E734.60680
G0 F12000 X186.400 Y252.402
G1 F1800 X186.400 Y259.722 E734.85027
G0 F12000 X186.000 Y259.722
G1 F1800 X186.000 Y252.402 E735.09373
G0 F12000 X185.600 Y252.402
G1 F1800 X185.600 Y259.722 E735.33719
G0 F12000 X185.200 Y259.722
G1 F1800 X185.200 Y252.402 E735.58066
G0 F12000 X184.800 Y252.402
G1 F1800 X184.800 Y259.722 E735.82412
G0 F12000 X184.400 Y259.722
G1 F1800 X184.400 Y252.402 E736.06759
G0 F12000 X184.000 Y252.402
G1 F1800 X184.000 Y259.722 E736.31105
G0 F12000 X183.600 Y259.722
G1 F1800 X183.600 Y252.402 E736.55451
G0 F12000 X183.200 Y252.402
G1 F1800 X183.200 Y259.722 E736.79798
G0 F12000 X182.800 Y259.722
G1 F1800 X182.800 Y252.402 E737.04144
G0 F12000 X182.400 Y252.402
G1 F1800 X182.400 Y259.722 E737.28491
G0 F12000 X182.000 Y259.722
G1 F1800 X182.000 Y252.402 E737.52837
G0 F12000 X181.600 Y252.402
G1 F1800 X181.600 Y259.722 E737.77184
G0 F12000 X181.200 Y259.722
G1 F1800 X181.200 Y252.402 E738.01530
G0 F12000 X180.800 Y252.402
G1 F1800 X180.800 Y259.722 E738.25876
G0 F12000 X180.400 Y259.722
G1 F1800 X180.400 Y252.402 E738.50223
G0 F12000 X180.000 Y252.402
G1 F1800 X180.000 Y259.722 E738.74569
G0 F12000 X179.600 Y259.722
G1 F1800 X179.600 Y252.402 E738.98916
G0 F12000 X179.200 Y252.402
G1 F1800 X179.200 Y259.722 E739.23262
G0 F12000 X178.800 Y259.722
G1 F1800 X178.800 Y252.402 E739.47608
G0 F12000 X178.400 Y252.402
G1 F1800 X178.400 Y259.722 E739.71955
G0 F12000 X178.000 Y259.722
G1 F1800 X178.000 Y252.402 E739.96301
G0 F12000 X177.600 Y252.402
G1 F1800 X177.600 Y259.722 E740.20648
G0 F12000 X177.200 Y259.722
G1 F1800 X177.200 Y252.402 E740.44994
G0 F12000 X176.800 Y252.402
G1 F1800 X176.800 Y259.722 E740.69341
G0 F12000 X176.400 Y259.722
G1 F1800 X176.400 Y252.402 E740.93687
G0 F12000 X176.000 Y252.402
G1 F1800 X176.000 Y259.722 E741.18033
G0 F12000 X175.600 Y259.722
G1 F1800 X175.600 Y252.402 E741.42380
G0 F12000 X175.200 Y252.402
G1 F1800 X175.200 Y259.722 E741.66726
G0 F12000 X174.800 Y259.722
G1 F1800 X174.800 Y252.402 E741.91073
G0 F12000 X174.400 Y252.402
G1 F1800 X174.400 Y259.722 E742.15419
G1 F2100 E741.75419
G0 F12000 X260.000 Y237.677
G1 F2100 E742.15419
G1 F1800 X260.000 Y140.309 E745.39266
G0 F12000 X260.400 Y140.569
G1 F1800 X260.400 Y237.512 E748.61700
G0 F12000 X260.800 Y237.258
G1 F1800 X260.800 Y140.864 E751.82308
G0 F12000 X261.200 Y141.270
G1 F1800 X261.200 Y236.852 E755.00215
G0 F12000 X261.600 Y236.074
G1 F1800 X261.600 Y142.055 E758.12923
G1 F2100 E757.72923
G0 F12000 X216.800 Y140.023
G1 F2100 E758.12923
G1 F1800 X216.800 Y116.235 E758.92043
G1 F2100 E758.52043
G0 F12000 X199.600 Y116.203
G1 F2100 E758.92043
G1 F1800 X199.600 Y124.073 E759.18218
G0 F12000 X199.200 Y124.073
G1 F1800 X199.200 Y116.203 E759.44394
G0 F12000 X198.800 Y116.203
G1 F1800 X198.800 Y124.073 E759.70570
G0 F12000 X198.400 Y124.073
G1 F1800 X198.400 Y116.203 E759.96745
G0 F12000 X198.000 Y116.203
G1 F1800 X198.000 Y124.073 E760.22921
G0 F12000 X197.600 Y124.073
G1 F1800 X197.600 Y116.203 E760.49097
G0 F12000 X197.200 Y116.203
G1 F1800 X197.200 Y124.073 E760.75273
G0 F12000 X196.800 Y124.073
G1 F1800 X196.800 Y116.203 E761.01448
G0 F12000 X196.400 Y116.203
G1 F1800 X196.400 Y124.073 E761.27624
G0 F12000 X196.000 Y124.073
G1 F1800 X196.000 Y116.203 E761.53800
G0 F12000 X195.600 Y116.203
G1 F1800 X195.600 Y124.073 E761.79976
G0 F12000 X195.200 Y124.073
G1 F1800 X195.200 Y116.203 E762.06151
G0 F12000 X194.800 Y116.203
G1 F1800 X194.800 Y124.073 E762.32327
G0 F12000 X194.400 Y124.073
G1 F1800 X194.400 Y116.203 E762.58503
G0 F12000 X194.000 Y116.203
G1 F1800 X194.000 Y124.073 E762.84678
G0 F12000 X193.600 Y124.073
G1 F1800 X193.600 Y116.203 E763.10854
G0 F12000 X193.200 Y116.203
G1 F1800 X193.200 Y124.073 E763.37030
G0 F12000 X192.800 Y124.073
G1 F1800 X192.800 Y116.203 E763.63206
G0 F12000 X192.400 Y116.203
G1 F1800 X192.400 Y124.073 E763.89381
G0 F12000 X192.000 Y124.073
G1 F1800 X192.000 Y116.203 E764.15557
G0 F12000 X191.600 Y116.203
G1 F1800 X191.600 Y124.073 E764.41733
G0 F12000 X191.200 Y124.073
G1 F1800 X191.200 Y116.203 E764.67909
G0 F12000 X190.800 Y116.203
G1 F1800 X190.800 Y124.073 E764.94084
G0 F12000 X190.400 Y124.073
G1 F1800 X190.400 Y116.203 E765.20260
G0 F12000 X190.000 Y116.203
G1 F1800 X190.000 Y124.073 E765.46436
G0 F12000 X189.600 Y124.073
G1 F1800 X189.600 Y116.203 E765.72611
G0 F12000 X189.200 Y116.203
G1 F1800 X189.200 Y124.073 E765.98787
G0 F12000 X188.800 Y124.073
G1 F1800 X188.800 Y116.203 E766.24963
G0 F12000 X188.400 Y116.203
G1 F1800 X188.400 Y124.073 E766.51139
G0 F12000 X188.000 Y124.073
G1 F1800 X188.000 Y116.203 E766.77314
G0 F12000 X187.600 Y116.203
G1 F1800 X187.600 Y124.073 E767.03490
G0 F12000 X187.200 Y124.073
G1 F1800 X187.200 Y116.203 E767.29666
G0 F12000 X186.800 Y116.203
G1 F1800 X186.800 Y124.073 E767.55842
G0 F12000 X186.400 Y124.073
G1 F1800 X186.400 Y116.203 E767.82017
G0 F12000 X186.000 Y116.203
G1 F1800 X186.000 Y124.073 E768.08193
G0 F12000 X185.600 Y124.073
G1 F1800 X185.600 Y116.203 E768.34369
G0 F12000 X185.200 Y116.203
G1 F1800 X185.200 Y124.073 E768.60544
G0 F12000 X184.800 Y124.073
G1 F1800 X184.800 Y116.203 E768.86720
G0 F12000 X184.400 Y116.203
G1 F1800 X184.400 Y124.073 E769.12896
G0 F12000 X184.000 Y124.073
G1 F1800 X184.000 Y116.203 E769.39072
G0 F12000 X183.600 Y116.203
G1 F1800 X183.600 Y124.073 E769.65247
G0 F12000 X183.200 Y124.073
G1 F1800 X183.200 Y116.203 E769.91423
G0 F12000 X182.800 Y116.203
G1 F1800 X182.800 Y124.073 E770.17599
G0 F12000 X182.400 Y124.073
G1 F1800 X182.400 Y116.203 E770.43775
G0 F12000 X182.000 Y116.203
G1 F1800 X182.000 Y124.073 E770.69950
G0 F12000 X181.600 Y124.073
G1 F1800 X181.600 Y116.203 E770.96126
G0 F12000 X181.200 Y116.203
G1 F1800 X181.200 Y124.073 E771.22302
G0 F12000 X180.800 Y124.073
G1 F1800 X180.800 Y116.203 E771.48477
G0 F12000 X180.400 Y116.203
G1 F1800 X180.400 Y124.073 E771.74653
G0 F12000 X180.000 Y124.073
G1 F1800 X180.000 Y116.203 E772.00829
G0 F12000 X179.600 Y116.203
G1 F1800 X179.600 Y124.073 E772.27005
G0 F12000 X179.200 Y124.073
G1 F1800 X179.200 Y116.203 E772.53180
G0 F12000 X178.800 Y116.203
G1 F1800 X178.800 Y124.073 E772.79356
G0 F12000 X178.400 Y124.073
G1 F1800 X178.400 Y116.203 E773.05532
;LAYER:1
M106 S2
G1 F2100 E772.65532
G0 F12000 X113.720 Y136.228 Z0.350
;TYPE:WALL-INNER
G1 F2100 E773.05532
G1 F2220 X113.720 Y203.020 E774.72145
G1 X101.720 Y203.020 E775.02079
G1 X101.720 Y217.258 E775.37596
G1 X99.721 Y221.236 E775.48702
G1 X63.372 Y221.236 E776.39375
G1 X62.799 Y221.194 E776.40808
G1 X62.249 Y221.074 E776.42212
G1 X61.722 Y220.875 E776.43617
G1 X61.225 Y220.601 E776.45033
G1 X56.907 Y217.792 E776.57883
G1 X56.434 Y217.423 E776.59379
G1 X56.131 Y217.063 E776.60553
G1 X55.902 Y216.644 E776.61744
G1 X55.761 Y216.191 E776.62928
G1 X55.709 Y215.688 E776.64189
G1 X55.707 Y122.864 E778.95740
G1 X55.754 Y122.383 E778.96945
G1 X55.892 Y121.924 E778.98141
G1 X56.106 Y121.518 E778.99286
G1 X56.414 Y121.142 E779.00498
G1 X56.775 Y120.845 E779.01664
G1 X57.183 Y120.627 E779.02818
G1 X57.629 Y120.490 E779.03982
G1 X58.128 Y120.439 E779.05233
G1 X101.720 Y120.437 E780.13974
G1 X101.720 Y136.228 E780.53365
G1 X113.720 Y136.228 E780.83299
G1 F2100 E780.43299
G0 F12000 X100.730 Y122.882
G1 F2100 E780.83299
G1 F2220 X100.664 Y122.408 E780.84493
G1 X100.475 Y121.952 E780.85724
G1 X100.164 Y121.548 E780.86996
G1 X99.750 Y121.237 E780.88287
G1 X99.296 Y121.049 E780.89513
G1 X98.833 Y120.987 E780.90678
G1 X60.007 Y120.987 E781.87530
G1 X60.007 Y217.369 E784.27956
G1 X60.084 Y218.063 E784.29698
G1 X60.329 Y218.773 E784.31572
G1 X60.724 Y219.412 E784.33445
G1 X61.253 Y219.946 E784.35321
G1 X61.887 Y220.350 E784.37196
G1 X62.596 Y220.601 E784.39072
G1 X63.310 Y220.685 E784.40865
G1 X99.381 Y220.686 E785.30845
G1 X100.643 Y218.177 E785.37851
G1 X100.730 Y218.007 E785.38327
G1 X100.730 Y122.882 E787.75617
G0 F12000 X100.330 Y122.910
;TYPE:WALL-OUTER
G1 F2220 X100.275 Y122.514 E787.76615
G1 X100.126 Y122.154 E787.77587
G1 X99.880 Y121.835 E787.78591
G1 X99.550 Y121.587 E787.79621
G1 X99.191 Y121.438 E787.80591
G1 X98.806 Y121.387 E787.81560
G1 X60.407 Y121.387 E788.77346
G1 X60.407 Y217.347 E791.16719
G1 X60.477 Y217.975 E791.18296
G1 X60.692 Y218.600 E791.19944
G1 X61.040 Y219.163 E791.21595
G1 X61.506 Y219.633 E791.23246
G1 X62.064 Y219.988 E791.24896
G1 X62.687 Y220.209 E791.26545
G1 X63.333 Y220.285 E791.28168
G1 X99.134 Y220.286 E792.17474
G1 X100.287 Y217.994 E792.23874
G1 X100.330 Y217.910 E792.24109
G1 X100.330 Y122.910 E794.61088
G1 F2100 E794.21088
G0 F12000 X102.120 Y120.037
G1 F2100 E794.61088
G1 F2220 X102.120 Y135.828 E795.00478
G1 X114.120 Y135.828 E795.30413
G1 X114.120 Y203.420 E796.99022
G1 X102.120 Y203.420 E797.28956
G1 X102.120 Y217.352 E797.63709
G1 X99.966 Y221.636 E797.75670
G1 X63.357 Y221.636 E798.66992
G1 X62.741 Y221.591 E798.68533
G1 X62.139 Y221.459 E798.70070
G1 X61.554 Y221.239 E798.71629
G1 X61.019 Y220.944 E798.73153
G1 X56.668 Y218.114 E798.86101
G1 X56.155 Y217.713 E798.87725
G1 X55.799 Y217.291 E798.89102
G1 X55.532 Y216.801 E798.90494
G1 X55.367 Y216.272 E798.91876
G1 X55.309 Y215.710 E798.93286
G1 X55.307 Y122.846 E801.24936
G1 X55.360 Y122.305 E801.26292
G1 X55.519 Y121.773 E801.27677
G1 X55.773 Y121.293 E801.29032
G1 X56.129 Y120.858 E801.30434
G1 X56.552 Y120.511 E801.31799
G1 X57.029 Y120.257 E801.33147
G1 X57.551 Y120.096 E801.34509
G1 X58.106 Y120.039 E801.35901
G1 X102.120 Y120.037 E802.45694
G0 F12000 X101.579 Y120.800
;TYPE:SKIN
G1 F2220 X57.152 Y120.800 E803.56518
G0 F12000 X56.561 Y121.200
G1 F2220 X59.866 Y121.200 E803.64762
G0 F12000 X59.866 Y121.600
G1 F2220 X56.220 Y121.600 E803.73857
G0 F12000 X56.014 Y122.000
G1 F2220 X59.866 Y122.000 E803.83466
G0 F12000 X59.866 Y122.400
G1 F2220 X55.895 Y122.400 E803.93372
G0 F12000 X55.853 Y122.800
G1 F2220 X59.866 Y122.800 E804.03382
G0 F12000 X59.866 Y123.200
G1 F2220 X55.846 Y123.200 E804.13410
G0 F12000 X55.846 Y123.600
G1 F2220 X59.866 Y123.600 E804.23438
G0 F12000 X59.866 Y124.000
G1 F2220 X55.846 Y124.000 E804.33466
G0 F12000 X55.846 Y124.400
G1 F2220 X59.866 Y124.400 E804.43494
G0 F12000 X59.866 Y124.800
G1 F2220 X55.846 Y124.800 E804.53522
G0 F12000 X55.846 Y125.200
G1 F2220 X59.866 Y125.200 E804.63550
G0 F12000 X59.866 Y125.600
G1 F2220 X55.846 Y125.600 E804.73578
G0 F12000 X55.846 Y126.000
G1 F2220 X59.866 Y126.000 E804.83606
G0 F12000 X59.866 Y126.400
G1 F2220 X55.846 Y126.400 E804.93634
G0 F12000 X55.846 Y126.800
G1 F2220 X59.866 Y126.800 E805.03662
G0 F12000 X59.866 Y127.200
G1 F2220 X55.846 Y127.200 E805.13690
G0 F12000 X55.846 Y127.600
G1 F2220 X59.866 Y127.600 E805.23718
G0 F12000 X59.866 Y128.000
G1 F2220 X55.846 Y128.000 E805.33745
G0 F12000 X55.846 Y128.400
G1 F2220 X59.866 Y128.400 E805.43773
G0 F12000 X59.866 Y128.800
G1 F2220 X55.846 Y128.800 E805.53801
G0 F12000 X55.846 Y129.200
G1 F2220 X59.866 Y129.200 E805.63829
G0 F12000 X59.866 Y129.600
G1 F2220 X55.846 Y129.600 E805.73857
G0 F12000 X55.846 Y130.000
G1 F2220 X59.866 Y130.000 E805.83885
G0 F12000 X59.866 Y130.400
G1 F2220 X55.846 Y130.400 E805.93913
G0 F12000 X55.846 Y130.800
G1 F2220 X59.866 Y130.800 E806.03941
G0 F12000 X59.866 Y131.200
G1 F2220 X55.846 Y131.200 E806.13969
G0 F12000 X55.846 Y131.600
G1 F2220 X59.866 Y131.600 E806.23997
G0 F12000 X59.866 Y132.000
G1 F2220 X55.846 Y132.000 E806.34025
G0 F12000 X55.846 Y132.400
G1 F2220 X59.866 Y132.400 E806.44053
G0 F12000 X59.866 Y132.800
G1 F2220 X55.846 Y132.800 E806.54081
G0 F12000 X55.846 Y133.200
G1 F2220 X59.866 Y133.200 E806.64109
G0 F12000 X59.866 Y133.600
G1 F2220 X55.846 Y133.600 E806.74137
G0 F12000 X55.846 Y134.000
G1 F2220 X59.866 Y134.000 E806.84164
G0 F12000 X59.866 Y134.400
G1 F2220 X55.846 Y134.400 E806.94192
G0 F12000 X55.846 Y134.800
G1 F2220 X59.866 Y134.800 E807.04220
G0 F12000 X59.866 Y135.200
G1 F2220 X55.846 Y135.200 E807.14248
G0 F12000 X55.846 Y135.600
G1 F2220 X59.866 Y135.600 E807.24276
G0 F12000 X59.866 Y136.000
G1 F2220 X55.846 Y136.000 E807.34304
G0 F12000 X55.846 Y136.400
G1 F2220 X59.866 Y136.400 E807.44332
G0 F12000 X59.866 Y136.800
G1 F2220 X55.846 Y136.800 E807.54360
G0 F12000 X55.846 Y137.200
G1 F2220 X59.866 Y137.200 E807.64388
G0 F12000 X59.866 Y137.600
G1 F2220 X55.846 Y137.600 E807.74416
G0 F12000 X55.846 Y138.000
G1 F2220 X59.866 Y138.000 E807.84444
G0 F12000 X59.866 Y138.400
G1 F2220 X55.846 Y138.400 E807.94472
G0 F12000 X55.846 Y138.800
G1 F2220 X59.866 Y138.800 E808.04500
G0 F12000 X59.866 Y139.200
G1 F2220 X55.846 Y139.200 E808.14528
G0 F12000 X55.846 Y139.600
G1 F2220 X59.866 Y139.600 E808.24555
G0 F12000 X59.866 Y140.000
G1 F2220 X55.846 Y140.000 E808.34583
G0 F12000 X55.846 Y140.400
G1 F2220 X59.866 Y140.400 E808.44611
G0 F12000 X59.866 Y140.800
G1 F2220 X55.846 Y140.800 E808.54639
G0 F12000 X55.846 Y141.200
G1 F2220 X59.866 Y141.200 E808.64667
G0 F12000 X59.866 Y141.600
G1 F2220 X55.846 Y141.600 E808.74695
G0 F12000 X55.846 Y142.000
G1 F2220 X59.866 Y142.000 E808.84723
G0 F12000 X59.866 Y142.400
G1 F2220 X55.846 Y142.400 E808.94751
G0 F12000 X55.846 Y142.800
G1 F2220 X59.866 Y142.800 E809.04779
G0 F12000 X59.866 Y143.200
G1 F2220 X55.846 Y143.200 E809.14807
G0 F12000 X55.846 Y143.600
G1 F2220 X59.866 Y143.600 E809.24835
G0 F12000 X59.866 Y144.000
G1 F2220 X55.846 Y144.000 E809.34863
G0 F12000 X55.846 Y144.400
G1 F2220 X59.866 Y144.400 E809.44891
G0 F12000 X59.866 Y144.800
G1 F2220 X55.846 Y144.800 E809.54919
G0 F12000 X55.846 Y145.200
G1 F2220 X59.866 Y145.200 E809.64947
G0 F12000 X59.866 Y145.600
G1 F2220 X55.846 Y145.600 E809.74974
G0 F12000 X55.846 Y146.000
G1 F2220 X59.866 Y146.000 E809.85002
G0 F12000 X59.866 Y146.400
G1 F2220 X55.846 Y146.400 E809.95030
G0 F12000 X55.846 Y146.800
G1 F2220 X59.866 Y146.800 E810.05058
G0 F12000 X59.866 Y147.200
G1 F2220 X55.846 Y147.200 E810.15086
G0 F12000 X55.846 Y147.600
G1 F2220 X59.866 Y147.600 E810.25114
G0 F12000 X59.866 Y148.000
G1 F2220 X55.846 Y148.000 E810.35142
G0 F12000 X55.846 Y148.400
G1 F2220 X59.866 Y148.400 E810.45170
G0 F12000 X59.866 Y148.800
G1 F2220 X55.846 Y148.800 E810.55198
G0 F12000 X55.846 Y149.200
G1 F2220 X59.866 Y149.200 E810.65226
G0 F12000 X59.866 Y149.600
G1 F2220 X55.846 Y149.600 E810.75254
G0 F12000 X55.846 Y150.000
G1 F2220 X59.866 Y150.000 E810.85282
G0 F12000 X59.866 Y150.400
G1 F2220 X55.846 Y150.400 E810.95310
G0 F12000 X55.846 Y150.800
G1 F2220 X59.866 Y150.800 E811.05338
G0 F12000 X59.866 Y151.200
G1 F2220 X55.846 Y151.200 E811.15365
G0 F12000 X55.846 Y151.600
G1 F2220 X59.866 Y151.600 E811.25393
G0 F12000 X59.866 Y152.000
G1 F2220 X55.846 Y152.000 E811.35421
G0 F12000 X55.846 Y152.400
G1 F2220 X59.866 Y152.400 E811.45449
G0 F12000 X59.866 Y152.800
G1 F2220 X55.846 Y152.800 E811.55477
G0 F12000 X55.846 Y153.200
G1 F2220 X59.866 Y153.200 E811.65505
G0 F12000 X59.866 Y153.600
G1 F2220 X55.846 Y153.600 E811.75533
G0 F12000 X55.846 Y154.000
G1 F2220 X59.866 Y154.000 E811.85561
G0 F12000 X59.866 Y154.400
G1 F2220 X55.846 Y154.400 E811.95589
G0 F12000 X55.846 Y154.800
G1 F2220 X59.866 Y154.800 E812.05617
G0 F12000 X59.866 Y155.200
G1 F2220 X55.846 Y155.200 E812.15645
G0 F12000 X55.846 Y155.600
G1 F2220 X59.866 Y155.600 E812.25673
G0 F12000 X59.866 Y156.000
G1 F2220 X55.846 Y156.000 E812.35701
G0 F12000 X55.846 Y156.400
G1 F2220 X59.866 Y156.400 E812.45729
G0 F12000 X59.866 Y156.800
G1 F2220 X55.846 Y156.800 E812.55757
G0 F12000 X55.846 Y157.200
G1 F2220 X59.866 Y157.200 E812.65784
G0 F12000 X59.866 Y157.600
G1 F2220 X55.846 Y157.600 E812.75812
G0 F12000 X55.846 Y158.000
G1 F2220 X59.866 Y158.000 E812.85840
G0 F12000 X59.866 Y158.400
G1 F2220 X55.846 Y158.400 E812.95868
G0 F12000 X55.846 Y158.800
G1 F2220 X59.866 Y158.800 E813.05896
G0 F12000 X59.866 Y159.200
G1 F2220 X55.846 Y159.200 E813.15924
G0 F12000 X55.846 Y159.600
G1 F2220 X59.866 Y159.600 E813.25952
G0 F12000 X59.866 Y160.000
G1 F2220 X55.846 Y160.000 E813.35980
G0 F12000 X55.846 Y160.400
G1 F2220 X59.866 Y160.400 E813.46008
G0 F12000 X59.866 Y160.800
G1 F2220 X55.846 Y160.800 E813.56036
G0 F12000 X55.846 Y161.200
G1 F2220 X59.866 Y161.200 E813.66064
G0 F12000 X59.866 Y161.600
G1 F2220 X55.846 Y161.600 E813.76092
G0 F12000 X55.846 Y162.000
G1 F2220 X59.866 Y162.000 E813.86120
G0 F12000 X59.866 Y162.400
G1 F2220 X55.846 Y162.400 E813.96148
G0 F12000 X55.846 Y162.800
G1 F2220 X59.866 Y162.800 E814.06175
G0 F12000 X59.866 Y163.200
G1 F2220 X55.846 Y163.200 E814.16203
G0 F12000 X55.846 Y163.600
G1 F2220 X59.866 Y163.600 E814.26231
G0 F12000 X59.866 Y164.000
G1 F2220 X55.846 Y164.000 E814.36259
G0 F12000 X55.846 Y164.400
G1 F2220 X59.866 Y164.400 E814.46287
G0 F12000 X59.866 Y164.800
G1 F2220 X55.846 Y164.800 E814.56315
G0 F12000 X55.846 Y165.200
G1 F2220 X59.866 Y165.200 E814.66343
G0 F12000 X59.866 Y165.600
G1 F2220 X55.846 Y165.600 E814.76371
G0 F12000 X55.846 Y166.000
G1 F2220 X59.866 Y166.000 E814.86399
G0 F12000 X59.866 Y166.400
G1 F2220 X55.846 Y166.400 E814.96427
G0 F12000 X55.846 Y166.800
G1 F2220 X59.866 Y166.800 E815.06455
G0 F12000 X59.866 Y167.200
G1 F2220 X55.846 Y167.200 E815.16483
G0 F12000 X55.846 Y167.600
G1 F2220 X59.866 Y167.600 E815.26511
G0 F12000 X59.866 Y168.000
G1 F2220 X55.846 Y168.000 E815.36539
G0 F12000 X55.846 Y168.400
G1 F2220 X59.866 Y168.400 E815.46567
G0 F12000 X59.866 Y168.800
G1 F2220 X55.846 Y168.800 E815.56594
G0 F12000 X55.846 Y169.200
G1 F2220 X59.866 Y169.200 E815.66622
G0 F12000 X59.866 Y169.600
G1 F2220 X55.847 Y169.600 E815.76648
G0 F12000 X55.847 Y170.000
G1 F2220 X59.866 Y170.000 E815.86673
G0 F12000 X59.866 Y170.400
G1 F2220 X55.847 Y170.400 E815.96699
G0 F12000 X55.847 Y170.800
G1 F2220 X59.866 Y170.800 E816.06724
G0 F12000 X59.866 Y171.200
G1 F2220 X55.847 Y171.200 E816.16750
G0 F12000 X55.847 Y171.600
G1 F2220 X59.866 Y171.600 E816.26775
G0 F12000 X59.866 Y172.000
G1 F2220 X55.847 Y172.000 E816.36800
G0 F12000 X55.847 Y172.400
G1 F2220 X59.866 Y172.400 E816.46826
G0 F12000 X59.866 Y172.800
G1 F2220 X55.847 Y172.800 E816.56851
G0 F12000 X55.847 Y173.200
G1 F2220 X59.866 Y173.200 E816.66877
G0 F12000 X59.866 Y173.600
G1 F2220 X55.847 Y173.600 E816.76902
G0 F12000 X55.847 Y174.000
G1 F2220 X59.866 Y174.000 E816.86928
G0 F12000 X59.866 Y174.400
G1 F2220 X55.847 Y174.400 E816.96953
G0 F12000 X55.847 Y174.800
G1 F2220 X59.866 Y174.800 E817.06978
G0 F12000 X59.866 Y175.200
G1 F2220 X55.847 Y175.200 E817.17004
G0 F12000 X55.847 Y175.600
G1 F2220 X59.866 Y175.600 E817.27029
G0 F12000 X59.866 Y176.000
G1 F2220 X55.847 Y176.000 E817.37055
G0 F12000 X55.847 Y176.400
G1 F2220 X59.866 Y176.400 E817.47080
G0 F12000 X59.866 Y176.800
G1 F2220 X55.847 Y176.800 E817.57106
G0 F12000 X55.847 Y177.200
G1 F2220 X59.866 Y177.200 E817.67131
G0 F12000 X59.866 Y177.600
G1 F2220 X55.847 Y177.600 E817.77157
G0 F12000 X55.847 Y178.000
G1 F2220 X59.866 Y178.000 E817.87182
G0 F12000 X59.866 Y178.400
G1 F2220 X55.847 Y178.400 E817.97207
G0 F12000 X55.847 Y178.800
G1 F2220 X59.866 Y178.800 E818.07233
G0 F12000 X59.866 Y179.200
G1 F2220 X55.847 Y179.200 E818.17258
G0 F12000 X55.847 Y179.600
G1 F2220 X59.866 Y179.600 E818.27284
G0 F12000 X59.866 Y180.000
G1 F2220 X55.847 Y180.000 E818.37309
G0 F12000 X55.847 Y180.400
G1 F2220 X59.866 Y180.400 E818.47335
G0 F12000 X59.866 Y180.800
G1 F2220 X55.847 Y180.800 E818.57360
G0 F12000 X55.847 Y181.200
G1 F2220 X59.866 Y181.200 E818.67385
G0 F12000 X59.866 Y181.600
G1 F2220 X55.847 Y181.600 E818.77411
G0 F12000 X55.847 Y182.000
G1 F2220 X59.866 Y182.000 E818.87436
G0 F12000 X59.866 Y182.400
G1 F2220 X55.847 Y182.400 E818.97462
G0 F12000 X55.847 Y182.800
G1 F2220 X59.866 Y182.800 E819.07487
G0 F12000 X59.866 Y183.200
G1 F2220 X55.847 Y183.200 E819.17513
G0 F12000 X55.847 Y183.600
G1 F2220 X59.866 Y183.600 E819.27538
G0 F12000 X59.866 Y184.000
G1 F2220 X55.847 Y184.000 E819.37564
G0 F12000 X55.847 Y184.400
G1 F2220 X59.866 Y184.400 E819.47589
G0 F12000 X59.866 Y184.800
G1 F2220 X55.847 Y184.800 E819.57614
G0 F12000 X55.847 Y185.200
G1 F2220 X59.866 Y185.200 E819.67640
G0 F12000 X59.866 Y185.600
G1 F2220 X55.847 Y185.600 E819.77665
G0 F12000 X55.847 Y186.000
G1 F2220 X59.866 Y186.000 E819.87691
G0 F12000 X59.866 Y186.400
G1 F2220 X55.847 Y186.400 E819.97716
G0 F12000 X55.847 Y186.800
G1 F2220 X59.866 Y186.800 E820.07742
G0 F12000 X59.866 Y187.200
G1 F2220 X55.847 Y187.200 E820.17767
G0 F12000 X55.847 Y187.600
G1 F2220 X59.866 Y187.600 E820.27792
G0 F12000 X59.866 Y188.000
G1 F2220 X55.847 Y188.000 E820.37818
G0 F12000 X55.847 Y188.400
G1 F2220 X59.866 Y188.400 E820.47843
G0 F12000 X59.866 Y188.800
G1 F2220 X55.847 Y188.800 E820.57869
G0 F12000 X55.847 Y189.200
G1 F2220 X59.866 Y189.200 E820.67894
G0 F12000 X59.866 Y189.600
G1 F2220 X55.847 Y189.600 E820.77920
G0 F12000 X55.847 Y190.000
G1 F2220 X59.866 Y190.000 E820.87945
G0 F12000 X59.866 Y190.400
G1 F2220 X55.847 Y190.400 E820.97970
G0 F12000 X55.847 Y190.800
G1 F2220 X59.866 Y190.800 E821.07996
G0 F12000 X59.866 Y191.200
G1 F2220 X55.847 Y191.200 E821.18021
G0 F12000 X55.847 Y191.600
G1 F2220 X59.866 Y191.600 E821.28047
G0 F12000 X59.866 Y192.000
G1 F2220 X55.847 Y192.000 E821.38072
G0 F12000 X55.847 Y192.400
G1 F2220 X59.866 Y192.400 E821.48098
G0 F12000 X59.866 Y192.800
G1 F2220 X55.847 Y192.800 E821.58123
G0 F12000 X55.847 Y193.200
G1 F2220 X59.866 Y193.200 E821.68149
G0 F12000 X59.866 Y193.600
G1 F2220 X55.847 Y193.600 E821.78174
G0 F12000 X55.847 Y194.000
G1 F2220 X59.866 Y194.000 E821.88199
G0 F12000 X59.866 Y194.400
G1 F2220 X55.847 Y194.400 E821.98225
G0 F12000 X55.847 Y194.800
G1 F2220 X59.866 Y194.800 E822.08250
G0 F12000 X59.866 Y195.200
G1 F2220 X55.847 Y195.200 E822.18276
G0 F12000 X55.847 Y195.600
G1 F2220 X59.866 Y195.600 E822.28301
G0 F12000 X59.866 Y196.000
G1 F2220 X55.847 Y196.000 E822.38327
G0 F12000 X55.847 Y196.400
G1 F2220 X59.866 Y196.400 E822.48352
G0 F12000 X59.866 Y196.800
G1 F2220 X55.847 Y196.800 E822.58377
G0 F12000 X55.847 Y197.200
G1 F2220 X59.866 Y197.200 E822.68403
G0 F12000 X59.866 Y197.600
G1 F2220 X55.847 Y197.600 E822.78428
G0 F12000 X55.847 Y198.000
G1 F2220 X59.866 Y198.000 E822.88454
G0 F12000 X59.866 Y198.400
G1 F2220 X55.847 Y198.400 E822.98479
G0 F12000 X55.847 Y198.800
G1 F2220 X59.866 Y198.800 E823.08505
G0 F12000 X59.866 Y199.200
G1 F2220 X55.847 Y199.200 E823.18530
G0 F12000 X55.847 Y199.600
G1 F2220 X59.866 Y199.600 E823.28556
G0 F12000 X59.866 Y200.000
G1 F2220 X55.847 Y200.000 E823.38581
G0 F12000 X55.847 Y200.400
G1 F2220 X59.866 Y200.400 E823.48606
G0 F12000 X59.866 Y200.800
G1 F2220 X55.847 Y200.800 E823.58632
G0 F12000 X55.847 Y201.200
G1 F2220 X59.866 Y201.200 E823.68657
G0 F12000 X59.866 Y201.600
G1 F2220 X55.847 Y201.600 E823.78683
G0 F12000 X55.847 Y202.000
G1 F2220 X59.866 Y202.000 E823.88708
G0 F12000 X59.866 Y202.400
G1 F2220 X55.847 Y202.400 E823.98734
G0 F12000 X55.847 Y202.800
G1 F2220 X59.866 Y202.800 E824.08759
G0 F12000 X59.866 Y203.200
G1 F2220 X55.847 Y203.200 E824.18784
G0 F12000 X55.847 Y203.600
G1 F2220 X59.866 Y203.600 E824.28810
G0 F12000 X59.866 Y204.000
G1 F2220 X55.847 Y204.000 E824.38835
G0 F12000 X55.847 Y204.400
G1 F2220 X59.866 Y204.400 E824.48861
G0 F12000 X59.866 Y204.800
G1 F2220 X55.847 Y204.800 E824.58886
G0 F12000 X55.847 Y205.200
G1 F2220 X59.866 Y205.200 E824.68912
G0 F12000 X59.866 Y205.600
G1 F2220 X55.847 Y205.600 E824.78937
G0 F12000 X55.847 Y206.000
G1 F2220 X59.866 Y206.000 E824.88962
G0 F12000 X59.866 Y206.400
G1 F2220 X55.847 Y206.400 E824.98988
G0 F12000 X55.847 Y206.800
G1 F2220 X59.866 Y206.800 E825.09013
G0 F12000 X59.866 Y207.200
G1 F2220 X55.847 Y207.200 E825.19039
G0 F12000 X55.847 Y207.600
G1 F2220 X59.866 Y207.600 E825.29064
G0 F12000 X59.866 Y208.000
G1 F2220 X55.847 Y208.000 E825.39090
G0 F12000 X55.847 Y208.400
G1 F2220 X59.866 Y208.400 E825.49115
G0 F12000 X59.866 Y208.800
G1 F2220 X55.847 Y208.800 E825.59141
G0 F12000 X55.847 Y209.200
G1 F2220 X59.866 Y209.200 E825.69166
G0 F12000 X59.866 Y209.600
G1 F2220 X55.847 Y209.600 E825.79191
G0 F12000 X55.847 Y210.000
G1 F2220 X59.866 Y210.000 E825.89217
G0 F12000 X59.866 Y210.400
G1 F2220 X55.847 Y210.400 E825.99242
G0 F12000 X55.847 Y210.800
G1 F2220 X59.866 Y210.800 E826.09268
G0 F12000 X59.866 Y211.200
G1 F2220 X55.847 Y211.200 E826.19293
G0 F12000 X55.847 Y211.600
G1 F2220 X59.866 Y211.600 E826.29319
G0 F12000 X59.866 Y212.000
G1 F2220 X55.847 Y212.000 E826.39344
G0 F12000 X55.847 Y212.400
G1 F2220 X59.866 Y212.400 E826.49369
G0 F12000 X59.866 Y212.800
G1 F2220 X55.847 Y212.800 E826.59395
G0 F12000 X55.847 Y213.200
G1 F2220 X59.866 Y213.200 E826.69420
G0 F12000 X59.866 Y213.600
G1 F2220 X55.847 Y213.600 E826.79446
G0 F12000 X55.847 Y214.000
G1 F2220 X59.866 Y214.000 E826.89471
G0 F12000 X59.866 Y214.400
G1 F2220 X55.847 Y214.400 E826.99497
G0 F12000 X55.847 Y214.800
G1 F2220 X59.866 Y214.800 E827.09522
G0 F12000 X59.866 Y215.200
G1 F2220 X55.847 Y215.200 E827.19548
G0 F12000 X55.847 Y215.600
G1 F2220 X59.866 Y215.600 E827.29573
G0 F12000 X59.866 Y216.000
G1 F2220 X55.881 Y216.000 E827.39514
G0 F12000 X55.971 Y216.400
G1 F2220 X59.866 Y216.400 E827.49230
G0 F12000 X59.866 Y216.800
G1 F2220 X56.145 Y216.800 E827.58512
G0 F12000 X56.429 Y217.200
G1 F2220 X59.866 Y217.200 E827.67085
G0 F12000 X59.892 Y217.600
G1 F2220 X56.888 Y217.600 E827.74579
G0 F12000 X57.483 Y218.000
G1 F2220 X59.936 Y218.000 E827.80698
G0 F12000 X60.052 Y218.400
G1 F2220 X58.098 Y218.400 E827.85572
G0 F12000 X58.714 Y218.800
G1 F2220 X60.190 Y218.800 E827.89254
G0 F12000 X60.429 Y219.200
G1 F2220 X59.329 Y219.200 E827.91998
G0 F12000 X59.944 Y219.600
G1 F2220 X60.636 Y219.800 E827.93916
G1 X61.142 Y220.200 E827.95288
G1 X61.707 Y220.400 E827.96783
G0 F12000 X61.920 Y220.800
G1 F2220 X63.100 Y220.800 E827.99726
G1 F2100 E827.59726
G0 F12000 X99.479 Y220.800
G1 F2100 E827.99726
G1 F2220 X99.731 Y220.600 E828.00481
G1 X99.932 Y220.200 E828.01232
G1 X100.133 Y219.800 E828.01983
G1 X100.334 Y219.400 E828.02734
G1 X100.535 Y219.000 E828.03482
G1 X100.737 Y218.600 E828.04228
G1 X100.928 Y218.200 E828.04972
G1 X101.288 Y217.800 E828.05767
G1 X100.869 Y217.400 E828.07064
G1 X101.579 Y217.000 E828.08833
G1 X100.869 Y216.600 E828.10601
G1 X101.579 Y216.200 E828.12370
G1 X100.869 Y215.800 E828.14138
G1 X101.579 Y215.400 E828.15907
G1 X100.869 Y215.000 E828.17675
G1 X101.579 Y214.600 E828.19444
G1 X100.869 Y214.200 E828.21213
G1 X101.579 Y213.800 E828.22981
G1 X100.869 Y213.400 E828.24750
G1 X101.579 Y213.000 E828.26518
G1 X100.869 Y212.600 E828.28287
G1 X101.579 Y212.200 E828.30055
G1 X100.869 Y211.800 E828.31824
G1 X101.579 Y211.400 E828.33592
G1 X100.869 Y211.000 E828.35361
G1 X101.579 Y210.600 E828.37130
G1 X100.869 Y210.200 E828.38898
G1 X101.579 Y209.800 E828.40667
G1 X100.869 Y209.400 E828.42435
G1 X101.579 Y209.000 E828.44204
G1 X100.869 Y208.600 E828.45972
G1 X101.579 Y208.200 E828.47741
G1 X100.869 Y207.800 E828.49510
G1 X101.579 Y207.400 E828.51278
G1 X100.869 Y207.000 E828.53047
G1 X101.579 Y206.600 E828.54815
G1 X100.869 Y206.200 E828.56584
G1 X101.579 Y205.800 E828.58352
G1 X100.869 Y205.400 E828.60121
G1 X101.579 Y205.000 E828.61890
G1 X100.869 Y204.600 E828.63658
G1 X101.579 Y204.200 E828.65427
G1 X100.869 Y203.800 E828.67195
G1 X101.579 Y203.400 E828.68964
G1 X100.869 Y203.200 E828.70804
G0 F12000 X100.869 Y202.800
G1 F2220 X113.579 Y202.800 E829.02509
G0 F12000 X113.579 Y202.400
G1 F2220 X100.869 Y202.400 E829.34214
G0 F12000 X100.869 Y202.000
G1 F2220 X113.579 Y202.000 E829.65920
G0 F12000 X113.579 Y201.600
G1 F2220 X100.869 Y201.600 E829.97625
G0 F12000 X100.869 Y201.200
G1 F2220 X113.579 Y201.200 E830.29330
G0 F12000 X113.579 Y200.800
G1 F2220 X100.869 Y200.800 E830.61035
G0 F12000 X100.869 Y200.400
G1 F2220 X113.579 Y200.400 E830.92740
G0 F12000 X113.579 Y200.000
G1 F2220 X100.869 Y200.000 E831.24446
G0 F12000 X100.869 Y199.600
G1 F2220 X113.579 Y199.600 E831.56151
G0 F12000 X113.579 Y199.200
G1 F2220 X100.869 Y199.200 E831.87856
G0 F12000 X100.869 Y198.800
G1 F2220 X113.579 Y198.800 E832.19561
G0 F12000 X113.579 Y198.400
G1 F2220 X100.869 Y198.400 E832.51267
G0 F12000 X100.869 Y198.000
G1 F2220 X113.579 Y198.000 E832.82972
G0 F12000 X113.579 Y197.600
G1 F2220 X100.869 Y197.600 E833.14677
G0 F12000 X100.869 Y197.200
G1 F2220 X113.579 Y197.200 E833.46382
G0 F12000 X113.579 Y196.800
G1 F2220 X100.869 Y196.800 E833.78087
G0 F12000 X100.869 Y196.400
G1 F2220 X113.579 Y196.400 E834.09793
G0 F12000 X113.579 Y196.000
G1 F2220 X100.869 Y196.000 E834.41498
G0 F12000 X100.869 Y195.600
G1 F2220 X113.579 Y195.600 E834.73203
G0 F12000 X113.579 Y195.200
G1 F2220 X100.869 Y195.200 E835.04908
G0 F12000 X100.869 Y194.800
G1 F2220 X113.579 Y194.800 E835.36614
G0 F12000 X113.579 Y194.400
G1 F2220 X100.869 Y194.400 E835.68319
G0 F12000 X100.869 Y194.000
G1 F2220 X113.579 Y194.000 E836.00024
G0 F12000 X113.579 Y193.600
G1 F2220 X100.869 Y193.600 E836.31729
G0 F12000 X100.869 Y193.200
G1 F2220 X113.579 Y193.200 E836.63434
G0 F12000 X113.579 Y192.800
G1 F2220 X100.869 Y192.800 E836.95140
G0 F12000 X100.869 Y192.400
G1 F2220 X113.579 Y192.400 E837.26845
G0 F12000 X113.579 Y192.000
G1 F2220 X100.869 Y192.000 E837.58550
G0 F12000 X100.869 Y191.600
G1 F2220 X113.579 Y191.600 E837.90255
G0 F12000 X113.579 Y191.200
G1 F2220 X100.869 Y191.200 E838.21961
G0 F12000 X100.869 Y190.800
G1 F2220 X113.579 Y190.800 E838.53666
G0 F12000 X113.579 Y190.400
G1 F2220 X100.869 Y190.400 E838.85371
G0 F12000 X100.869 Y190.000
G1 F2220 X113.579 Y190.000 E839.17076
G0 F12000 X113.579 Y189.600
G1 F2220 X100.869 Y189.600 E839.48781
G0 F12000 X100.869 Y189.200
G1 F2220 X113.579 Y189.200 E839.80487
G0 F12000 X113.579 Y188.800
G1 F2220 X100.869 Y188.800 E840.12192
G0 F12000 X100.869 Y188.400
G1 F2220 X113.579 Y188.400 E840.43897
G0 F12000 X113.579 Y188.000
G1 F2220 X100.869 Y188.000 E840.75602
G0 F12000 X100.869 Y187.600
G1 F2220 X113.579 Y187.600 E841.07308
G0 F12000 X113.579 Y187.200
G1 F2220 X100.869 Y187.200 E841.39013
G0 F12000 X100.869 Y186.800
G1 F2220 X113.579 Y186.800 E841.70718
G0 F12000 X113.579 Y186.400
G1 F2220 X100.869 Y186.400 E842.02423
G0 F12000 X100.869 Y186.000
G1 F2220 X113.579 Y186.000 E842.34128
G0 F12000 X113.579 Y185.600
G1 F2220 X100.869 Y185.600 E842.65834
G0 F12000 X100.869 Y185.200
G1 F2220 X113.579 Y185.200 E842.97539
G0 F12000 X113.579 Y184.800
G1 F2220 X100.869 Y184.800 E843.29244
G0 F12000 X100.869 Y184.400
G1 F2220 X113.579 Y184.400 E843.60949
G0 F12000 X113.579 Y184.000
G1 F2220 X100.869 Y184.000 E843.92655
G0 F12000 X100.869 Y183.600
G1 F2220 X113.579 Y183.600 E844.24360
G0 F12000 X113.579 Y183.200
G1 F2220 X100.869 Y183.200 E844.56065
G0 F12000 X100.869 Y182.800
G1 F2220 X113.579 Y182.800 E844.87770
G0 F12000 X113.579 Y182.400
G1 F2220 X100.869 Y182.400 E845.19475
G0 F12000 X100.869 Y182.000
G1 F2220 X113.579 Y182.000 E845.51181
G0 F12000 X113.579 Y181.600
G1 F2220 X100.869 Y181.600 E845.82886
G0 F12000 X100.869 Y181.200
G1 F2220 X113.579 Y181.200 E846.14591
G0 F12000 X113.579 Y180.800
G1 F2220 X100.869 Y180.800 E846.46296
G0 F12000 X100.869 Y180.400
G1 F2220 X113.579 Y180.400 E846.78002
G0 F12000 X113.579 Y180.000
G1 F2220 X100.869 Y180.000 E847.09707
G0 F12000 X100.869 Y179.600
G1 F2220 X113.579 Y179.600 E847.41412
G0 F12000 X113.579 Y179.200
G1 F2220 X100.869 Y179.200 E847.73117
G0 F12000 X100.869 Y178.800
G1 F2220 X113.579 Y178.800 E848.04822
G0 F12000 X113.579 Y178.400
G1 F2220 X100.869 Y178.400 E848.36528
G0 F12000 X100.869 Y178.000
G1 F2220 X113.579 Y178.000 E848.68233
G0 F12000 X113.579 Y177.600
G1 F2220 X100.869 Y177.600 E848.99938
G0 F12000 X100.869 Y177.200
G1 F2220 X113.579 Y177.200 E849.31643
G0 F12000 X113.579 Y176.800
G1 F2220 X100.869 Y176.800 E849.63349
G0 F12000 X100.869 Y176.400
G1 F2220 X113.579 Y176.400 E849.95054
G0 F12000 X113.579 Y176.000
G1 F2220 X100.869 Y176.000 E850.26759
G0 F12000 X100.869 Y175.600
G1 F2220 X113.579 Y175.600 E850.58464
G0 F12000 X113.579 Y175.200
G1 F2220 X100.869 Y175.200 E850.90170
G0 F12000 X100.869 Y174.800
G1 F2220 X113.579 Y174.800 E851.21875
G0 F12000 X113.579 Y174.400
G1 F2220 X100.869 Y174.400 E851.53580
G0 F12000 X100.869 Y174.000
G1 F2220 X113.579 Y174.000 E851.85285
G0 F12000 X113.579 Y173.600
G1 F2220 X100.869 Y173.600 E852.16990
G0 F12000 X100.869 Y173.200
G1 F2220 X113.579 Y173.200 E852.48696
G0 F12000 X113.579 Y172.800
G1 F2220 X100.869 Y172.800 E852.80401
G0 F12000 X100.869 Y172.400
G1 F2220 X113.579 Y172.400 E853.12106
G0 F12000 X113.579 Y172.000
G1 F2220 X100.869 Y172.000 E853.43811
G0 F12000 X100.869 Y171.600
G1 F2220 X113.579 Y171.600 E853.75517
G0 F12000 X113.579 Y171.200
G1 F2220 X100.869 Y171.200 E854.07222
G0 F12000 X100.869 Y170.800
G1 F2220 X113.579 Y170.800 E854.38927
G0 F12000 X113.579 Y170.400
G1 F2220 X100.869 Y170.400 E854.70632
G0 F12000 X100.869 Y170.000
G1 F2220 X113.579 Y170.000 E855.02337
G0 F12000 X113.579 Y169.600
G1 F2220 X100.869 Y169.600 E855.34043
G0 F12000 X100.869 Y169.200
G1 F2220 X113.579 Y169.200 E855.65748
G0 F12000 X113.579 Y168.800
G1 F2220 X100.869 Y168.800 E855.97453
G0 F12000 X100.869 Y168.400
G1 F2220 X113.579 Y168.400 E856.29158
G0 F12000 X113.579 Y168.000
G1 F2220 X100.869 Y168.000 E856.60864
G0 F12000 X100.869 Y167.600
G1 F2220 X113.579 Y167.600 E856.92569
G0 F12000 X113.579 Y167.200
G1 F2220 X100.869 Y167.200 E857.24274
G0 F12000 X100.869 Y166.800
G1 F2220 X113.579 Y166.800 E857.55979
G0 F12000 X113.579 Y166.400
G1 F2220 X100.869 Y166.400 E857.87684
G0 F12000 X100.869 Y166.000
G1 F2220 X113.579 Y166.000 E858.19390
G0 F12000 X113.579 Y165.600
G1 F2220 X100.869 Y165.600 E858.51095
G0 F12000 X100.869 Y165.200
G1 F2220 X113.579 Y165.200 E858.82800
G0 F12000 X113.579 Y164.800
G1 F2220 X100.869 Y164.800 E859.14505
G0 F12000 X100.869 Y164.400
G1 F2220 X113.579 Y164.400 E859.46211
G0 F12000 X113.579 Y164.000
G1 F2220 X100.869 Y164.000 E859.77916
G0 F12000 X100.869 Y163.600
G1 F2220 X113.579 Y163.600 E860.09621
G0 F12000 X113.579 Y163.200
G1 F2220 X100.869 Y163.200 E860.41326
G0 F12000 X100.869 Y162.800
G1 F2220 X113.579 Y162.800 E860.73031
G0 F12000 X113.579 Y162.400
G1 F2220 X100.869 Y162.400 E861.04737
G0 F12000 X100.869 Y162.000
G1 F2220 X113.579 Y162.000 E861.36442
G0 F12000 X113.579 Y161.600
G1 F2220 X100.869 Y161.600 E861.68147
G0 F12000 X100.869 Y161.200
G1 F2220 X113.579 Y161.200 E861.99852
G0 F12000 X113.579 Y160.800
G1 F2220 X100.869 Y160.800 E862.31558
G0 F12000 X100.869 Y160.400
G1 F2220 X113.579 Y160.400 E862.63263
G0 F12000 X113.579 Y160.000
G1 F2220 X100.869 Y160.000 E862.94968
G0 F12000 X100.869 Y159.600
G1 F2220 X113.579 Y159.600 E863.26673
G0 F12000 X113.579 Y159.200
G1 F2220 X100.869 Y159.200 E863.58378
G0 F12000 X100.869 Y158.800
G1 F2220 X113.579 Y158.800 E863.90084
G0 F12000 X113.579 Y158.400
G1 F2220 X100.869 Y158.400 E864.21789
G0 F12000 X100.869 Y158.000
G1 F2220 X113.579 Y158.000 E864.53494
G0 F12000 X113.579 Y157.600
G1 F2220 X100.869 Y157.600 E864.85199
G0 F12000 X100.869 Y157.200
G1 F2220 X113.579 Y157.200 E865.16905
G0 F12000 X113.579 Y156.800
G1 F2220 X100.869 Y156.800 E865.48610
G0 F12000 X100.869 Y156.400
G1 F2220 X113.579 Y156.400 E865.80315
G0 F12000 X113.579 Y156.000
G1 F2220 X100.869 Y156.000 E866.12020
G0 F12000 X100.869 Y155.600
G1 F2220 X113.579 Y155.600 E866.43725
G0 F12000 X113.579 Y155.200
G1 F2220 X100.869 Y155.200 E866.75431
G0 F12000 X100.869 Y154.800
G1 F2220 X113.579 Y154.800 E867.07136
G0 F12000 X113.579 Y154.400
G1 F2220 X100.869 Y154.400 E867.38841
G0 F12000 X100.869 Y154.000
G1 F2220 X113.579 Y154.000 E867.70546
G0 F12000 X113.579 Y153.600
G1 F2220 X100.869 Y153.600 E868.02252
G0 F12000 X100.869 Y153.200
G1 F2220 X113.579 Y153.200 E868.33957
G0 F12000 X113.579 Y152.800
G1 F2220 X100.869 Y152.800 E868.65662
G0 F12000 X100.869 Y152.400
G1 F2220 X113.579 Y152.400 E868.97367
G0 F12000 X113.579 Y152.000
G1 F2220 X100.869 Y152.000 E869.29072
G0 F12000 X100.869 Y151.600
G1 F2220 X113.579 Y151.600 E869.60778
G0 F12000 X113.579 Y151.200
G1 F2220 X100.869 Y151.200 E869.92483
G0 F12000 X100.869 Y150.800
G1 F2220 X113.579 Y150.800 E870.24188
G0 F12000 X113.579 Y150.400
G1 F2220 X100.869 Y150.400 E870.55893
G0 F12000 X100.869 Y150.000
G1 F2220 X113.579 Y150.000 E870.87599
G0 F12000 X113.579 Y149.600
G1 F2220 X100.869 Y149.600 E871.19304
G0 F12000 X100.869 Y149.200
G1 F2220 X113.579 Y149.200 E871.51009
G0 F12000 X113.579 Y148.800
G1 F2220 X100.869 Y148.800 E871.82714
G0 F12000 X100.869 Y148.400
G1 F2220 X113.579 Y148.400 E872.14419
G0 F12000 X113.579 Y148.000
G1 F2220 X100.869 Y148.000 E872.46125
G0 F12000 X100.869 Y147.600
G1 F2220 X113.579 Y147.600 E872.77830
G0 F12000 X113.579 Y147.200
G1 F2220 X100.869 Y147.200 E873.09535
G0 F12000 X100.869 Y146.800
G1 F2220 X113.579 Y146.800 E873.41240
G0 F12000 X113.579 Y146.400
G1 F2220 X100.869 Y146.400 E873.72946
G0 F12000 X100.869 Y146.000
G1 F2220 X113.579 Y146.000 E874.04651
G0 F12000 X113.579 Y145.600
G1 F2220 X100.869 Y145.600 E874.36356
G0 F12000 X100.869 Y145.200
G1 F2220 X113.579 Y145.200 E874.68061
G0 F12000 X113.579 Y144.800
G1 F2220 X100.869 Y144.800 E874.99767
G0 F12000 X100.869 Y144.400
G1 F2220 X113.579 Y144.400 E875.31472
G0 F12000 X113.579 Y144.000
G1 F2220 X100.869 Y144.000 E875.63177
G0 F12000 X100.869 Y143.600
G1 F2220 X113.579 Y143.600 E875.94882
G0 F12000 X113.579 Y143.200
G1 F2220 X100.869 Y143.200 E876.26587
G0 F12000 X100.869 Y142.800
G1 F2220 X113.579 Y142.800 E876.58293
G0 F12000 X113.579 Y142.400
G1 F2220 X100.869 Y142.400 E876.89998
G0 F12000 X100.869 Y142.000
G1 F2220 X113.579 Y142.000 E877.21703
G0 F12000 X113.579 Y141.600
G1 F2220 X100.869 Y141.600 E877.53408
G0 F12000 X100.869 Y141.200
G1 F2220 X113.579 Y141.200 E877.85114
G0 F12000 X113.579 Y140.800
G1 F2220 X100.869 Y140.800 E878.16819
G0 F12000 X100.869 Y140.400
G1 F2220 X113.579 Y140.400 E878.48524
G0 F12000 X113.579 Y140.000
G1 F2220 X100.869 Y140.000 E878.80229
G0 F12000 X100.869 Y139.600
G1 F2220 X113.579 Y139.600 E879.11934
G0 F12000 X113.579 Y139.200
G1 F2220 X100.869 Y139.200 E879.43640
G0 F12000 X100.869 Y138.800
G1 F2220 X113.579 Y138.800 E879.75345
G0 F12000 X113.579 Y138.400
G1 F2220 X100.869 Y138.400 E880.07050
G0 F12000 X100.869 Y138.000
G1 F2220 X113.579 Y138.000 E880.38755
G0 F12000 X113.579 Y137.600
G1 F2220 X100.869 Y137.600 E880.70461
G0 F12000 X100.869 Y137.200
G1 F2220 X113.579 Y137.200 E881.02166
G0 F12000 X113.579 Y136.800
G1 F2220 X100.869 Y136.800 E881.33871
G0 F12000 X100.869 Y136.400
G1 F2220 X113.579 Y136.400 E881.65576
G1 F2100 E881.25576
G0 F12000 X101.579 Y136.000
G1 F2100 E881.65576
G1 F2220 X100.869 Y135.800 E881.67347
G1 X101.579 Y135.400 E881.69116
G1 X100.869 Y135.000 E881.70884
G1 X101.579 Y134.600 E881.72653
G1 X100.869 Y134.200 E881.74422
G1 X101.579 Y133.800 E881.76190
G1 X100.869 Y133.400 E881.77959
G1 X101.579 Y133.000 E881.79727
G1 X100.869 Y132.600 E881.81496
G1 X101.579 Y132.200 E881.83264
G1 X100.869 Y131.800 E881.85033
G1 X101.579 Y131.400 E881.86801
G1 X100.869 Y131.000 E881.88570
G1 X101.579 Y130.600 E881.90339
G1 X100.869 Y130.200 E881.92107
G1 X101.579 Y129.800 E881.93876
G1 X100.869 Y129.400 E881.95644
G1 X101.579 Y129.000 E881.97413
G1 X100.869 Y128.600 E881.99181
G1 X101.579 Y128.200 E882.00950
G1 X100.869 Y127.800 E882.02719
G1 X101.579 Y127.400 E882.04487
G1 X100.869 Y127.000 E882.06256
G1 X101.579 Y126.600 E882.08024
G1 X100.869 Y126.200 E882.09793
G1 X101.579 Y125.800 E882.11561
G1 X100.869 Y125.400 E882.13330
G1 X101.579 Y125.000 E882.15099
G1 X100.869 Y124.600 E882.16867
G1 X101.579 Y124.200 E882.18636
G1 X100.869 Y123.800 E882.20404
G1 X101.579 Y123.400 E882.22173
G1 X100.864 Y123.000 E882.23941
G1 X101.579 Y122.600 E882.25734
G1 X100.804 Y122.400 E882.27731
G0 F12000 X100.646 Y122.000
G1 F2220 X101.579 Y122.000 E882.30058
G0 F12000 X101.579 Y121.600
G1 F2220 X100.379 Y121.600 E882.33051
G0 F12000 X99.934 Y121.200
G1 F2220 X101.579 Y121.200 E882.37155
G1 F2100 E881.97155
G0 F12000 X177.922 Y124.213
;TYPE:WALL-INNER
G1 F2100 E882.37155
G1 F2220 X177.922 Y116.063 E882.57485
G1 X216.862 Y116.063 E883.54621
G1 X229.009 Y137.100 E884.15218
G1 X254.145 Y137.100 E884.77920
