;FLAVOR:Repetier
;TIME:2295
;Generated with Cura_SteamEngine 2.5.0
M190 S60
M104 S220
M109 S220
G28 ;Home
G1 Z15.0 F6000 ;Move the platform down 15mm
;Prime the extruder
G92 E0
G1 F200 E3
G92 E0
;LAYER_COUNT:95
;LAYER:0
M106 S255
G0 F3300 X0.257 Y6.95 Z0.3
;TYPE:WALL-INNER
G1 F1800 X0.71 Y6.95 E0.02825
G1 X1.217 Y6.95 E0.05987
G1 X1.657 Y6.95 E0.08731
G1 X1.786 Y6.949 E0.09535
G1 X1.658 Y6.983
G1 X1.217 Y7.07
G1 X0.71 Y7.137 E0.10071
G1 X0.257 Y7.17 E0.11227
G1 X-1.431 Y7.184 E0.21755
G1 X-1.985 Y6.95 E0.25505
G1 X-1.431 Y6.95 E0.26256
G1 X0.257 Y6.95 E0.30625
G0 F3300 X0.282 Y7.67
G1 F1800 X-1.53 Y7.685 E0.41925
G1 X-3.181 Y6.986 E0.53106
G1 X-3.276 Y6.939 E0.53767
G1 X-3.654 Y6.751 E0.564
G1 X-4.054 Y6.52 E0.5928
G1 X-4.075 Y6.507 E0.59434
G1 X-4.453 Y6.253 E0.62275
G1 X-4.848 Y5.951 E0.65375
G1 X-5.202 Y5.646 E0.68289
G1 X-5.55 Y5.304 E0.71332
G1 X-6.112 Y4.751 E0.76249
G1 X-6.516 Y4.354 E0.79782
G1 X-6.656 Y4.006 E0.82121
G1 X-6.948 Y3.283 E0.86983
G1 X-7.209 Y2.639 E0.91317
G1 X-7.244 Y2.532 E0.92019
G1 X-7.357 Y2.198 E0.94218
G1 X-7.471 Y1.767 E0.96998
G1 X-7.476 Y1.75 E0.97109
G1 X-7.563 Y1.307 E0.99924
G1 X-7.608 Y0.965 E1.02075
G1 X-7.635 Y0.762 E1.03352
G1 X-7.67 Y0.283 E1.06348
G1 X-7.671 Y0.142 E1.07227
G1 X-7.677 Y-.64 E1.12104
G1 X-7.684 Y-1.422 E1.16981
G1 X-7.685 Y-1.531 E1.17661
G1 X-7.668 Y-1.571 E1.17932
G1 X-7.36 Y-2.301 E1.22873
G1 X-7.056 Y-3.019 E1.27735
G1 X-6.999 Y-3.153 E1.28643
G1 X-6.732 Y-3.69 E1.32383
G1 X-6.7 Y-3.745 E1.3278
G1 X-6.541 Y-4.019 E1.34756
G1 X-6.266 Y-4.432 E1.3785
G1 X-6.235 Y-4.477 E1.38191
G1 X-5.951 Y-4.849 E1.41109
G1 X-5.753 Y-5.077 E1.42993
G1 X-5.648 Y-5.199 E1.43996
G1 X-5.2 Y-5.655 E1.47983
G1 X-4.656 Y-6.208 E1.52821
G1 X-4.353 Y-6.517 E1.55519
G1 X-3.887 Y-6.705 E1.58653
G1 X-3.148 Y-7.004 E1.63625
G1 X-2.647 Y-7.207 E1.66996
G1 X-2.402 Y-7.289 E1.68607
G1 X-2.205 Y-7.355 E1.69903
G1 X-1.761 Y-7.473 E1.72768
G1 X-1.617 Y-7.501 E1.73683
G1 X-1.297 Y-7.564 E1.75716
G1 X-.822 Y-7.627 E1.78705
G1 X-.762 Y-7.635 E1.79082
G1 X-.282 Y-7.67 E1.82083
G1 X-0.004 Y-7.672 E1.83817
G1 X0.777 Y-7.678 E1.88688
G1 X1.531 Y-7.685 E1.9339
G1 X1.698 Y-7.615 E1.94519
G1 X2.424 Y-7.307 E1.99438
G1 X3.152 Y-6.999 E2.04367
G1 X3.162 Y-6.995 E2.04434
G1 X3.671 Y-6.743 E2.07976
G1 X3.876 Y-6.623 E2.09458
G1 X4.033 Y-6.531 E2.10593
G1 X4.477 Y-6.235 E2.1392
G1 X4.556 Y-6.175 E2.14539
G1 X4.875 Y-5.93 E2.17047
G1 X5.178 Y-5.667 E2.19549
G1 X5.189 Y-5.657 E2.19642
G1 X5.75 Y-5.107 E2.24542
G1 X6.311 Y-4.556 E2.29445
G1 X6.515 Y-4.356 E2.31227
G1 X6.759 Y-3.753 E2.35284
G1 X7.055 Y-3.022 E2.40202
G1 X7.208 Y-2.644 E2.42745
G1 X7.331 Y-2.275 E2.45171
G1 X7.356 Y-2.202 E2.45652
G1 X7.479 Y-1.736 E2.48658
G1 X7.53 Y-1.479 E2.50292
G1 X7.559 Y-1.337 E2.51195
G1 X7.635 Y-.769 E2.54769
G1 X7.641 Y-.674 E2.55363
G1 X7.67 Y-.285 E2.57795
G1 X7.673 Y0.133 E2.60402
G1 X7.68 Y0.926 E2.65348
G1 X7.685 Y1.531 E2.69121
G1 X7.56 Y1.827 E2.71125
G1 X7.257 Y2.544 E2.75979
G1 X6.991 Y3.171 E2.80226
G1 X6.935 Y3.284 E2.81013
G1 X6.745 Y3.667 E2.83679
G1 X6.554 Y3.997 E2.86057
G1 X6.541 Y4.019 E2.86216
G1 X6.241 Y4.468 E2.89584
G1 X6.088 Y4.668 E2.91154
G1 X5.957 Y4.839 E2.92498
G1 X5.629 Y5.219 E2.95628
G1 X5.561 Y5.288 E2.96232
G1 X4.355 Y6.516 E3.06966
G1 X4.092 Y6.622 E3.08734
G1 X3.348 Y6.923 E3.13739
G1 X2.647 Y7.207 E3.18456
G1 X2.205 Y7.355 E3.21363
G1 X1.761 Y7.473 E3.24228
G1 X1.297 Y7.564 E3.27177
G1 X0.762 Y7.635 E3.30543
G1 X0.282 Y7.67 E3.33544
G0 F3300 X4.021 Y6.449
G1 F1800 X4.162 Y6.315 E3.33611
G1 X5.403 Y5.135 E3.38905
G1 X5.456 Y5.073 E3.38942
G1 X5.783 Y4.69 E3.4006
G1 X5.914 Y4.537 E3.40275
G1 X6.05 Y4.339
G1 X6.355 Y3.893 E3.41762
G1 X6.361 Y3.884
G1 X6.539 Y3.556
G1 X6.74 Y3.187 E3.41888
G1 X6.78 Y3.086
G1 X7.038 Y2.452 E3.43873
G1 X7.254 Y1.699 E3.46659
G1 X7.298 Y1.461 E3.47529
G1 X7.397 Y0.929 E3.49752
G1 X7.455 Y0.135 E3.52283
G1 X7.44 Y-.277
G1 X7.426 Y-.657 E3.52694
G1 X7.415 Y-.737
G1 X7.333 Y-1.303 E3.54072
G1 X7.313 Y-1.436
G1 X7.252 Y-1.678 E3.5441
G1 X7.134 Y-2.145 E3.55671
G1 X7.119 Y-2.202 E3.55671
G1 X6.987 Y-2.562
G1 X6.848 Y-2.939 E3.56429
G1 X6.502 Y-3.648 E3.58889
G1 X6.186 Y-4.145 E3.61118
G1 X6.076 Y-4.317 E3.61865
G1 X5.584 Y-4.938 E3.64699
G1 X5.032 Y-5.498 E3.66927
G1 X4.727 Y-5.749
G1 X4.423 Y-5.999 E3.67236
G1 X4.353 Y-6.045
G1 X3.907 Y-6.339 E3.68483
G1 X3.765 Y-6.433
G1 X3.565 Y-6.535
G1 X3.064 Y-6.793 E3.7008
G1 X2.329 Y-7.081 E3.72387
G1 X1.562 Y-7.291 E3.75212
G1 X1.473 Y-7.305 E3.7542
G1 X0.78 Y-7.413 E3.78206
G1 X-0.002 Y-7.455 E3.80592
G1 X-.269 Y-7.442 E3.80949
G1 X-.75 Y-7.416 E3.82187
G1 X-.794 Y-7.413 E3.82278
G1 X-1.259 Y-7.337 E3.83188
G1 X-1.574 Y-7.284 E3.83682
G1 X-1.7 Y-7.25
G1 X-2.143 Y-7.131 E3.84708
G1 X-2.331 Y-7.08
G1 X-2.562 Y-6.991
G1 X-3.063 Y-6.796 E3.8623
G1 X-3.775 Y-6.431 E3.88832
G1 X-4.135 Y-6.19 E3.90631
G1 X-4.434 Y-5.99 E3.92146
G1 X-5.036 Y-5.495 E3.94823
G1 X-5.484 Y-5.039 E3.96403
G1 X-5.588 Y-4.934 E3.9656
G1 X-5.769 Y-4.706 E3.96985
G1 X-6.06 Y-4.339 E3.98215
G1 X-6.084 Y-4.31
G1 X-6.344 Y-3.896 E3.99199
G1 X-6.508 Y-3.635 E3.99299
G1 X-6.529 Y-3.592
G1 X-6.792 Y-3.051 E4.00779
G1 X-6.85 Y-2.933 E4.00893
G1 X-7.121 Y-2.2 E4.03245
G1 X-7.317 Y-1.437 E4.06272
G1 X-7.32 Y-1.425
G1 X-7.426 Y-.643 E4.09312
G1 X-7.455 Y0.14 E4.11617
G1 X-7.446 Y0.266 E4.11709
G1 X-7.411 Y0.745 E4.12748
G1 X-7.397 Y0.937 E4.12959
G1 X-7.336 Y1.264 E4.13464
G1 X-7.253 Y1.709 E4.14754
G1 X-7.132 Y2.133 E4.1503
G1 X-7.037 Y2.462 E4.15601
G1 X-7 Y2.551 E4.15654
G1 X-6.733 Y3.196 E4.17651
G1 X-6.361 Y3.887 E4.20346
G1 X-6.193 Y4.133 E4.21444
G1 X-5.911 Y4.547 E4.23496
G1 X-5.394 Y5.143 E4.26005
G1 X-5.042 Y5.476 E4.27379
G1 X-4.703 Y5.798 E4.28671
G1 X-4.344 Y6.138 E4.29295
G1 X-4.014 Y6.45
G1 X-3.655 Y6.45
G1 X-3.232 Y6.45 E4.31423
G1 X3.218 Y6.449 E4.71647
G1 X4.021 Y6.449 E4.75117
G0 F3300 X3.821 Y5.949
G1 F1800 X5.04 Y4.79 E4.85606
G1 X5.517 Y4.232 E4.90184
G1 X5.934 Y3.623 E4.94787
G1 X6.287 Y2.973 E4.994
G1 X6.565 Y2.289 E5.04004
G1 X6.767 Y1.584 E5.08578
G1 X6.9 Y0.865 E5.13138
G1 X6.954 Y0.126 E5.17759
G1 X6.927 Y-.612 E5.22364
G1 X6.822 Y-1.339 E5.26945
G1 X6.641 Y-2.054 E5.31545
G1 X6.388 Y-2.742 E5.36116
G1 X6.065 Y-3.403 E5.40704
G1 X5.668 Y-4.027 E5.45316
G1 X5.209 Y-4.606 E5.49924
G1 X4.694 Y-5.128 E5.54497
G1 X4.126 Y-5.596 E5.59087
G1 X3.512 Y-6.001 E5.63674
G1 X2.858 Y-6.337 E5.68259
G1 X2.172 Y-6.606 E5.72854
G1 X1.457 Y-6.801 E5.77476
G1 X0.728 Y-6.915 E5.82078
G1 X-0.002 Y-6.954 E5.86637
G1 X-.74 Y-6.915 E5.91245
G1 X-1.468 Y-6.795 E5.95847
G1 X-2.175 Y-6.604 E6.00414
G1 X-2.858 Y-6.339 E6.04983
G1 X-3.521 Y-5.999 E6.09629
G1 X-4.135 Y-5.588 E6.14237
G1 X-4.698 Y-5.125 E6.18783
G1 X-5.213 Y-4.602 E6.2336
G1 X-5.675 Y-4.021 E6.27989
G1 X-6.07 Y-3.392 E6.32621
G1 X-6.39 Y-2.736 E6.37173
G1 X-6.643 Y-2.051 E6.41727
G1 X-6.828 Y-1.329 E6.46375
G1 X-6.927 Y-.6 E6.50963
G1 X-6.954 Y0.131 E6.55525
G1 X-6.9 Y0.873 E6.60164
G1 X-6.766 Y1.594 E6.64738
G1 X-6.564 Y2.297 E6.69299
G1 X-6.281 Y2.981 E6.73916
G1 X-5.933 Y3.627 E6.78492
G1 X-5.514 Y4.241 E6.83127
G1 X-5.032 Y4.797 E6.87716
G1 X-3.815 Y5.95 E6.98171
G1 X3.821 Y5.949 E7.45791
G0 F3300 X2.821 Y7.676
G1 F1800 X2.344 Y7.835 E7.48927
G1 X1.868 Y7.962 E7.51999
G1 X1.377 Y8.058 E7.55119
G1 X0.813 Y8.133 E7.58667
G1 X0.308 Y8.17 E7.61825
G1 X-1.629 Y8.186 E7.73905
G1 X-3.402 Y7.435 E7.85913
G1 X-3.884 Y7.195 E7.89271
G1 X-4.341 Y6.931 E7.92562
G1 X-4.732 Y6.668 E7.95501
G1 X-5.168 Y6.335 E7.98922
G1 X-5.542 Y6.012 E8.02004
G1 X-6.941 Y4.637 E8.14237
G1 X-7.677 Y2.817 E8.2648
G1 X-7.836 Y2.342 E8.29604
G1 X-7.965 Y1.857 E8.32734
G1 X-8.057 Y1.387 E8.3572
G1 X-8.133 Y0.814 E8.39325
G1 X-8.17 Y0.308 E8.42489
G1 X-8.186 Y-1.629 E8.54569
G1 X-7.447 Y-3.376 E8.66398
G1 X-7.18 Y-3.913 E8.70138
G1 X-6.957 Y-4.297 E8.72908
G1 X-6.645 Y-4.764 E8.7641
G1 X-6.341 Y-5.162 E8.79533
G1 X-6.014 Y-5.54 E8.8265
G1 X-4.637 Y-6.941 E8.94901
G1 X-2.821 Y-7.676 E9.07119
G1 X-2.344 Y-7.835 E9.10254
G1 X-1.868 Y-7.962 E9.13326
G1 X-1.377 Y-8.058 E9.16446
G1 X-.813 Y-8.133 E9.19995
G1 X-.308 Y-8.17 E9.23152
G1 X1.629 Y-8.186 E9.35232
G1 X3.376 Y-7.447 E9.47062
G1 X3.91 Y-7.182 E9.5078
G1 X4.301 Y-6.954 E9.53602
G1 X4.764 Y-6.645 E9.57074
G1 X5.187 Y-6.321 E9.60396
G1 X5.531 Y-6.022 E9.63239
G1 X6.939 Y-4.64 E9.75542
G1 X7.677 Y-2.818 E9.87802
G1 X7.835 Y-2.345 E9.90912
G1 X7.967 Y-1.845 E9.94137
G1 X8.054 Y-1.413 E9.96885
G1 X8.133 Y-.821 E10.00609
G1 X8.17 Y-.31 E10.03804
G1 X8.186 Y1.629 E10.15897
G1 X7.443 Y3.385 E10.27788
G1 X7.188 Y3.899 E10.31366
G1 X6.964 Y4.285 E10.34149
G1 X6.646 Y4.762 E10.37724
G1 X6.341 Y5.161 E10.40856
G1 X6.002 Y5.552 E10.44084
G1 X4.639 Y6.94 E10.56215
G1 X2.821 Y7.676 E10.68447
G0 F3300 X2.991 Y8.146
G1 F1800 X2.492 Y8.313 E10.71728
G1 X1.968 Y8.452 E10.75109
G1 X1.46 Y8.552 E10.78338
G1 X0.866 Y8.631 E10.82075
G1 X0.333 Y8.67 E10.85408
G1 X-1.728 Y8.687 E10.98261
G1 X-3.61 Y7.89 E11.11007
G1 X-4.127 Y7.632 E11.1461
G1 X-4.599 Y7.359 E11.18011
G1 X-5.03 Y7.07 E11.21247
G1 X-5.481 Y6.725 E11.24788
G1 X-5.891 Y6.371 E11.28166
G1 X-7.364 Y4.923 E11.41047
G1 X-8.146 Y2.991 E11.54045
G1 X-8.315 Y2.485 E11.57372
G1 X-8.455 Y1.957 E11.60779
G1 X-8.551 Y1.47 E11.63874
G1 X-8.631 Y0.866 E11.67674
G1 X-8.67 Y0.333 E11.71007
G1 X-8.687 Y-1.728 E11.8386
G1 X-7.895 Y-3.599 E11.9653
G1 X-7.628 Y-4.136 E12.0027
G1 X-7.373 Y-4.575 E12.03436
G1 X-7.055 Y-5.051 E12.07006
G1 X-6.731 Y-5.475 E12.10334
G1 X-6.371 Y-5.891 E12.13765
G1 X-4.923 Y-7.364 E12.26646
G1 X-2.991 Y-8.146 E12.39644
G1 X-2.492 Y-8.313 E12.42926
G1 X-1.968 Y-8.452 E12.46307
G1 X-1.46 Y-8.552 E12.49535
G1 X-.866 Y-8.631 E12.53272
G1 X-.333 Y-8.67 E12.56605
G1 X1.728 Y-8.687 E12.69459
G1 X3.599 Y-7.895 E12.82129
G1 X4.136 Y-7.628 E12.85869
G1 X4.576 Y-7.372 E12.89044
G1 X5.051 Y-7.055 E12.92605
G1 X5.499 Y-6.712 E12.96124
G1 X5.873 Y-6.387 E12.99214
G1 X7.363 Y-4.924 E13.12236
G1 X8.146 Y-2.992 E13.25236
G1 X8.314 Y-2.488 E13.28549
G1 X8.455 Y-1.955 E13.31988
G1 X8.549 Y-1.488 E13.34958
G1 X8.631 Y-.873 E13.38828
G1 X8.67 Y-.335 E13.42192
G1 X8.687 Y1.728 E13.55058
G1 X7.895 Y3.599 E13.67728
G1 X7.631 Y4.131 E13.71432
G1 X7.38 Y4.563 E13.74547
G1 X7.061 Y5.041 E13.78131
G1 X6.725 Y5.481 E13.81584
G1 X6.368 Y5.893 E13.84984
G1 X4.923 Y7.364 E13.97843
G1 X2.991 Y8.146 E14.10841
G0 F3300 X3.621 Y5.449
G1 F1800 X4.677 Y4.445 E14.19928
G1 X5.12 Y3.927 E14.24178
G1 X5.507 Y3.362 E14.28449
G1 X5.834 Y2.759 E14.32727
G1 X6.092 Y2.125 E14.36996
G1 X6.28 Y1.47 E14.41245
G1 X6.403 Y0.801 E14.45487
G1 X6.453 Y0.117 E14.49764
G1 X6.428 Y-.567 E14.54033
G1 X6.331 Y-1.242 E14.58285
G1 X6.163 Y-1.906 E14.62557
G1 X5.928 Y-2.545 E14.66803
G1 X5.628 Y-3.158 E14.71059
G1 X5.26 Y-3.737 E14.75337
G1 X4.834 Y-4.274 E14.79612
G1 X4.356 Y-4.759 E14.83859
G1 X3.829 Y-5.193 E14.88116
G1 X3.259 Y-5.569 E14.92374
G1 X2.652 Y-5.881 E14.96631
G1 X2.015 Y-6.131 E15.00898
G1 X1.352 Y-6.311 E15.05182
G1 X0.676 Y-6.417 E15.0945
G1 X-0.002 Y-6.453 E15.13684
G1 X-.686 Y-6.417 E15.17955
G1 X-1.362 Y-6.306 E15.22228
G1 X-2.019 Y-6.128 E15.26473
G1 X-2.653 Y-5.882 E15.30714
G1 X-3.267 Y-5.567 E15.35017
G1 X-3.836 Y-5.186 E15.39288
G1 X-4.36 Y-4.755 E15.43519
G1 X-4.838 Y-4.27 E15.47765
G1 X-5.266 Y-3.732 E15.52053
G1 X-5.632 Y-3.149 E15.56346
G1 X-5.93 Y-2.539 E15.60579
G1 X-6.165 Y-1.902 E15.64814
G1 X-6.336 Y-1.233 E15.6912
G1 X-6.428 Y-.557 E15.73374
G1 X-6.453 Y0.122 E15.77612
G1 X-6.403 Y0.809 E15.81907
G1 X-6.279 Y1.479 E15.86157
G1 X-6.091 Y2.132 E15.90394
G1 X-5.829 Y2.766 E15.94672
G1 X-5.505 Y3.367 E15.9893
G1 X-5.117 Y3.935 E16.0322
G1 X-4.67 Y4.451 E16.07478
G1 X-3.616 Y5.45 E16.16534
G1 X3.621 Y5.449 E16.61666
G0 F3300 X3.421 Y4.949
G1 F1800 X4.314 Y4.1 E16.6935
G1 X4.723 Y3.622 E16.73273
G1 X5.08 Y3.101 E16.77212
G1 X5.381 Y2.545 E16.81155
G1 X5.619 Y1.961 E16.85088
G1 X5.793 Y1.356 E16.89013
G1 X5.906 Y0.738 E16.92931
G1 X5.952 Y0.108 E16.96871
G1 X5.929 Y-.522 E17.00802
G1 X5.84 Y-1.145 E17.04727
G1 X5.685 Y-1.758 E17.0867
G1 X5.468 Y-2.348 E17.1259
G1 X5.191 Y-2.913 E17.16515
G1 X4.852 Y-3.447 E17.20459
G1 X4.459 Y-3.942 E17.24401
G1 X4.018 Y-4.39 E17.28321
G1 X3.532 Y-4.79 E17.32246
G1 X3.006 Y-5.137 E17.36176
G1 X2.446 Y-5.425 E17.40103
G1 X1.858 Y-5.656 E17.44043
G1 X1.248 Y-5.821 E17.47984
G1 X0.624 Y-5.919 E17.51923
G1 X-0.002 Y-5.952 E17.55832
G1 X-.632 Y-5.919 E17.59767
G1 X-1.256 Y-5.817 E17.6371
G1 X-1.863 Y-5.652 E17.67632
G1 X-2.448 Y-5.425 E17.71546
G1 X-3.013 Y-5.135 E17.75506
G1 X-3.538 Y-4.784 E17.79445
G1 X-4.022 Y-4.386 E17.83352
G1 X-4.463 Y-3.938 E17.87273
G1 X-4.857 Y-3.443 E17.91218
G1 X-5.194 Y-2.906 E17.95172
G1 X-5.47 Y-2.342 E17.99088
G1 X-5.687 Y-1.753 E18.03002
G1 X-5.844 Y-1.137 E18.06967
G1 X-5.929 Y-.514 E18.10888
G1 X-5.952 Y0.113 E18.14801
G1 X-5.906 Y0.745 E18.18752
G1 X-5.792 Y1.364 E18.22677
G1 X-5.618 Y1.967 E18.26591
G1 X-5.377 Y2.551 E18.30531
G1 X-5.077 Y3.106 E18.34466
G1 X-4.72 Y3.629 E18.38415
G1 X-4.308 Y4.105 E18.42341
G1 X-3.417 Y4.95 E18.49999
G1 X3.421 Y4.949 E18.92642
G0 F3300 X6.734 Y6.234
G1 F1800 X5.207 Y7.788 E19.06229
G1 X3.165 Y8.615 E19.19968
G1 X2.631 Y8.793 E19.23479
G1 X2.075 Y8.941 E19.27067
G1 X1.54 Y9.046 E19.30467
G1 X0.919 Y9.129 E19.34374
G1 X0.358 Y9.17 E19.37882
G1 X-1.827 Y9.188 E19.51509
G1 X-3.831 Y8.339 E19.65081
G1 X-4.365 Y8.073 E19.68802
G1 X-4.85 Y7.792 E19.72297
G1 X-5.328 Y7.472 E19.75885
G1 X-5.803 Y7.109 E19.79613
G1 X-6.224 Y6.744 E19.83088
G1 X-7.788 Y5.207 E19.96763
G1 X-8.615 Y3.165 E20.10502
G1 X-8.794 Y2.628 E20.14032
G1 X-8.945 Y2.057 E20.17715
G1 X-9.044 Y1.555 E20.20906
G1 X-9.129 Y0.919 E20.24908
G1 X-9.17 Y0.358 E20.28416
G1 X-9.188 Y-1.827 E20.42042
G1 X-8.343 Y-3.822 E20.55554
G1 X-8.076 Y-4.359 E20.59294
G1 X-7.789 Y-4.853 E20.62857
G1 X-7.471 Y-5.329 E20.66426
G1 X-7.109 Y-5.803 E20.70146
G1 X-6.744 Y-6.224 E20.73621
G1 X-5.207 Y-7.788 E20.87296
G1 X-3.165 Y-8.615 E21.01035
G1 X-2.631 Y-8.793 E21.04545
G1 X-2.075 Y-8.941 E21.08133
G1 X-1.54 Y-9.046 E21.11533
G1 X-.919 Y-9.129 E21.15441
G1 X-.358 Y-9.17 E21.18949
G1 X1.827 Y-9.188 E21.32575
G1 X3.822 Y-8.343 E21.46087
G1 X4.359 Y-8.076 E21.49827
G1 X4.85 Y-7.791 E21.53367
G1 X5.338 Y-7.465 E21.57027
G1 X5.811 Y-7.103 E21.60741
G1 X6.215 Y-6.752 E21.64079
G1 X7.787 Y-5.208 E21.7782
G1 X8.616 Y-3.162 E21.91587
G1 X8.792 Y-2.636 E21.95046
G1 X8.943 Y-2.065 E21.9873
G1 X9.044 Y-1.563 E22.01923
G1 X9.129 Y-.925 E22.05937
G1 X9.17 Y-.36 E22.0947
G1 X9.188 Y1.827 E22.23109
G1 X8.343 Y3.822 E22.3662
G1 X8.077 Y4.357 E22.40346
G1 X7.796 Y4.841 E22.43836
G1 X7.469 Y5.33 E22.47505
G1 X7.117 Y5.792 E22.51127
G1 X6.734 Y6.234 E22.54774
G0 F3300 X5.788 Y7.91
G1 F1800 X6.205 Y8.326 E22.58448
G1 X6.413 Y8.534 E22.60282
G1 X6.173 Y8.705 E22.61418
G1 X5.914 Y8.889 E22.63399
G1 X5.682 Y9.035 E22.65109
G1 X5.432 Y9.192 E22.6695
G1 X5.32 Y8.919 E22.68087
G1 X5.094 Y8.373 E22.71772
G1 X3.335 Y9.085 E22.83606
G1 X2.779 Y9.271 E22.87262
G1 X2.175 Y9.431 E22.91159
G1 X1.622 Y9.54 E22.94674
G1 X0.974 Y9.627 E22.98751
G1 X0.382 Y9.67 E23.02453
G1 X-1.5 Y9.685 E23.1419
G1 X-1.5 Y10.277 E23.17882
G1 X-1.5 Y10.572 E23.19722
G1 X-1.791 Y10.523 E23.2086
G1 X-2.084 Y10.473 E23.22714
G1 X-2.372 Y10.407 E23.24556
G1 X-2.66 Y10.341 E23.26399
G1 X-2.547 Y10.068 E23.27537
G1 X-2.32 Y9.522 E23.31225
G1 X-4.039 Y8.794 E23.42867
G1 X-4.616 Y8.506 E23.46888
G1 X-5.113 Y8.218 E23.50471
G1 X-5.615 Y7.882 E23.54238
G1 X-6.125 Y7.492 E23.58242
G1 X-6.557 Y7.117 E23.61809
G1 X-7.91 Y5.788 E23.73636
G1 X-8.326 Y6.205 E23.7731
G1 X-8.535 Y6.414 E23.79153
G1 X-8.706 Y6.173 E23.80292
G1 X-8.874 Y5.936 E23.82103
G1 X-9.034 Y5.681 E23.83981
G1 X-9.191 Y5.431 E23.85822
G1 X-8.918 Y5.319 E23.86958
G1 X-8.373 Y5.094 E23.90635
G1 X-9.085 Y3.335 E24.0247
G1 X-9.271 Y2.779 E24.06126
G1 X-9.432 Y2.168 E24.10066
G1 X-9.54 Y1.622 E24.13537
G1 X-9.627 Y0.974 E24.17615
G1 X-9.67 Y0.382 E24.21316
G1 X-9.685 Y-1.5 E24.33053
G1 X-10.276 Y-1.5 E24.36739
G1 X-10.278 Y-1.5 E24.36751
G1 X-10.571 Y-1.5 E24.38579
G1 X-10.523 Y-1.79 E24.39713
G1 X-10.475 Y-2.072 E24.41497
G1 X-10.406 Y-2.372 E24.43416
G1 X-10.341 Y-2.66 E24.45258
G1 X-10.068 Y-2.547 E24.46396
G1 X-9.522 Y-2.32 E24.50083
G1 X-8.791 Y-4.045 E24.61767
G1 X-8.516 Y-4.597 E24.65613
