;FLAVOR:Repetier
;TIME:2392
;Generated with Cura_SteamEngine 2.5.0
M190 S60
M104 S220
M109 S220
G28 ;Home
G1 Z15.0 F6000 ;Move the platform down 15mm
;Prime the extruder
G92 E0
G1 F200 E3
G92 E0
;LAYER_COUNT:463
;LAYER:0
M106 S255
G0 F3300 X1.89 Y-4.484 Z0.3
;TYPE:WALL-INNER
G1 F1522.6 X1.853 Y-4.496 E0.00243
G1 X1.555 Y-4.597 E0.02205
G1 X1.272 Y-4.693 E0.04068
G1 X1.217 Y-4.712 E0.04431
G1 X0.97 Y-4.756 E0.05996
G1 X0.679 Y-4.808 E0.07839
G1 X0.518 Y-4.837 E0.0886
G1 X0.355 Y-4.842 E0.09877
G1 X0.082 Y-4.851 E0.1158
G1 X-.192 Y-4.862 E0.1329
G1 X-.523 Y-4.825 E0.15367
G1 X-.897 Y-4.782 E0.17715
G1 X-1.118 Y-4.724 E0.1914
G1 X-1.584 Y-4.6 E0.22147
G1 X-1.688 Y-4.556 E0.22851
G1 X-2.236 Y-4.321 E0.2657
G1 X-2.248 Y-4.314 E0.26656
G1 X-2.773 Y-3.991 E0.30501
G1 X-2.842 Y-3.949 E0.31004
G1 X-3.247 Y-3.611 E0.34294
G1 X-3.388 Y-3.493 E0.35441
G1 X-3.665 Y-3.181 E0.38042
G1 X-3.86 Y-2.961 E0.39876
G1 X-4.034 Y-2.696 E0.41853
G1 X-4.25 Y-2.368 E0.44302
G1 X-4.336 Y-2.181 E0.45586
G1 X-4.462 Y-1.911 E0.47444
G1 X-4.549 Y-1.726 E0.48719
G1 X-4.577 Y-1.632 E0.4933
G1 X-4.66 Y-1.353 E0.51146
G1 X-4.753 Y-1.044 E0.53158
G1 X-4.795 Y-.748 E0.55022
G1 X-4.839 Y-.442 E0.5695
G1 X-4.854 Y-.341 E0.57587
G1 X-4.854 Y-.165 E0.58685
G1 X-4.853 Y0.168 E0.60761
G1 X-4.852 Y0.369 E0.62015
G1 X-4.843 Y0.429 E0.62393
G1 X-4.79 Y0.785 E0.64638
G1 X-4.752 Y1.04 E0.66246
G1 X-4.747 Y1.07 E0.66435
G1 X-4.665 Y1.343 E0.68213
G1 X-4.574 Y1.641 E0.70156
G1 X-4.54 Y1.752 E0.7088
G1 X-4.463 Y1.915 E0.72004
G1 X-4.34 Y2.174 E0.73792
G1 X-4.236 Y2.393 E0.75304
G1 X-4.034 Y2.697 E0.77581
G1 X-3.843 Y2.985 E0.79736
G1 X-3.663 Y3.184 E0.81409
G1 X-3.367 Y3.512 E0.84164
G1 X-3.249 Y3.61 E0.85121
G1 X-2.82 Y3.964 E0.88589
G1 X-2.783 Y3.986 E0.88858
G1 X-2.248 Y4.311 E0.92762
G1 X-2.212 Y4.333 E0.93025
G1 X-1.687 Y4.555 E0.9658
G1 X-1.558 Y4.61 E0.97454
G1 X-1.121 Y4.722 E1.00267
G1 X-.87 Y4.787 E1.01884
G1 X-.513 Y4.826 E1.04124
G1 X-.164 Y4.864 E1.06313
G1 X0.083 Y4.854 E1.07855
G1 X0.353 Y4.843 E1.0954
G1 X0.546 Y4.835 E1.10745
G1 X0.69 Y4.809 E1.11657
G1 X0.96 Y4.758 E1.13371
G1 X1.243 Y4.704 E1.15168
G1 X1.268 Y4.696 E1.15331
G1 X1.54 Y4.602 E1.17126
G1 X1.875 Y4.487 E1.19335
G1 X1.915 Y4.473 E1.19599
G1 X2.097 Y4.379 E1.20877
G1 X2.398 Y4.223 E1.22991
G1 X2.546 Y4.146 E1.24031
G1 X2.632 Y4.084 E1.24692
G1 X2.893 Y3.896 E1.26698
G1 X3.123 Y3.731 E1.28464
G1 X3.373 Y3.489 E1.30633
G1 X3.56 Y3.308 E1.32256
G1 X3.632 Y3.238 E1.32883
G1 X3.771 Y3.057 E1.34306
G1 X3.937 Y2.841 E1.36005
G1 X4.066 Y2.673 E1.37326
G1 X4.263 Y2.316 E1.39868
G1 X4.41 Y2.052 E1.41753
G1 X4.512 Y1.783 E1.43547
G1 X4.663 Y1.39 E1.46173
G1 X4.704 Y1.203 E1.47366
G1 X4.816 Y0.695 E1.50611
G1 X4.821 Y0.613 E1.51123
G1 X4.866 Y-0.015 E1.55049
G1 X4.85 Y-.228 E1.56381
G1 X4.826 Y-.549 E1.58389
G1 X4.812 Y-.722 E1.59471
G1 X4.771 Y-.908 E1.60659
G1 X4.705 Y-1.198 E1.62514
G1 X4.656 Y-1.415 E1.63901
G1 X4.514 Y-1.782 E1.66355
G1 X4.418 Y-2.03 E1.68014
G1 X4.399 Y-2.077 E1.6833
G1 X4.259 Y-2.327 E1.70117
G1 X4.118 Y-2.577 E1.71907
G1 X4.051 Y-2.696 E1.72758
G1 X3.948 Y-2.828 E1.73802
G1 X3.763 Y-3.067 E1.75687
G1 X3.615 Y-3.258 E1.77194
G1 X3.572 Y-3.299 E1.77565
G1 X3.368 Y-3.494 E1.79324
G1 X3.112 Y-3.739 E1.81534
G1 X3.102 Y-3.748 E1.81618
G1 X2.907 Y-3.887 E1.83112
G1 X2.621 Y-4.09 E1.85299
G1 X2.523 Y-4.16 E1.8605
G1 X2.403 Y-4.221 E1.86889
G1 X2.11 Y-4.371 E1.88942
G1 X1.89 Y-4.484 E1.90484
G0 F3300 X1.932 Y-4.579
G1 F1522.6 X2.163 Y-4.475
G1 X2.455 Y-4.324
G1 X2.577 Y-4.25
G1 X2.687 Y-4.183
G1 X2.975 Y-3.984
G1 X3.167 Y-3.832
G1 X3.186 Y-3.817
G1 X3.449 Y-3.579
G1 X3.647 Y-3.379
G1 X3.692 Y-3.326
G1 X3.854 Y-3.139
G1 X4.039 Y-2.9
G1 X4.136 Y-2.752
G1 X4.215 Y-2.632
G1 X4.363 Y-2.386
G1 X4.491 Y-2.122
G1 X4.517 Y-2.069
G1 X4.626 Y-1.826
G1 X4.748 Y-1.445
G1 X4.82 Y-1.224
G1 X4.877 Y-.933
G1 X4.89 Y-.727
G1 X4.901 Y-.556
G1 X4.959 Y-.237
G1 X4.971 Y-0.021
G1 X4.973 Y-0.001 E1.9061
G1 X4.935 Y0.62 E1.91259
G1 X4.917 Y0.714
G1 X4.819 Y1.227 E1.91978
G1 X4.757 Y1.42
G1 X4.626 Y1.826
G1 X4.501 Y2.094
G1 X4.37 Y2.375
G1 X4.149 Y2.725
G1 X4.031 Y2.913
G1 X3.862 Y3.127
G1 X3.711 Y3.305
G1 X3.639 Y3.39
G1 X3.456 Y3.572
G1 X3.194 Y3.813
G1 X2.963 Y3.992
G1 X2.699 Y4.177
G1 X2.601 Y4.236
G1 X2.451 Y4.326
G1 X2.151 Y4.483
G1 X1.957 Y4.569
G1 X1.91 Y4.59
G1 X1.579 Y4.713
G1 X1.304 Y4.798
G1 X1.267 Y4.806
G1 X0.983 Y4.872
G1 X0.712 Y4.922
G1 X0.557 Y4.937
G1 X0.357 Y4.957
G1 X0.088 Y4.973
G1 X-.168 Y4.962
G1 X-.525 Y4.946
G1 X-.886 Y4.884
G1 X-1.151 Y4.838
G1 X-1.586 Y4.706 E1.92013
G1 X-1.731 Y4.662
G1 X-2.254 Y4.429 E1.928
G1 X-2.305 Y4.406
G1 X-2.84 Y4.083 E1.9366
G1 X-2.885 Y4.047
G1 X-3.323 Y3.701 E1.94438
G1 X-3.439 Y3.584
G1 X-3.752 Y3.266
G1 X-3.92 Y3.045
G1 X-4.135 Y2.764
G1 X-4.321 Y2.444
G1 X-4.448 Y2.226
G1 X-4.565 Y1.963
G1 X-4.634 Y1.792
G1 X-4.683 Y1.674
G1 X-4.775 Y1.377
G1 X-4.848 Y1.098
G1 X-4.86 Y1.055
G1 X-4.905 Y0.803
G1 X-4.952 Y0.446
G1 X-4.956 Y0.375
G1 X-4.968 Y0.169
G1 X-4.969 Y-.164
G1 X-4.958 Y-.348
G1 X-4.951 Y-.457
G1 X-4.912 Y-.764
G1 X-4.857 Y-1.063
G1 X-4.854 Y-1.074
G1 X-4.773 Y-1.387
G1 X-4.686 Y-1.663
G1 X-4.646 Y-1.764
G1 X-4.567 Y-1.959
G1 X-4.444 Y-2.231
G1 X-4.336 Y-2.418
G1 X-4.136 Y-2.762
G1 X-3.939 Y-3.02
G1 X-3.756 Y-3.26
G1 X-3.459 Y-3.561
G1 X-3.322 Y-3.7
G1 X-2.906 Y-4.029 E1.95166
G1 X-2.833 Y-4.087
G1 X-2.307 Y-4.406 E1.96025
G1 X-2.28 Y-4.418 E1.9603
G1 X-1.735 Y-4.662 E1.96855
G1 X-1.615 Y-4.698
G1 X-1.15 Y-4.84
G1 X-.915 Y-4.88
G1 X-.537 Y-4.945
G1 X-.196 Y-4.959
G1 X0.086 Y-4.972
G1 X0.359 Y-4.956
G1 X0.528 Y-4.94
G1 X0.699 Y-4.923
G1 X0.99 Y-4.869
G1 X1.239 Y-4.813
G1 X1.308 Y-4.797
G1 X1.592 Y-4.708
G1 X1.886 Y-4.6
G1 X1.932 Y-4.579
G0 F3300 X2.376 Y-4.928
;TYPE:WALL-OUTER
G1 F1522.6 X2.692 Y-4.764 E1.99076
G1 X2.972 Y-4.594 E2.01119
G1 X3.269 Y-4.388 E2.03373
G1 X3.508 Y-4.2 E2.05269
G1 X3.796 Y-3.94 E2.07689
G1 X4.015 Y-3.718 E2.09633
G1 X4.249 Y-3.446 E2.11871
G1 X4.443 Y-3.196 E2.13844
G1 X4.644 Y-2.889 E2.16133
G1 X4.805 Y-2.621 E2.18082
G1 X4.967 Y-2.288 E2.20392
G1 X5.095 Y-2.002 E2.22346
G1 X5.306 Y-1.347 E2.26637
G1 X5.374 Y-1 E2.28843
G1 X5.398 Y-.617 E2.31236
G1 X5.456 Y-.299 E2.33252
G1 X5.474 Y0.00 E2.3512
G1 X5.432 Y0.682 E2.39381
G1 X5.304 Y1.354 E2.43647
G1 X5.094 Y2.005 E2.47913
G1 X4.81 Y2.614 E2.52103
G1 X4.439 Y3.203 E2.56444
G1 X4.254 Y3.437 E2.58305
G1 X4.003 Y3.733 E2.60725
G1 X3.794 Y3.941 E2.62564
G1 X3.518 Y4.194 E2.64899
G1 X3.27 Y4.387 E2.66858
G1 X2.966 Y4.6 E2.69173
G1 X2.696 Y4.762 E2.71137
G1 X2.374 Y4.931 E2.73405
G1 X2.085 Y5.059 E2.75376
G1 X1.744 Y5.186 E2.77645
G1 X1.443 Y5.279 E2.7961
G1 X1.073 Y5.364 E2.81977
G1 X0.778 Y5.418 E2.83848
G1 X0.407 Y5.455 E2.86173
G1 X0.09 Y5.473 E2.88153
G1 X-.282 Y5.462 E2.90474
G1 X-.586 Y5.443 E2.92373
G1 X-1.26 Y5.327 E2.96638
G1 X-1.913 Y5.129 E3.00894
G1 X-2.536 Y4.851 E3.05148
G1 X-3.122 Y4.497 E3.09418
G1 X-3.658 Y4.073 E3.1368
G1 X-4.132 Y3.593 E3.17887
G1 X-4.551 Y3.043 E3.22199
G1 X-4.895 Y2.452 E3.26463
G1 X-5.022 Y2.167 E3.28409
G1 X-5.157 Y1.835 E3.30644
G1 X-5.253 Y1.525 E3.32668
G1 X-5.349 Y1.161 E3.35015
G1 X-5.401 Y0.87 E3.36859
G1 X-5.45 Y0.499 E3.39193
G1 X-5.468 Y0.18 E3.41185
G1 X-5.469 Y-.178 E3.43418
G1 X-5.449 Y-.504 E3.45455
G1 X-5.404 Y-.856 E3.47668
G1 X-5.344 Y-1.178 E3.4971
G1 X-5.254 Y-1.523 E3.51934
G1 X-5.156 Y-1.835 E3.53973
G1 X-5.023 Y-2.165 E3.56192
G1 X-4.893 Y-2.453 E3.58163
G1 X-4.553 Y-3.039 E3.62388
G1 X-4.131 Y-3.592 E3.66726
G1 X-3.657 Y-4.072 E3.70933
G1 X-3.121 Y-4.496 E3.75195
G1 X-2.536 Y-4.851 E3.79462
G1 X-1.914 Y-5.13 E3.83714
G1 X-1.261 Y-5.328 E3.87969
G1 X-.596 Y-5.442 E3.92177
G1 X-.275 Y-5.461 E3.94182
G1 X0.089 Y-5.473 E3.96453
G1 X0.407 Y-5.454 E3.9844
G1 X0.771 Y-5.419 E4.0072
G1 X1.082 Y-5.361 E4.02693
G1 X1.436 Y-5.281 E4.04957
G1 X1.742 Y-5.185 E4.06957
G1 X2.086 Y-5.059 E4.09241
G1 X2.376 Y-4.928 E4.11226
G0 F3300 X2.597 Y-4.813
G0 X1.695 Y-4.022
G1 F1522.6 X1.092 Y-4.226 E4.15196
G1 X0.465 Y-4.339 E4.19169
G1 X-.172 Y-4.361 E4.23144
G1 X-.804 Y-4.289 E4.2711
G1 X-1.421 Y-4.126 E4.3109
G1 X-2.006 Y-3.876 E4.35058
G1 X-2.549 Y-3.542 E4.39033
G1 X-3.039 Y-3.133 E4.43014
G1 X-3.462 Y-2.656 E4.46989
G1 X-3.812 Y-2.124 E4.50961
G1 X-4.08 Y-1.548 E4.54923
G1 X-4.263 Y-.936 E4.58906
G1 X-4.354 Y-.306 E4.62876
G1 X-4.352 Y0.331 E4.66848
G1 X-4.258 Y0.96 E4.70815
G1 X-4.072 Y1.571 E4.74798
G1 X-3.8 Y2.146 E4.78764
G1 X-3.447 Y2.677 E4.82741
G1 X-3.02 Y3.15 E4.86715
G1 X-2.529 Y3.556 E4.90688
G1 X-1.984 Y3.887 E4.94664
G1 X-1.397 Y4.135 E4.98638
G1 X-.78 Y4.294 E5.02612
G1 X-.147 Y4.363 E5.06583
G1 X0.489 Y4.337 E5.10552
G1 X1.115 Y4.219 E5.14525
G1 X1.718 Y4.012 E5.18501
G1 X2.283 Y3.719 E5.2247
G1 X2.801 Y3.346 E5.26451
G1 X3.258 Y2.904 E5.30416
G1 X3.647 Y2.398 E5.34396
G1 X3.956 Y1.841 E5.38368
G1 X4.183 Y1.246 E5.4234
G1 X4.32 Y0.623 E5.46318
G1 X4.365 Y-0.013 E5.50294
G1 X4.316 Y-.647 E5.5426
G1 X4.176 Y-1.269 E5.58236
G1 X3.946 Y-1.863 E5.62208
G1 X3.633 Y-2.418 E5.66182
G1 X3.242 Y-2.922 E5.7016
G1 X2.783 Y-3.362 E5.74125
G1 X2.263 Y-3.731 E5.78101
G1 X1.695 Y-4.022 E5.82081
G0 F3300 X1.458 Y-4.102
G1 F6600 E3.82081
G0 F3300 X-2.204 Y4.337
;TIME_ELAPSED:5.584312
;LAYER:1
M140 S60
G0 F4950 X-2.204 Y4.337 Z0.45
;TYPE:WALL-INNER
G1 F6600 E5.82081
G1 F1549.2 X-1.707 Y4.545 E5.83761
G1 X-1.549 Y4.612 E5.84296
G1 X-1.137 Y4.717 E5.85622
G1 X-.861 Y4.788 E5.86511
G1 X-.563 Y4.819 E5.87445
G1 X-.155 Y4.863 E5.88724
G1 X0.028 Y4.856 E5.89295
G1 X0.509 Y4.835 E5.90797
G1 X0.555 Y4.833 E5.9094
G1 X0.614 Y4.822 E5.91127
G1 X1.207 Y4.71 E5.93009
G1 X1.251 Y4.701 E5.93149
G1 X1.777 Y4.52 E5.94884
G1 X1.923 Y4.469 E5.95366
G1 X2.2 Y4.325 E5.96339
G1 X2.304 Y4.271 E5.96705
G1 X2.554 Y4.141 E5.97583
G1 X2.712 Y4.027 E5.98191
G1 X3.13 Y3.725 E5.99799
G1 X3.168 Y3.688 E5.99964
G1 X3.616 Y3.251 E6.01916
G1 X3.638 Y3.23 E6.02011
G1 X3.977 Y2.786 E6.03752
G1 X4.071 Y2.664 E6.04233
G1 X4.283 Y2.279 E6.05603
G1 X4.414 Y2.043 E6.06445
G1 X4.527 Y1.745 E6.07439
G1 X4.665 Y1.38 E6.08655
G1 X4.705 Y1.193 E6.09252
G1 X4.816 Y0.688 E6.10864
G1 X4.821 Y0.608 E6.11114
G1 X4.866 Y-0.022 E6.13083
G1 X4.835 Y-.434 E6.14371
G1 X4.811 Y-.732 E6.15304
G1 X4.766 Y-.93 E6.15937
G1 X4.728 Y-1.096 E6.16468
G1 X4.709 Y-1.177 E6.16727
G1 X4.652 Y-1.424 E6.17518
G1 X4.528 Y-1.744 E6.18588
G1 X4.394 Y-2.087 E6.19736
G1 X4.282 Y-2.284 E6.20443
G1 X4.044 Y-2.702 E6.21942
G1 X3.976 Y-2.79 E6.22289
G1 X3.694 Y-3.153 E6.23723
G1 X3.608 Y-3.263 E6.24158
G1 X3.269 Y-3.587 E6.2562
G1 X3.176 Y-3.675 E6.26019
G1 X3.094 Y-3.753 E6.26372
G1 X2.803 Y-3.96 E6.27486
G1 X2.705 Y-4.03 E6.27861
G1 X2.516 Y-4.164 E6.28584
G1 X2.32 Y-4.263 E6.29268
G1 X1.882 Y-4.486 E6.30801
G1 X1.785 Y-4.519 E6.3112
G1 X1.208 Y-4.714 E6.3302
G1 X0.617 Y-4.819 E6.34891
G1 X0.509 Y-4.839 E6.35234
G1 X0.032 Y-4.853 E6.36722
G1 X-.2 Y-4.861 E6.37446
G1 X-.56 Y-4.82 E6.38575
G1 X-.907 Y-4.78 E6.39665
G1 X-1.134 Y-4.72 E6.40397
G1 X-1.592 Y-4.597 E6.41875
G1 X-1.698 Y-4.552 E6.42234
G1 X-2.245 Y-4.316 E6.44092
G1 X-2.778 Y-3.988 E6.46043
G1 X-2.849 Y-3.944 E6.46304
G1 X-3.238 Y-3.618 E6.47887
G1 X-3.394 Y-3.487 E6.48522
G1 X-3.646 Y-3.203 E6.49706
G1 X-3.866 Y-2.954 E6.50742
G1 X-4.004 Y-2.742 E6.5153
G1 X-4.253 Y-2.361 E6.5295
G1 X-4.316 Y-2.225 E6.53417
G1 X-4.553 Y-1.717 E6.55165
G1 X-4.556 Y-1.707 E6.55197
G1 X-4.731 Y-1.111 E6.57134
G1 X-4.754 Y-1.034 E6.57385
G1 X-4.811 Y-.631 E6.58654
G1 X-4.854 Y-.332 E6.59596
G1 X-4.854 Y-0.059 E6.60447
G1 X-4.853 Y0.056 E6.60806
G1 X-4.851 Y0.378 E6.6181
G1 X-4.829 Y0.522 E6.62264
G1 X-4.811 Y0.639 E6.62633
G1 X-4.743 Y1.08 E6.64025
G1 X-4.738 Y1.099 E6.64086
G1 X-4.704 Y1.21 E6.64448
G1 X-4.557 Y1.695 E6.66028
G1 X-4.537 Y1.76 E6.6624
G1 X-4.314 Y2.228 E6.67857
G1 X-4.231 Y2.401 E6.68455
G1 X-4.008 Y2.734 E6.69705
G1 X-3.837 Y2.99 E6.70664
G1 X-3.648 Y3.199 E6.71543
G1 X-3.36 Y3.517 E6.72881
G1 X-3.241 Y3.615 E6.73362
G1 X-2.812 Y3.97 E6.75098
G1 X-2.779 Y3.99 E6.75218
G1 X-2.241 Y4.314 E6.77176
G1 X-2.204 Y4.337 E6.77312
G0 F4950 X-2.308 Y4.57
G1 F1549.2 X-2.376 Y4.539 E6.77312
G1 X-2.914 Y4.215 E6.7834
G1 X-2.969 Y4.172 E6.78424
G1 X-3.412 Y3.824 E6.7935
G1 X-3.539 Y3.696 E6.79545
G1 X-3.85 Y3.382 E6.80278
G1 X-4.034 Y3.144 E6.80622
G1 X-4.234 Y2.886
G1 X-4.446 Y2.528 E6.80798
G1 X-4.555 Y2.344 E6.80902
G1 X-4.767 Y1.86 E6.81761
G1 X-4.807 Y1.771 E6.81867
G1 X-4.957 Y1.287 E6.82615
G1 X-4.986 Y1.174 E6.82723
G1 X-4.994 Y1.127
G1 X-5.077 Y0.68 E6.83472
G1 X-5.092 Y0.563 E6.83508
G1 X-5.102 Y0.393 E6.83671
G1 X-5.122 Y0.058
G1 X-5.123 Y-0.058
G1 X-5.102 Y-.349 E6.83789
G1 X-5.079 Y-.668
G1 X-5.003 Y-1.08 E6.83966
G1 X-4.983 Y-1.186
G1 X-4.804 Y-1.779 E6.84969
G1 X-4.787 Y-1.819 E6.84998
G1 X-4.559 Y-2.337 E6.85922
G1 X-4.469 Y-2.489 E6.85987
G1 X-4.23 Y-2.888 E6.86749
G1 X-4.062 Y-3.105 E6.87051
G1 X-3.848 Y-3.382
G1 X-3.571 Y-3.662 E6.87411
G1 X-3.411 Y-3.823
G1 X-3.004 Y-4.142 E6.88256
G1 X-2.916 Y-4.211 E6.88374
G1 X-2.378 Y-4.538 E6.89397
G1 X-2.351 Y-4.55 E6.89489
G1 X-1.804 Y-4.796 E6.90468
G1 X-1.667 Y-4.838 E6.9062
G1 X-1.204 Y-4.981 E6.91417
G1 X-.951 Y-5.026 E6.91698
G1 X-.592 Y-5.09
G1 X-.212 Y-5.109 E6.91798
G1 X0.04 Y-5.123 E6.91936
G1 X0.526 Y-5.09 E6.92735
G1 X0.662 Y-5.08
G1 X1.257 Y-4.964 E6.93719
G1 X1.277 Y-4.96 E6.93767
G1 X1.869 Y-4.771 E6.94783
G1 X1.988 Y-4.716 E6.94924
G1 X2.441 Y-4.504 E6.95745
G1 X2.646 Y-4.38 E6.96005
G1 X2.86 Y-4.25
G1 X2.96 Y-4.18
G1 X3.25 Y-3.953 E6.96447
G1 X3.358 Y-3.868
G1 X3.455 Y-3.782
G1 X3.791 Y-3.445 E6.97234
G1 X3.808 Y-3.427
G1 X3.904 Y-3.316 E6.97377
G1 X4.186 Y-2.954 E6.98135
G1 X4.259 Y-2.835 E6.98285
G1 X4.516 Y-2.418 E6.99086
G1 X4.62 Y-2.191 E6.99358
G1 X4.78 Y-1.843
G1 X4.889 Y-1.499 E6.99423
G1 X4.972 Y-1.238 E6.99512
G1 X4.988 Y-1.155
G1 X5 Y-.984
G1 X5.038 Y-.774 E6.99677
G1 X5.096 Y-.455
G1 X5.12 Y-0.036 E6.99897
G1 X5.123 Y0.00 E7.00009
G1 X5.085 Y0.625 E7.00965
G1 X5.066 Y0.733 E7.01005
G1 X4.97 Y1.25 E7.01753
G1 X4.905 Y1.455 E7.01988
G1 X4.782 Y1.841
G1 X4.642 Y2.147 E7.02383
G1 X4.521 Y2.41
G1 X4.284 Y2.795 E7.03128
G1 X4.19 Y2.948 E7.03214
G1 X3.838 Y3.39 E7.04141
G1 X3.799 Y3.438 E7.04148
G1 X3.352 Y3.875 E7.05168
G1 X3.285 Y3.926 E7.05264
G1 X2.869 Y4.244 E7.06119
G1 X2.685 Y4.355 E7.06344
G1 X2.429 Y4.51
G1 X2.325 Y4.565
G1 X2.027 Y4.699 E7.06718
G1 X1.864 Y4.773 E7.06907
G1 X1.329 Y4.943 E7.07823
G1 X1.256 Y4.967 E7.07913
G1 X0.663 Y5.08 E7.08897
G1 X0.58 Y5.088 E7.08988
G1 X0.519 Y5.094 E7.09052
G1 X0.039 Y5.122 E7.09841
G1 X-.168 Y5.112
G1 X-.591 Y5.09 E7.10113
G1 X-.905 Y5.034 E7.10116
G1 X-1.203 Y4.98
G1 X-1.621 Y4.852 E7.10836
G1 X-1.811 Y4.793
G1 X-2.308 Y4.57 E7.11728
G0 F4950 X-2.61 Y4.982
;TYPE:WALL-OUTER
G1 F1549.2 X-3.2 Y4.626 E7.13876
G1 X-3.745 Y4.198 E7.16037
G1 X-4.225 Y3.714 E7.18163
G1 X-4.649 Y3.166 E7.20323
G1 X-5.002 Y2.571 E7.2248
G1 X-5.277 Y1.944 E7.24615
G1 X-5.435 Y1.435 E7.26277
G1 X-5.475 Y1.282 E7.2677
G1 X-5.571 Y0.76 E7.28425
G1 X-5.59 Y0.611 E7.28893
G1 X-5.622 Y0.073 E7.30574
G1 X-5.623 Y-0.071 E7.31023
G1 X-5.589 Y-.614 E7.32719
G1 X-5.571 Y-.759 E7.33175
G1 X-5.474 Y-1.285 E7.34843
G1 X-5.435 Y-1.435 E7.35326
G1 X-5.275 Y-1.948 E7.37002
G1 X-5.219 Y-2.088 E7.37472
G1 X-5.001 Y-2.572 E7.39127
G1 X-4.648 Y-3.165 E7.41279
G1 X-4.223 Y-3.714 E7.43444
G1 X-3.744 Y-4.197 E7.45565
G1 X-3.199 Y-4.625 E7.47726
G1 X-2.613 Y-4.98 E7.49862
G1 X-1.98 Y-5.265 E7.52027
G1 X-1.324 Y-5.467 E7.54167
G1 X-.65 Y-5.587 E7.56302
G1 X0.048 Y-5.624 E7.58481
G1 X0.728 Y-5.577 E7.60607
G1 X1.4 Y-5.446 E7.62741
G1 X1.912 Y-5.287 E7.64413
G1 X2.053 Y-5.236 E7.64881
G1 X2.545 Y-5.013 E7.66565
G1 X2.683 Y-4.942 E7.67049
G1 X3.132 Y-4.67 E7.68686
G1 X3.258 Y-4.582 E7.69165
G1 X3.681 Y-4.25 E7.70842
G1 X3.805 Y-4.14 E7.71359
G1 X4.167 Y-3.776 E7.72959
G1 X4.282 Y-3.643 E7.73508
G1 X4.596 Y-3.24 E7.75101
G1 X4.693 Y-3.093 E7.7565
G1 X4.957 Y-2.656 E7.77242
G1 X5.249 Y-2.02 E7.79424
G1 X5.457 Y-1.364 E7.8157
G1 X5.485 Y-1.22 E7.82027
G1 X5.497 Y-1.046 E7.82571
G1 X5.593 Y-.515 E7.84254
G1 X5.624 Y0.00 E7.85862
G1 X5.582 Y0.69 E7.88018
G1 X5.456 Y1.371 E7.90177
G1 X5.25 Y2.021 E7.92303
G1 X4.964 Y2.645 E7.94444
G1 X4.599 Y3.237 E7.96612
G1 X4.17 Y3.775 E7.98758
G1 X3.801 Y4.142 E8.00381
G1 X3.676 Y4.257 E8.0091
G1 X3.259 Y4.581 E8.02557
