;FLAVOR:Repetier
;TIME:2400
;Generated with Cura_SteamEngine 2.5.0
M190 S60
M104 S220
M109 S220
G28 ;Home
G1 Z15.0 F6000 ;Move the platform down 15mm
;Prime the extruder
G92 E0
G1 F200 E3
G92 E0
;LAYER_COUNT:467
;LAYER:0
M106 S255
G0 F3300 X-5.095 Y0.015 Z0.3
;TYPE:WALL-INNER
G1 F1602.4 X-5.05 Y0.622 E0.03796
G1 X-5.041 Y0.74 E0.04534
G1 X-4.931 Y1.242 E0.07739
G1 X-4.885 Y1.449 E0.09061
G1 X-4.741 Y1.834 E0.11625
G1 X-4.628 Y2.132 E0.13612
G1 X-4.488 Y2.386 E0.15421
G1 X-4.277 Y2.769 E0.18148
G1 X-4.156 Y2.93 E0.19404
G1 X-3.84 Y3.35 E0.22681
G1 X-3.77 Y3.419 E0.23294
G1 X-3.323 Y3.864 E0.27228
G1 X-2.814 Y4.244 E0.31189
G1 X-2.741 Y4.299 E0.31759
G1 X-2.268 Y4.554 E0.3511
G1 X-2.1 Y4.645 E0.36302
G1 X-1.686 Y4.798 E0.39054
G1 X-1.417 Y4.898 E0.40844
G1 X-1.101 Y4.965 E0.42859
G1 X-.706 Y5.05 E0.45378
G1 X-.48 Y5.065 E0.46791
G1 X0.02 Y5.1 E0.49917
G1 X0.144 Y5.091 E0.50692
G1 X0.745 Y5.046 E0.5445
G1 X0.768 Y5.041 E0.54597
G1 X1.405 Y4.901 E0.58664
G1 X1.455 Y4.89 E0.58984
G1 X1.979 Y4.693 E0.62475
G1 X2.136 Y4.634 E0.63521
G1 X2.545 Y4.41 E0.66429
G1 X2.775 Y4.284 E0.68064
G1 X3.066 Y4.065 E0.70336
G1 X3.357 Y3.846 E0.72607
G1 X3.535 Y3.667 E0.74181
G1 X3.87 Y3.329 E0.77149
G1 X3.959 Y3.209 E0.78081
G1 X4.305 Y2.746 E0.81685
G1 X4.333 Y2.694 E0.82054
G1 X4.634 Y2.135 E0.86013
G1 X4.65 Y2.106 E0.86219
G1 X4.86 Y1.54 E0.89984
G1 X4.904 Y1.423 E0.90764
G1 X5.006 Y0.944 E0.93818
G1 X5.056 Y0.712 E0.95298
G1 X5.082 Y0.322 E0.97736
G1 X5.106 Y-0.015 E0.99842
G1 X5.085 Y-.302 E1.01637
G1 X5.052 Y-.74 E1.04376
G1 X5.014 Y-.916 E1.05499
G1 X4.896 Y-1.449 E1.08904
G1 X4.865 Y-1.532 E1.09456
G1 X4.644 Y-2.121 E1.13379
G1 X4.64 Y-2.131 E1.13447
G1 X4.336 Y-2.686 E1.17393
G1 X4.29 Y-2.769 E1.17985
G1 X3.975 Y-3.188 E1.21254
G1 X3.852 Y-3.351 E1.22527
G1 X3.553 Y-3.648 E1.25155
G1 X3.335 Y-3.864 E1.27069
G1 X3.081 Y-4.053 E1.29044
G1 X2.752 Y-4.299 E1.31605
G1 X2.565 Y-4.4 E1.32931
G1 X2.111 Y-4.644 E1.36145
G1 X2.015 Y-4.679 E1.36782
G1 X1.429 Y-4.898 E1.40684
G1 X1.414 Y-4.901 E1.40779
G1 X0.799 Y-5.032 E1.447
G1 X0.717 Y-5.05 E1.45224
G1 X0.165 Y-5.088 E1.48675
G1 X-0.01 Y-5.101 E1.49769
G1 X-.461 Y-5.067 E1.52589
G1 X-.734 Y-5.046 E1.54297
G1 X-1.063 Y-4.974 E1.56397
G1 X-1.443 Y-4.89 E1.58824
G1 X-1.681 Y-4.801 E1.60409
G1 X-2.125 Y-4.634 E1.63367
G1 X-2.243 Y-4.57 E1.64204
G1 X-2.764 Y-4.284 E1.67911
G1 X-2.795 Y-4.26 E1.68155
G1 X-3.309 Y-3.874 E1.72164
G1 X-3.345 Y-3.846 E1.72448
G1 X-3.755 Y-3.432 E1.76082
G1 X-3.858 Y-3.329 E1.7699
G1 X-4.144 Y-2.944 E1.79981
G1 X-4.292 Y-2.746 E1.81523
G1 X-4.47 Y-2.418 E1.8385
G1 X-4.639 Y-2.107 E1.86058
G1 X-4.736 Y-1.844 E1.87806
G1 X-4.893 Y-1.423 E1.90608
G1 X-4.927 Y-1.261 E1.9164
G1 X-5.045 Y-.712 E1.95142
G1 X-5.049 Y-.643 E1.95573
G1 X-5.093 Y-0.008 E1.99543
G1 X-5.095 Y0.015 E1.99687
G0 F3300 X-5.239 Y0.024
G1 F1602.4 X-5.242 Y-0.019
G1 X-5.201 Y-.652 E2.00726
G1 X-5.185 Y-.737 E2.00738
G1 X-5.08 Y-1.293 E2.01796
G1 X-5.026 Y-1.464 E2.01811
G1 X-4.886 Y-1.899
G1 X-4.764 Y-2.164 E2.01893
G1 X-4.611 Y-2.493
G1 X-4.41 Y-2.818 E2.02093
G1 X-4.273 Y-3.039
G1 X-3.968 Y-3.416 E2.03009
G1 X-3.866 Y-3.542
G1 X-3.445 Y-3.949 E2.04105
G1 X-3.399 Y-3.993
G1 X-2.886 Y-4.378 E2.05212
G1 X-2.836 Y-4.406 E2.05231
G1 X-2.318 Y-4.705 E2.0634
G1 X-2.18 Y-4.762 E2.06346
G1 X-1.737 Y-4.948
G1 X-1.481 Y-5.021 E2.064
G1 X-1.098 Y-5.13
G1 X-.755 Y-5.182 E2.06544
G1 X-.474 Y-5.225
G1 X-0.014 Y-5.239
G1 X0.176 Y-5.245
G1 X0.73 Y-5.191 E2.07585
G1 X0.829 Y-5.181
G1 X1.444 Y-5.046 E2.08733
G1 X1.477 Y-5.035
G1 X2.068 Y-4.826 E2.0991
G1 X2.175 Y-4.773
G1 X2.639 Y-4.539 E2.10894
G1 X2.828 Y-4.414 E2.10931
G1 X3.176 Y-4.182
G1 X3.425 Y-3.969
G1 X3.665 Y-3.762
G1 X3.954 Y-3.444 E2.11213
G1 X4.1 Y-3.283
G1 X4.405 Y-2.85 E2.12205
G1 X4.469 Y-2.759
G1 X4.767 Y-2.2 E2.1337
G1 X4.782 Y-2.173 E2.13402
G1 X5.008 Y-1.586 E2.14574
G1 X5.033 Y-1.484 E2.14583
G1 X5.166 Y-.95 E2.15608
G1 X5.189 Y-.758 E2.15622
G1 X5.244 Y-.315
G1 X5.244 Y-0.015
G1 X5.243 Y0.333
G1 X5.193 Y0.728 E2.15853
G1 X5.161 Y0.976
G1 X5.04 Y1.457 E2.16786
G1 X5.005 Y1.594
G1 X4.785 Y2.159 E2.17923
G1 X4.767 Y2.205
G1 X4.465 Y2.765 E2.19116
G1 X4.421 Y2.827 E2.1913
G1 X4.084 Y3.301 E2.2021
G1 X3.973 Y3.422 E2.20219
G1 X3.648 Y3.778 E2.21124
G1 X3.447 Y3.95 E2.21187
G1 X3.163 Y4.192
G1 X2.85 Y4.398
G1 X2.621 Y4.548
G1 X2.199 Y4.758 E2.21546
G1 X2.035 Y4.84
G1 X1.503 Y5.025 E2.22608
G1 X1.436 Y5.048
G1 X0.801 Y5.186 E2.23807
G1 X0.759 Y5.189 E2.23833
G1 X0.157 Y5.245 E2.24955
G1 X0.016 Y5.241
G1 X-.49 Y5.224 E2.25913
G1 X-.727 Y5.187 E2.25963
G1 X-1.133 Y5.123
G1 X-1.455 Y5.031
G1 X-1.741 Y4.948
G1 X-2.154 Y4.772 E2.2628
G1 X-2.341 Y4.692
G1 X-2.811 Y4.421 E2.27293
G1 X-2.906 Y4.366
G1 X-3.415 Y3.979 E2.28494
G1 X-3.425 Y3.97 E2.28548
G1 X-3.878 Y3.529 E2.29739
G1 X-3.95 Y3.439 E2.2975
G1 X-4.281 Y3.026 E2.30742
G1 X-4.394 Y2.841 E2.30774
G1 X-4.627 Y2.464
G1 X-4.753 Y2.19 E2.30866
G1 X-4.891 Y1.89
G1 X-5.016 Y1.49
G1 X-5.084 Y1.276
G1 X-5.178 Y0.765 E2.31832
G1 X-5.203 Y0.634
G1 X-5.239 Y0.024 E2.32971
G0 F3300 X-5.743 Y-0.019
;TYPE:WALL-OUTER
G1 F1602.4 X-5.698 Y-.712 E2.37302
G1 X-5.565 Y-1.416 E2.4177
G1 X-5.351 Y-2.085 E2.4615
G1 X-5.052 Y-2.732 E2.50595
G1 X-4.683 Y-3.326 E2.54956
G1 X-4.235 Y-3.881 E2.59404
G1 X-3.724 Y-4.374 E2.63832
G1 X-3.16 Y-4.798 E2.68232
G1 X-2.544 Y-5.152 E2.72663
G1 X-1.9 Y-5.422 E2.77018
G1 X-1.208 Y-5.619 E2.81505
G1 X-.514 Y-5.724 E2.85882
G1 X0.193 Y-5.746 E2.90293
G1 X0.901 Y-5.677 E2.94729
G1 X1.587 Y-5.526 E2.9911
G1 X2.262 Y-5.288 E3.03573
G1 X2.889 Y-4.973 E3.07949
G1 X3.479 Y-4.581 E3.12367
G1 X4.014 Y-4.121 E3.16767
G1 X4.493 Y-3.593 E3.21213
G1 X4.895 Y-3.022 E3.25567
G1 X5.235 Y-2.386 E3.30065
G1 X5.486 Y-1.736 E3.3441
G1 X5.658 Y-1.04 E3.38881
G1 X5.744 Y-.343 E3.43261
G1 X5.743 Y0.365 E3.47676
G1 X5.653 Y1.07 E3.52108
G1 X5.482 Y1.748 E3.56469
G1 X5.223 Y2.412 E3.60914
G1 X4.887 Y3.035 E3.65328
G1 X4.475 Y3.615 E3.69765
G1 X3.998 Y4.136 E3.7417
G1 X3.462 Y4.594 E3.78567
G1 X2.87 Y4.983 E3.82984
G1 X2.235 Y5.299 E3.87407
G1 X1.566 Y5.532 E3.91825
G1 X0.879 Y5.681 E3.96209
G1 X0.171 Y5.746 E4.00643
G1 X-.536 Y5.723 E4.05055
G1 X-1.236 Y5.613 E4.09473
G1 X-1.913 Y5.418 E4.13867
G1 X-2.569 Y5.139 E4.18313
G1 X-3.177 Y4.787 E4.22694
G1 X-3.744 Y4.357 E4.27132
G1 X-4.249 Y3.865 E4.31529
G1 X-4.691 Y3.314 E4.35934
G1 X-5.066 Y2.706 E4.40389
G1 X-5.36 Y2.065 E4.44786
G1 X-5.571 Y1.395 E4.49167
G1 X-5.7 Y0.698 E4.53588
G1 X-5.743 Y-0.019 E4.58067
G0 F3300 X-5.727 Y-.268
G0 X-4.594 Y0.013
G1 F1602.4 X-4.545 Y0.667 E4.62157
G1 X-4.404 Y1.307 E4.66244
G1 X-4.173 Y1.922 E4.70341
G1 X-3.856 Y2.497 E4.74436
G1 X-3.462 Y3.021 E4.78524
G1 X-2.996 Y3.484 E4.82621
G1 X-2.471 Y3.876 E4.86707
G1 X-1.893 Y4.188 E4.90803
G1 X-1.277 Y4.417 E4.94901
G1 X-.636 Y4.554 E4.98989
G1 X0.018 Y4.599 E5.03077
G1 X0.672 Y4.55 E5.07167
G1 X1.313 Y4.409 E5.1126
G1 X1.927 Y4.178 E5.15351
G1 X2.503 Y3.863 E5.19445
G1 X3.027 Y3.468 E5.23538
G1 X3.49 Y3.002 E5.27634
G1 X3.882 Y2.476 E5.31725
G1 X4.194 Y1.899 E5.35816
G1 X4.423 Y1.283 E5.39914
G1 X4.56 Y0.642 E5.44002
G1 X4.605 Y-0.013 E5.48097
G1 X4.556 Y-.667 E5.52187
G1 X4.415 Y-1.307 E5.56273
G1 X4.184 Y-1.922 E5.6037
G1 X3.869 Y-2.497 E5.64459
G1 X3.474 Y-3.021 E5.68551
G1 X3.008 Y-3.484 E5.72648
G1 X2.482 Y-3.876 E5.76739
G1 X1.904 Y-4.188 E5.80835
G1 X1.289 Y-4.417 E5.84928
G1 X0.647 Y-4.554 E5.89022
G1 X-0.008 Y-4.6 E5.93116
G1 X-.661 Y-4.55 E5.97201
G1 X-1.301 Y-4.409 E6.01288
G1 X-1.916 Y-4.178 E6.05384
G1 X-2.492 Y-3.863 E6.09479
G1 X-3.015 Y-3.468 E6.13566
G1 X-3.478 Y-3.002 E6.17663
G1 X-3.87 Y-2.476 E6.21754
G1 X-4.183 Y-1.9 E6.25842
G1 X-4.412 Y-1.283 E6.29946
G1 X-4.549 Y-.642 E6.34034
G1 X-4.594 Y0.013 E6.38128
G0 F3300 X-4.576 Y0.262
G0 X-5.095 Y0.023
;TIME_ELAPSED:5.385195
;LAYER:1
M140 S60
G0 F4950 X-5.095 Y0.023 Z0.45
;TYPE:WALL-INNER
G1 F1570.1 X-5.051 Y0.616 E6.39982
G1 X-5.04 Y0.749 E6.40398
G1 X-4.932 Y1.234 E6.41948
G1 X-4.881 Y1.46 E6.4267
G1 X-4.744 Y1.821 E6.43874
G1 X-4.623 Y2.14 E6.44938
G1 X-4.488 Y2.385 E6.4581
G1 X-4.272 Y2.776 E6.47203
G1 X-4.162 Y2.922 E6.47773
G1 X-3.833 Y3.357 E6.49474
G1 X-3.779 Y3.411 E6.49712
G1 X-3.316 Y3.869 E6.51743
G1 X-2.814 Y4.243 E6.53695
G1 X-2.733 Y4.304 E6.54011
G1 X-2.279 Y4.547 E6.55616
G1 X-2.09 Y4.649 E6.56286
G1 X-1.693 Y4.795 E6.57605
G1 X-1.408 Y4.9 E6.58552
G1 X-1.103 Y4.964 E6.59524
G1 X-.697 Y5.05 E6.60818
G1 X-.486 Y5.064 E6.61477
G1 X0.028 Y5.1 E6.63084
G1 X0.139 Y5.092 E6.63431
G1 X0.754 Y5.045 E6.65354
G1 X1.391 Y4.903 E6.67389
G1 X1.466 Y4.886 E6.67629
G1 X1.979 Y4.691 E6.6934
G1 X2.144 Y4.628 E6.69891
G1 X2.537 Y4.412 E6.71289
G1 X2.781 Y4.278 E6.72157
G1 X3.056 Y4.071 E6.73231
G1 X3.363 Y3.839 E6.7443
G1 X3.534 Y3.666 E6.75189
G1 X3.875 Y3.322 E6.76699
G1 X3.951 Y3.22 E6.77096
G1 X4.31 Y2.738 E6.7897
G1 X4.331 Y2.698 E6.79111
G1 X4.63 Y2.142 E6.81079
G1 X4.655 Y2.097 E6.8124
G1 X4.858 Y1.545 E6.83074
G1 X4.906 Y1.414 E6.83509
G1 X5.003 Y0.952 E6.84981
G1 X5.056 Y0.703 E6.85774
G1 X5.081 Y0.329 E6.86943
G1 X5.106 Y-0.023 E6.88044
G1 X5.086 Y-.295 E6.88894
G1 X5.051 Y-.749 E6.90314
G1 X5.017 Y-.904 E6.90809
G1 X4.892 Y-1.46 E6.92586
G1 X4.868 Y-1.525 E6.92802
G1 X4.643 Y-2.117 E6.94776
G1 X4.634 Y-2.139 E6.94851
G1 X4.338 Y-2.678 E6.96768
G1 X4.284 Y-2.775 E6.97114
G1 X3.977 Y-3.182 E6.98704
G1 X3.845 Y-3.357 E6.99387
G1 X3.556 Y-3.643 E7.00655
G1 X3.328 Y-3.869 E7.01656
G1 X3.09 Y-4.046 E7.02581
G1 X2.743 Y-4.304 E7.03929
G1 X2.571 Y-4.397 E7.04539
G1 X2.102 Y-4.649 E7.06199
G1 X2.017 Y-4.68 E7.06481
G1 X1.421 Y-4.9 E7.08462
G1 X0.801 Y-5.03 E7.10437
G1 X0.709 Y-5.05 E7.10731
G1 X0.171 Y-5.087 E7.12413
G1 X-0.018 Y-5.101 E7.13003
G1 X-.453 Y-5.068 E7.14364
G1 X-.743 Y-5.045 E7.15271
G1 X-1.059 Y-4.975 E7.1628
G1 X-1.454 Y-4.886 E7.17543
G1 X-1.664 Y-4.807 E7.18242
G1 X-2.133 Y-4.629 E7.19806
G1 X-2.242 Y-4.569 E7.20194
G1 X-2.771 Y-4.278 E7.22077
G1 X-2.79 Y-4.264 E7.22151
G1 X-3.305 Y-3.874 E7.24165
G1 X-3.351 Y-3.839 E7.24345
G1 X-3.751 Y-3.436 E7.26116
G1 X-3.863 Y-3.322 E7.26614
G1 X-4.139 Y-2.95 E7.28058
G1 X-4.297 Y-2.738 E7.28883
G1 X-4.461 Y-2.433 E7.29963
G1 X-4.643 Y-2.097 E7.31154
G1 X-4.733 Y-1.853 E7.31965
G1 X-4.895 Y-1.414 E7.33424
G1 X-4.927 Y-1.263 E7.33905
G1 X-5.045 Y-.703 E7.3569
G1 X-5.048 Y-.652 E7.35849
G1 X-5.092 Y-0.015 E7.3784
G1 X-5.095 Y0.023 E7.37959
G0 F4950 X-5.237 Y0.032
G1 F1570.1 X-5.241 Y-0.026
G1 X-5.199 Y-.661 E7.38497
G1 X-5.187 Y-.728 E7.38506
G1 X-5.08 Y-1.294 E7.3905
G1 X-5.028 Y-1.456 E7.39057
G1 X-4.882 Y-1.906
G1 X-4.767 Y-2.154 E7.39087
G1 X-4.603 Y-2.508
G1 X-4.415 Y-2.811 E7.3917
G1 X-4.269 Y-3.045
G1 X-3.972 Y-3.41 E7.3936
G1 X-3.862 Y-3.546
G1 X-3.451 Y-3.942 E7.39894
G1 X-3.397 Y-3.995 E7.39901
G1 X-2.88 Y-4.382 E7.40505
G1 X-2.844 Y-4.402 E7.40518
G1 X-2.318 Y-4.704 E7.41082
G1 X-2.187 Y-4.758 E7.41086
G1 X-1.721 Y-4.953 E7.41555
G1 X-1.492 Y-5.018 E7.41576
G1 X-1.094 Y-5.131
G1 X-.764 Y-5.18
G1 X-.466 Y-5.226
G1 X-0.022 Y-5.238 E7.41728
G1 X0.182 Y-5.244
G1 X0.722 Y-5.192 E7.42237
G1 X0.832 Y-5.181
G1 X1.456 Y-5.041 E7.4284
G1 X1.469 Y-5.037 E7.42867
G1 X2.069 Y-4.824 E7.4346
G1 X2.165 Y-4.776 E7.43465
G1 X2.644 Y-4.535 E7.43966
G1 X2.819 Y-4.419 E7.43977
G1 X3.185 Y-4.175
G1 X3.418 Y-3.974 E7.44029
G1 X3.668 Y-3.757
G1 X3.946 Y-3.45 E7.44155
G1 X4.102 Y-3.278
G1 X4.398 Y-2.856 E7.44636
G1 X4.472 Y-2.751
G1 X4.762 Y-2.208 E7.45206
G1 X4.782 Y-2.17
G1 X5.009 Y-1.58 E7.45795
G1 X5.03 Y-1.495 E7.45801
G1 X5.167 Y-.938 E7.46332
G1 X5.188 Y-.767 E7.46335
G1 X5.244 Y-.308
G1 X5.244 Y-0.023
G1 X5.242 Y0.34
G1 X5.194 Y0.72 E7.46442
G1 X5.16 Y0.985
G1 X5.042 Y1.449
G1 X5.003 Y1.599
G1 X4.789 Y2.148 E7.46989
G1 X4.763 Y2.215
G1 X4.463 Y2.767 E7.47572
G1 X4.426 Y2.82
G1 X4.076 Y3.311 E7.48129
G1 X3.979 Y3.417 E7.48134
G1 X3.648 Y3.778 E7.48596
G1 X3.454 Y3.944 E7.48626
G1 X3.154 Y4.199
G1 X2.857 Y4.393 E7.48707
G1 X2.615 Y4.552
G1 X2.208 Y4.754 E7.48879
G1 X2.036 Y4.839
G1 X1.512 Y5.019 E7.494
G1 X1.424 Y5.05 E7.49404
G1 X0.793 Y5.187 E7.49999
G1 X0.768 Y5.189 E7.50077
G1 X0.152 Y5.245 E7.50651
G1 X0.024 Y5.241 E7.50655
G1 X-.496 Y5.223 E7.51148
G1 X-.718 Y5.188 E7.51168
G1 X-1.136 Y5.121
G1 X-1.445 Y5.032 E7.51227
G1 X-1.748 Y4.944
G1 X-2.143 Y4.775
G1 X-2.353 Y4.685
G1 X-2.802 Y4.425 E7.51707
G1 X-2.905 Y4.365
G1 X-3.405 Y3.985 E7.52293
G1 X-3.419 Y3.974 E7.52329
G1 X-3.885 Y3.52 E7.52934
G1 X-3.943 Y3.447 E7.5294
G1 X-4.286 Y3.018 E7.53454
G1 X-4.39 Y2.85 E7.53466
G1 X-4.628 Y2.463
G1 X-4.749 Y2.197
G1 X-4.894 Y1.879
G1 X-5.012 Y1.501 E7.53578
G1 X-5.086 Y1.269
G1 X-5.176 Y0.774 E7.54049
G1 X-5.203 Y0.628 E7.5405
G1 X-5.237 Y0.032 E7.54598
G0 F4950 X-5.742 Y-0.026
;TYPE:WALL-OUTER
G1 F1570.1 X-5.696 Y-.719 E7.56764
G1 X-5.564 Y-1.421 E7.58991
G1 X-5.347 Y-2.094 E7.61196
G1 X-5.048 Y-2.738 E7.6341
G1 X-4.675 Y-3.337 E7.6561
G1 X-4.23 Y-3.886 E7.67814
G1 X-3.722 Y-4.376 E7.70015
G1 X-3.153 Y-4.802 E7.72231
G1 X-2.544 Y-5.151 E7.7442
G1 X-1.885 Y-5.426 E7.76646
G1 X-1.201 Y-5.62 E7.78863
G1 X-.506 Y-5.725 E7.81055
G1 X0.201 Y-5.745 E7.8326
G1 X0.908 Y-5.676 E7.85475
G1 X1.592 Y-5.523 E7.87661
G1 X2.271 Y-5.283 E7.89906
G1 X2.891 Y-4.971 E7.92071
G1 X3.488 Y-4.573 E7.94308
G1 X4.018 Y-4.115 E7.96492
G1 X4.492 Y-3.592 E7.98693
G1 X4.901 Y-3.01 E8.00911
G1 X5.238 Y-2.379 E8.03142
G1 X5.488 Y-1.728 E8.05316
G1 X5.659 Y-1.033 E8.07548
G1 X5.744 Y-.336 E8.09737
G1 X5.742 Y0.372 E8.11945
G1 X5.652 Y1.076 E8.14158
G1 X5.478 Y1.757 E8.1635
G1 X5.22 Y2.419 E8.18565
G1 X4.883 Y3.04 E8.20768
G1 X4.47 Y3.621 E8.22991
G1 X3.993 Y4.141 E8.25191
G1 X3.456 Y4.598 E8.2739
G1 X2.863 Y4.987 E8.29601
G1 X2.227 Y5.302 E8.31814
G1 X1.559 Y5.533 E8.34018
G1 X0.871 Y5.682 E8.36213
G1 X0.164 Y5.746 E8.38427
G1 X-.543 Y5.722 E8.40633
G1 X-1.242 Y5.611 E8.42839
G1 X-1.922 Y5.414 E8.45047
G1 X-2.572 Y5.136 E8.47251
G1 X-3.187 Y4.779 E8.49469
G1 X-3.745 Y4.355 E8.51654
G1 X-4.258 Y3.855 E8.53888
G1 X-4.695 Y3.307 E8.56073
G1 X-5.069 Y2.7 E8.58296
G1 X-5.362 Y2.057 E8.605
G1 X-5.573 Y1.388 E8.62687
G1 X-5.7 Y0.69 E8.64899
G1 X-5.742 Y-0.026 E8.67136
G0 F4950 X-5.726 Y-.275
G0 X-4.594 Y0.021
G1 F1570.1 X-4.544 Y0.675 E8.69181
G1 X-4.401 Y1.316 E8.71229
G1 X-4.168 Y1.929 E8.73273
G1 X-3.851 Y2.503 E8.75318
G1 X-3.456 Y3.027 E8.77364
G1 X-2.989 Y3.489 E8.79413
G1 X-2.464 Y3.881 E8.81456
G1 X-1.885 Y4.192 E8.83505
G1 X-1.269 Y4.418 E8.85551
G1 X-.628 Y4.554 E8.87594
G1 X0.026 Y4.599 E8.89638
G1 X0.68 Y4.549 E8.91683
G1 X1.322 Y4.406 E8.93734
G1 X1.934 Y4.173 E8.95776
G1 X2.509 Y3.857 E8.97822
G1 X3.033 Y3.462 E8.99868
G1 X3.495 Y2.995 E9.01917
G1 X3.887 Y2.469 E9.03962
G1 X4.198 Y1.891 E9.06009
G1 X4.424 Y1.275 E9.08055
G1 X4.56 Y0.634 E9.10098
G1 X4.605 Y-0.021 E9.12145
G1 X4.555 Y-.675 E9.1419
G1 X4.412 Y-1.316 E9.16238
G1 X4.179 Y-1.929 E9.18283
G1 X3.863 Y-2.503 E9.20326
G1 X3.468 Y-3.027 E9.22372
G1 X3.001 Y-3.489 E9.2442
G1 X2.474 Y-3.881 E9.26468
G1 X1.896 Y-4.192 E9.28515
G1 X1.282 Y-4.418 E9.30555
G1 X0.639 Y-4.554 E9.32605
G1 X-0.016 Y-4.6 E9.34652
G1 X-.669 Y-4.549 E9.36694
G1 X-1.31 Y-4.406 E9.38742
G1 X-1.923 Y-4.174 E9.40786
G1 X-2.498 Y-3.857 E9.42833
G1 X-3.021 Y-3.462 E9.44877
G1 X-3.483 Y-2.995 E9.46925
G1 X-3.874 Y-2.469 E9.48969
G1 X-4.186 Y-1.891 E9.51017
G1 X-4.413 Y-1.275 E9.53064
G1 X-4.549 Y-.634 E9.55107
G1 X-4.594 Y0.021 E9.57154
G0 F4950 X-4.575 Y0.27
G0 X-5.047 Y-.693
;TIME_ELAPSED:10.522414
;LAYER:2
G0 F6600 X-5.047 Y-.693 Z0.6
;TYPE:WALL-INNER
G1 F1568.6 X-5.049 Y-.657 E9.57267
G1 X-5.09 Y-0.023 E9.59248
G1 X-5.094 Y0.033 E9.59423
G1 X-5.05 Y0.607 E9.61218
G1 X-5.038 Y0.758 E9.6169
G1 X-4.934 Y1.222 E9.63173
G1 X-4.878 Y1.467 E9.63957
G1 X-4.746 Y1.816 E9.6512
G1 X-4.62 Y2.148 E9.66227
G1 X-4.488 Y2.385 E9.67073
G1 X-4.266 Y2.784 E9.68497
G1 X-4.168 Y2.913 E9.69002
G1 X-3.826 Y3.364 E9.70767
G1 X-3.781 Y3.408 E9.70963
G1 X-3.323 Y3.861 E9.72972
G1 X-3.309 Y3.875 E9.73034
G1 X-2.82 Y4.237 E9.74931
G1 X-2.725 Y4.307 E9.75299
G1 X-2.278 Y4.547 E9.76881
G1 X-2.083 Y4.652 E9.77571
G1 X-1.71 Y4.788 E9.78809
G1 X-1.399 Y4.902 E9.79842
G1 X-1.111 Y4.962 E9.80759
G1 X-.687 Y5.052 E9.82111
G1 X-.492 Y5.064 E9.8272
G1 X0.038 Y5.099 E9.84376
G1 X0.134 Y5.092 E9.84677
G1 X0.763 Y5.043 E9.86644
G1 X1.386 Y4.903 E9.88635
G1 X1.473 Y4.883 E9.88913
