;FLAVOR:Repetier
;TIME:693
;Generated with Cura_SteamEngine 2.5.0
M190 S60
M104 S220
M109 S220
G28 ;Home
G1 Z15.0 F6000 ;Move the platform down 15mm
;Prime the extruder
G92 E0
G1 F200 E3
G92 E0
;LAYER_COUNT:146
;LAYER:0
M106 S255
G0 F3300 X-0.073 Y3.424 Z0.3
;TYPE:WALL-OUTER
G1 F1182.7 X0.268 Y3.413 E0.02128
G1 X0.606 Y3.369 E0.04253
G1 X0.938 Y3.293 E0.06377
G1 X1.261 Y3.183 E0.08505
G1 X1.572 Y3.041 E0.10637
G1 X1.868 Y2.869 E0.12772
G1 X2.144 Y2.668 E0.14902
G1 X2.398 Y2.442 E0.17022
G1 X2.63 Y2.19 E0.19158
G1 X2.835 Y1.917 E0.21287
G1 X3.012 Y1.625 E0.23416
G1 X3.158 Y1.317 E0.25542
G1 X3.273 Y0.995 E0.27674
G1 X3.357 Y0.665 E0.29798
G1 X3.407 Y0.327 E0.31929
G1 X3.422 Y-0.014 E0.34057
G1 X3.404 Y-.355 E0.36187
G1 X3.352 Y-.693 E0.3832
G1 X3.266 Y-1.022 E0.4044
G1 X3.147 Y-1.343 E0.42575
G1 X2.998 Y-1.65 E0.44703
G1 X2.819 Y-1.94 E0.46829
G1 X2.612 Y-2.211 E0.48955
G1 X2.378 Y-2.461 E0.51091
G1 X2.121 Y-2.686 E0.53221
G1 X1.844 Y-2.884 E0.55344
G1 X1.547 Y-3.053 E0.57475
G1 X1.236 Y-3.192 E0.596
G1 X0.911 Y-3.3 E0.61735
G1 X0.578 Y-3.375 E0.63864
G1 X0.24 Y-3.416 E0.65988
G1 X-.101 Y-3.423 E0.68115
G1 X-.442 Y-3.396 E0.70248
G1 X-.777 Y-3.335 E0.72371
G1 X-1.105 Y-3.241 E0.74499
G1 X-1.423 Y-3.116 E0.7663
G1 X-1.726 Y-2.958 E0.78761
G1 X-2.012 Y-2.772 E0.80889
G1 X-2.277 Y-2.558 E0.83013
G1 X-2.521 Y-2.319 E0.85143
G1 X-2.739 Y-2.057 E0.87268
G1 X-2.931 Y-1.774 E0.89401
G1 X-3.093 Y-1.473 E0.91533
G1 X-3.225 Y-1.158 E0.93663
G1 X-3.324 Y-.831 E0.95793
G1 X-3.39 Y-.496 E0.97923
G1 X-3.423 Y-.157 E1.00047
G1 X-3.422 Y0.185 E1.0218
G1 X-3.385 Y0.525 E1.04312
G1 X-3.316 Y0.858 E1.06433
G1 X-3.215 Y1.183 E1.08556
G1 X-3.081 Y1.497 E1.10685
G1 X-2.917 Y1.797 E1.12817
G1 X-2.723 Y2.079 E1.14951
G1 X-2.503 Y2.339 E1.17075
G1 X-2.257 Y2.576 E1.19206
G1 X-1.989 Y2.788 E1.21337
G1 X-1.702 Y2.972 E1.23463
G1 X-1.397 Y3.127 E1.25596
G1 X-1.079 Y3.251 E1.27725
G1 X-.75 Y3.341 E1.29852
G1 X-.413 Y3.399 E1.31985
G1 X-0.073 Y3.424 E1.34111
G0 F3300 X0.177 Y3.416
G0 X-.108 Y4.248
G1 F1182.7 X-.454 Y4.225 E1.36273
G1 X-.808 Y4.172 E1.38505
G1 X-1.148 Y4.091 E1.40685
G1 X-1.498 Y3.977 E1.42981
G1 X-1.825 Y3.838 E1.45196
G1 X-2.126 Y3.68 E1.47317
G1 X-2.436 Y3.482 E1.4961
G1 X-2.717 Y3.268 E1.51813
G1 X-2.99 Y3.021 E1.54109
G1 X-3.224 Y2.769 E1.56254
G1 X-3.443 Y2.491 E1.58461
G1 X-3.644 Y2.19 E1.60718
G1 X-3.811 Y1.88 E1.62914
G1 X-3.96 Y1.544 E1.65206
G1 X-4.073 Y1.217 E1.67364
G1 X-4.159 Y0.879 E1.69539
G1 X-4.22 Y0.51 E1.71871
G1 X-4.248 Y0.167 E1.74017
G1 X-4.247 Y-.189 E1.76237
G1 X-4.215 Y-.553 E1.78516
G1 X-4.158 Y-.883 E1.80604
G1 X-4.066 Y-1.237 E1.82885
G1 X-3.946 Y-1.579 E1.85146
G1 X-3.802 Y-1.899 E1.87334
G1 X-3.631 Y-2.211 E1.89553
G1 X-3.43 Y-2.51 E1.918
G1 X-3.21 Y-2.786 E1.94001
G1 X-2.968 Y-3.042 E1.96198
G1 X-2.71 Y-3.274 E1.98361
G1 X-2.414 Y-3.497 E2.00673
G1 X-2.114 Y-3.686 E2.02884
G1 X-1.795 Y-3.851 E2.05124
G1 X-1.478 Y-3.984 E2.07267
G1 X-1.136 Y-4.095 E2.0951
G1 X-.779 Y-4.178 E2.11795
G1 X-.445 Y-4.226 E2.139
G1 X-0.075 Y-4.249 E2.16212
G1 X0.271 Y-4.24 E2.1837
G1 X0.629 Y-4.201 E2.20616
G1 X0.979 Y-4.134 E2.22838
G1 X1.326 Y-4.036 E2.25087
G1 X1.653 Y-3.913 E2.27266
G1 X1.981 Y-3.757 E2.29531
G1 X2.28 Y-3.584 E2.31685
G1 X2.576 Y-3.378 E2.33934
G1 X2.852 Y-3.148 E2.36175
G1 X3.096 Y-2.908 E2.38309
G1 X3.336 Y-2.628 E2.40609
G1 X3.544 Y-2.341 E2.42819
G1 X3.728 Y-2.034 E2.45051
G1 X3.879 Y-1.728 E2.47179
G1 X4.017 Y-1.377 E2.49531
G1 X4.113 Y-1.057 E2.51615
G1 X4.19 Y-.688 E2.53965
G1 X4.232 Y-.347 E2.56108
G1 X4.248 Y0.012 E2.58349
G1 X4.231 Y0.367 E2.60566
G1 X4.184 Y0.726 E2.62823
G1 X4.112 Y1.063 E2.64973
G1 X4.007 Y1.406 E2.6721
G1 X3.879 Y1.728 E2.6937
G1 X3.715 Y2.056 E2.71657
G1 X3.531 Y2.36 E2.73873
G1 X3.319 Y2.65 E2.76114
G1 X3.083 Y2.922 E2.78359
G1 X2.837 Y3.161 E2.80498
G1 X2.559 Y3.39 E2.82745
G1 X2.263 Y3.595 E2.8499
G1 X1.954 Y3.772 E2.87211
G1 X1.64 Y3.918 E2.8937
G1 X1.299 Y4.044 E2.91637
G1 X0.959 Y4.139 E2.93839
G1 X0.608 Y4.204 E2.96065
G1 X0.249 Y4.241 E2.98316
G1 X-.108 Y4.248 E3.00542
G0 F3300 X-.358 Y4.232
G0 X-.443 Y3.798
G1 F1182.7 X-0.063 Y3.825 E3.02419
G1 X0.28 Y3.816 E3.0411
G1 X0.599 Y3.781 E3.05687
G1 X0.894 Y3.723 E3.07168
G1 X1.172 Y3.647 E3.0857
G1 X1.432 Y3.554 E3.09913
G1 X1.677 Y3.444 E3.11233
G1 X1.907 Y3.321 E3.12521
G1 X2.126 Y3.187 E3.13776
G1 X2.332 Y3.039 E3.1502
G1 X2.526 Y2.88 E3.16255
G1 X2.709 Y2.709 E3.17486
G1 X2.88 Y2.526 E3.1872
G1 X3.039 Y2.332 E3.19965
G1 X3.187 Y2.126 E3.21224
G1 X3.322 Y1.908 E3.22488
G1 X3.442 Y1.674 E3.23777
G1 X3.552 Y1.43 E3.25102
G1 X3.646 Y1.171 E3.26473
G1 X3.723 Y0.895 E3.27889
G1 X3.781 Y0.599 E3.29375
G1 X3.815 Y0.279 E3.30952
G1 X3.824 Y-0.064 E3.32647
G1 X3.797 Y-.445 E3.34528
G1 X3.714 Y-.88 E3.36688
G1 X3.528 Y-1.42 E3.39438
G0 F3300 X3.691 Y-1.611
;TYPE:SKIN
G1 F1182.7 X1.605 Y-3.697 E3.48636
G0 F3300 X0.88 Y-3.714
G1 F1182.7 X0.442 Y-3.799 E3.50807
G1 X0.059 Y-3.829 E3.52675
G1 X-.284 Y-3.82 E3.54357
G1 X-.601 Y-3.783 E3.5593
G1 X-.896 Y-3.724 E3.57419
G1 X-1.172 Y-3.646 E3.58843
G1 X-1.431 Y-3.553 E3.60199
G1 X-1.678 Y-3.446 E3.61512
G1 X-1.909 Y-3.323 E3.62794
G1 X-2.127 Y-3.188 E3.64061
G1 X-2.334 Y-3.041 E3.65312
G1 X-2.528 Y-2.882 E3.66541
G1 X-2.711 Y-2.711 E3.67772
G1 X-2.882 Y-2.529 E3.69009
G1 X-3.042 Y-2.335 E3.70247
G1 X-3.188 Y-2.127 E3.71493
G1 X-3.324 Y-1.91 E3.72761
G1 X-3.448 Y-1.68 E3.74058
G1 X-3.555 Y-1.434 E3.75373
G1 X-3.647 Y-1.173 E3.76726
G1 X-3.725 Y-.897 E3.78143
G1 X-3.784 Y-.602 E3.79632
G1 X-3.821 Y-.285 E3.81213
G1 X-3.829 Y0.059 E3.82904
G1 X-3.8 Y0.441 E3.84786
G1 X-3.718 Y0.877 E3.86967
G1 X-3.531 Y1.417 E3.89725
G0 F3300 X-3.697 Y1.605
G1 F1182.7 X-1.608 Y3.694 E3.98937
G0 F3300 X-.876 Y3.719
G1 F1182.7 X-1.417 Y3.531 E4.01673
G0 F3300 X-2.482 Y3.174
G1 F1182.7 X-3.183 Y2.473 E4.04764
G1 F6600 E2.04764
G0 F3300 X1.784 Y-3.165
G1 F6600 E4.04764
G1 F1182.7 X1.063 Y-3.886 E4.07943
G0 F3300 X2.484 Y-3.172
G1 F1182.7 X3.174 Y-2.481 E4.10988
G1 F6600 E2.10988
G0 F3300 X3.359 Y0.656
;TIME_ELAPSED:4.658141
;LAYER:1
M140 S60
G0 F4950 X3.359 Y0.656 Z0.45
;TYPE:WALL-OUTER
G1 F6600 E4.10988
G1 F1061.3 X3.407 Y0.317 E4.12056
G1 X3.422 Y-0.024 E4.1312
G1 X3.403 Y-.364 E4.14182
G1 X3.35 Y-.702 E4.15249
G1 X3.263 Y-1.031 E4.1631
G1 X3.144 Y-1.351 E4.17374
G1 X2.994 Y-1.657 E4.18437
G1 X2.814 Y-1.947 E4.19501
G1 X2.605 Y-2.218 E4.20568
G1 X2.372 Y-2.466 E4.2163
G1 X2.114 Y-2.692 E4.22699
G1 X1.835 Y-2.889 E4.23764
G1 X1.539 Y-3.058 E4.24827
G1 X1.227 Y-3.196 E4.25891
G1 X0.902 Y-3.302 E4.26957
G1 X0.57 Y-3.376 E4.28017
G1 X0.23 Y-3.417 E4.29085
G1 X-.11 Y-3.422 E4.30145
G1 X-.45 Y-3.394 E4.31209
G1 X-.786 Y-3.333 E4.32274
G1 X-1.114 Y-3.238 E4.33339
G1 X-1.431 Y-3.111 E4.34403
G1 X-1.734 Y-2.953 E4.35469
G1 X-2.02 Y-2.766 E4.36534
G1 X-2.284 Y-2.551 E4.37596
G1 X-2.528 Y-2.311 E4.38663
G1 X-2.745 Y-2.049 E4.39724
G1 X-2.936 Y-1.765 E4.40791
G1 X-3.096 Y-1.464 E4.41854
G1 X-3.227 Y-1.148 E4.42921
G1 X-3.325 Y-.822 E4.43982
G1 X-3.391 Y-.488 E4.45044
G1 X-3.423 Y-.147 E4.46112
G1 X-3.421 Y0.193 E4.47172
G1 X-3.384 Y0.533 E4.48238
G1 X-3.314 Y0.867 E4.49303
G1 X-3.212 Y1.192 E4.50365
G1 X-3.077 Y1.506 E4.5143
G1 X-2.912 Y1.805 E4.52495
G1 X-2.716 Y2.087 E4.53566
G1 X-2.496 Y2.346 E4.54626
G1 X-2.249 Y2.582 E4.55691
G1 X-1.982 Y2.793 E4.56752
G1 X-1.694 Y2.977 E4.57818
G1 X-1.388 Y3.131 E4.58886
G1 X-1.07 Y3.253 E4.59948
G1 X-.741 Y3.343 E4.61012
G1 X-.404 Y3.401 E4.62078
G1 X-0.063 Y3.423 E4.63143
G1 X0.277 Y3.412 E4.64204
G1 X0.615 Y3.367 E4.65267
G1 X0.946 Y3.29 E4.66327
G1 X1.27 Y3.178 E4.67396
G1 X1.581 Y3.036 E4.68462
G1 X1.875 Y2.863 E4.69526
G1 X2.151 Y2.662 E4.7059
G1 X2.405 Y2.434 E4.71654
G1 X2.636 Y2.183 E4.72718
G1 X2.84 Y1.91 E4.73781
G1 X3.016 Y1.617 E4.74847
G1 X3.161 Y1.308 E4.75911
G1 X3.276 Y0.986 E4.76977
G1 X3.359 Y0.656 E4.78038
G0 F4950 X3.394 Y0.409
G0 X4.183 Y0.732
G1 F1061.3 X4.109 Y1.071 E4.7912
G1 X4.004 Y1.413 E4.80236
G1 X3.875 Y1.735 E4.81317
G1 X3.711 Y2.063 E4.82461
G1 X3.522 Y2.374 E4.83595
G1 X3.322 Y2.646 E4.84648
G1 X3.077 Y2.927 E4.85811
G1 X2.826 Y3.171 E4.86902
G1 X2.56 Y3.389 E4.87974
G1 X2.256 Y3.599 E4.89127
G1 X1.947 Y3.775 E4.90235
G1 X1.634 Y3.921 E4.91312
G1 X1.291 Y4.046 E4.92451
G1 X0.949 Y4.141 E4.93557
G1 X0.603 Y4.205 E4.94655
G1 X0.244 Y4.241 E4.9578
G1 X-.114 Y4.248 E4.96896
G1 X-.462 Y4.224 E4.97984
G1 X-.815 Y4.171 E4.99097
G1 X-1.165 Y4.087 E5.00219
G1 X-1.494 Y3.978 E5.013
G1 X-1.831 Y3.834 E5.02443
G1 X-2.141 Y3.671 E5.03535
G1 X-2.442 Y3.478 E5.0465
G1 X-2.721 Y3.264 E5.05746
G1 X-2.988 Y3.022 E5.0687
G1 X-3.229 Y2.763 E5.07973
G1 X-3.45 Y2.483 E5.09085
G1 X-3.647 Y2.183 E5.10204
G1 X-3.817 Y1.869 E5.11318
G1 X-3.962 Y1.538 E5.12444
G1 X-4.074 Y1.21 E5.13525
G1 X-4.159 Y0.875 E5.14603
G1 X-4.221 Y0.503 E5.15779
G1 X-4.248 Y0.162 E5.16845
G1 X-4.246 Y-.196 E5.17962
G1 X-4.215 Y-.553 E5.19079
G1 X-4.156 Y-.891 E5.20149
G1 X-4.064 Y-1.243 E5.21283
G1 X-3.943 Y-1.585 E5.22415
G1 X-3.804 Y-1.896 E5.23477
G1 X-3.625 Y-2.218 E5.24625
G1 X-3.425 Y-2.516 E5.25745
G1 X-3.213 Y-2.782 E5.26805
G1 X-2.958 Y-3.052 E5.27963
G1 X-2.697 Y-3.285 E5.29054
G1 X-2.415 Y-3.497 E5.30154
G1 X-2.101 Y-3.694 E5.3131
G1 X-1.803 Y-3.847 E5.32355
G1 X-1.462 Y-3.989 E5.33506
G1 X-1.132 Y-4.095 E5.34587
G1 X-.781 Y-4.176 E5.3571
G1 X-.428 Y-4.227 E5.36822
G1 X-0.069 Y-4.249 E5.37944
G1 X0.288 Y-4.239 E5.39058
G1 X0.627 Y-4.201 E5.40121
G1 X0.994 Y-4.131 E5.41286
G1 X1.324 Y-4.036 E5.42357
G1 X1.655 Y-3.912 E5.43459
G1 X1.991 Y-3.751 E5.44621
G1 X2.281 Y-3.583 E5.45666
G1 X2.589 Y-3.367 E5.46839
G1 X2.851 Y-3.148 E5.47904
G1 X3.115 Y-2.887 E5.49061
G1 X3.336 Y-2.628 E5.50123
G1 X3.548 Y-2.333 E5.51256
G1 X3.725 Y-2.04 E5.52323
G1 X3.887 Y-1.708 E5.53475
G1 X4.016 Y-1.381 E5.54571
G1 X4.118 Y-1.036 E5.55693
G1 X4.189 Y-.689 E5.56797
G1 X4.233 Y-.339 E5.57897
G1 X4.247 Y0.017 E5.59008
G1 X4.23 Y0.373 E5.60119
G1 X4.183 Y0.732 E5.61248
G0 F4950 X4.13 Y0.976
G0 X3.884 Y1.064
;TYPE:SKIN
G1 F1238.2 X3.166 Y1.783 E5.62833
G0 F4950 X3.693 Y1.61
G1 F1238.2 X1.608 Y3.694 E5.67429
G0 F4950 X0.88 Y3.714
G1 F1238.2 X0.442 Y3.799 E5.68517
G1 X0.061 Y3.828 E5.69455
G1 X-.284 Y3.82 E5.70306
G1 X-.604 Y3.786 E5.71094
G1 X-.897 Y3.725 E5.71837
G1 X-1.172 Y3.646 E5.72547
G1 X-1.431 Y3.553 E5.73225
G1 X-1.677 Y3.445 E5.73885
G1 X-1.911 Y3.325 E5.74531
G1 X-2.127 Y3.188 E5.75166
G1 X-2.333 Y3.04 E5.75794
G1 X-2.528 Y2.882 E5.76411
G1 X-2.71 Y2.71 E5.77028
G1 X-2.881 Y2.527 E5.77648
G1 X-3.041 Y2.334 E5.78265
G1 X-3.188 Y2.128 E5.78886
G1 X-3.324 Y1.91 E5.79523
G1 X-3.446 Y1.679 E5.80169
G1 X-3.555 Y1.434 E5.80824
G1 X-3.647 Y1.173 E5.81499
G1 X-3.724 Y0.895 E5.82208
G1 X-3.783 Y0.601 E5.82948
G1 X-3.821 Y0.286 E5.83736
G1 X-3.829 Y-0.059 E5.84588
G1 X-3.8 Y-.441 E5.85529
G1 X-3.719 Y-.876 E5.86616
G1 X-3.531 Y-1.417 E5.87992
G0 F4950 X-3.697 Y-1.605
G1 F1238.2 X-1.61 Y-3.692 E5.92593
G0 F4950 X-.878 Y-3.717
G1 F1238.2 X-.444 Y-3.797 E5.93675
G1 X-0.063 Y-3.825 E5.94616
G1 X0.281 Y-3.817 E5.95461
G1 X0.599 Y-3.781 E5.96246
G1 X0.895 Y-3.723 E5.9699
G1 X1.172 Y-3.647 E5.97696
G1 X1.433 Y-3.554 E5.98375
G1 X1.675 Y-3.443 E5.99033
G1 X1.907 Y-3.321 E5.99677
G1 X2.125 Y-3.186 E6.00307
G1 X2.332 Y-3.039 E6.00932
G1 X2.526 Y-2.879 E6.01555
G1 X2.708 Y-2.708 E6.02172
G1 X2.88 Y-2.526 E6.02785
G1 X3.038 Y-2.331 E6.03404
G1 X3.186 Y-2.126 E6.0403
G1 X3.322 Y-1.908 E6.04661
G1 X3.443 Y-1.675 E6.05301
G1 X3.551 Y-1.43 E6.05961
G1 X3.646 Y-1.171 E6.06644
G1 X3.724 Y-.895 E6.07347
G1 X3.78 Y-.598 E6.08078
G1 X3.815 Y-.279 E6.0886
G1 X3.823 Y0.065 E6.09702
G1 X3.796 Y0.445 E6.10638
G1 X3.712 Y0.883 E6.11725
G0 F4950 X3.179 Y2.476
G1 F1238.2 X2.487 Y3.169 E6.13252
G0 F4950 X1.785 Y3.164
G1 F1238.2 X1.064 Y3.885 E6.14842
G1 F6600 E4.14842
G0 F4950 X-1.776 Y-3.172
G1 F6600 E6.14842
G1 F1238.2 X-1.059 Y-3.89 E6.16424
G0 F4950 X-2.471 Y-3.185
G1 F1238.2 X-3.186 Y-2.469 E6.18001
G1 F6600 E4.18001
G0 F4950 X3.402 Y-.373
;TIME_ELAPSED:9.376075
;LAYER:2
G0 F6600 X3.402 Y-.373 Z0.6
;TYPE:WALL-OUTER
G1 F6600 E6.18001
G1 F990.4 X3.347 Y-.71 E6.19066
G1 X3.259 Y-1.039 E6.20128
G1 X3.14 Y-1.359 E6.21192
G1 X2.989 Y-1.666 E6.22259
G1 X2.808 Y-1.955 E6.23322
G1 X2.599 Y-2.225 E6.24387
G1 X2.364 Y-2.473 E6.25452
G1 X2.107 Y-2.697 E6.26516
G1 X1.828 Y-2.894 E6.2758
G1 X1.53 Y-3.061 E6.28646
G1 X1.218 Y-3.199 E6.29709
G1 X0.893 Y-3.305 E6.30775
G1 X0.56 Y-3.377 E6.31838
G1 X0.222 Y-3.417 E6.32899
G1 X-.12 Y-3.422 E6.33965
G1 X-.46 Y-3.393 E6.3503
G1 X-.795 Y-3.33 E6.36092
G1 X-1.123 Y-3.234 E6.37158
G1 X-1.439 Y-3.107 E6.3822
G1 X-1.741 Y-2.949 E6.39283
G1 X-2.027 Y-2.76 E6.40352
G1 X-2.291 Y-2.545 E6.41413
G1 X-2.533 Y-2.304 E6.42478
G1 X-2.75 Y-2.041 E6.43541
G1 X-2.94 Y-1.757 E6.44607
G1 X-3.101 Y-1.456 E6.45671
G1 X-3.23 Y-1.139 E6.46738
G1 X-3.327 Y-.812 E6.47802
G1 X-3.392 Y-.478 E6.48863
G1 X-3.423 Y-.138 E6.49928
G1 X-3.42 Y0.203 E6.50991
G1 X-3.382 Y0.543 E6.52058
G1 X-3.311 Y0.876 E6.53119
G1 X-3.207 Y1.201 E6.54183
G1 X-3.073 Y1.515 E6.55248
G1 X-2.906 Y1.813 E6.56313
G1 X-2.711 Y2.093 E6.57377
G1 X-2.489 Y2.352 E6.58441
G1 X-2.242 Y2.588 E6.59506
G1 X-1.974 Y2.798 E6.60567
G1 X-1.685 Y2.981 E6.61634
G1 X-1.38 Y3.134 E6.62698
G1 X-1.061 Y3.255 E6.63762
G1 X-.731 Y3.345 E6.64829
G1 X-.395 Y3.401 E6.65891
G1 X-0.055 Y3.423 E6.66953
G1 X0.286 Y3.411 E6.68017
G1 X0.624 Y3.365 E6.69081
G1 X0.956 Y3.286 E6.70145
G1 X1.279 Y3.175 E6.7121
G1 X1.588 Y3.032 E6.72271
G1 X1.883 Y2.858 E6.73339
G1 X2.158 Y2.656 E6.74403
G1 X2.412 Y2.427 E6.7547
G1 X2.641 Y2.175 E6.76531
G1 X2.845 Y1.901 E6.77597
G1 X3.02 Y1.608 E6.78661
G1 X3.165 Y1.3 E6.79722
G1 X3.279 Y0.978 E6.80787
G1 X3.36 Y0.647 E6.8185
G1 X3.408 Y0.309 E6.82914
G1 X3.421 Y-0.032 E6.83978
G1 X3.402 Y-.373 E6.85043
G0 F6600 X3.362 Y-.62
G0 X4.19 Y-.681
G1 F990.4 X4.233 Y-.332 E6.8614
G1 X4.247 Y0.024 E6.87251
G1 X4.23 Y0.38 E6.88362
G1 X4.18 Y0.741 E6.89498
G1 X4.109 Y1.071 E6.90551
G1 X4 Y1.423 E6.917
G1 X3.866 Y1.755 E6.92816
G1 X3.709 Y2.069 E6.93911
G1 X3.529 Y2.363 E6.94986
G1 X3.311 Y2.658 E6.9613
G1 X3.078 Y2.926 E6.97237
G1 X2.82 Y3.175 E6.98355
G1 X2.546 Y3.399 E6.99459
G1 X2.25 Y3.602 E7.00578
G1 X1.945 Y3.776 E7.01673
G1 X1.622 Y3.925 E7.02782
G1 X1.282 Y4.049 E7.0391
G1 X0.945 Y4.142 E7.05
G1 X0.595 Y4.206 E7.0611
G1 X0.236 Y4.242 E7.07235
G1 X-.121 Y4.247 E7.08348
G1 X-.468 Y4.223 E7.09433
G1 X-.824 Y4.168 E7.10556
G1 X-1.169 Y4.086 E7.11662
G1 X-1.504 Y3.974 E7.12763
G1 X-1.833 Y3.833 E7.13879
G1 X-2.152 Y3.665 E7.15003
G1 X-2.447 Y3.475 E7.16098
G1 X-2.72 Y3.264 E7.17173
G1 X-2.999 Y3.01 E7.1835
G1 X-3.233 Y2.759 E7.1942
G1 X-3.455 Y2.476 E7.20541
G1 X-3.648 Y2.181 E7.21641
G1 X-3.819 Y1.863 E7.22767
G1 X-3.958 Y1.547 E7.23843
G1 X-4.079 Y1.193 E7.25009
G1 X-4.161 Y0.865 E7.26064
G1 X-4.221 Y0.496 E7.27229
G1 X-4.248 Y0.154 E7.28299
G1 X-4.246 Y-.202 E7.29409
G1 X-4.213 Y-.562 E7.30536
G1 X-4.154 Y-.897 E7.31597
G1 X-4.06 Y-1.253 E7.32745
G1 X-3.942 Y-1.587 E7.3385
G1 X-3.793 Y-1.916 E7.34976
G1 X-3.621 Y-2.225 E7.36079
G1 X-3.422 Y-2.52 E7.37188
G1 X-3.201 Y-2.796 E7.38291
G1 X-2.959 Y-3.05 E7.39385
G1 X-2.69 Y-3.29 E7.40509
G1 X-2.403 Y-3.504 E7.41625
G1 X-2.102 Y-3.693 E7.42733
G1 X-1.796 Y-3.85 E7.43806
G1 X-1.454 Y-3.991 E7.44959
G1 X-1.125 Y-4.097 E7.46037
G1 X-.774 Y-4.177 E7.47159
G1 X-.42 Y-4.228 E7.48275
G1 X-0.062 Y-4.248 E7.49393
G1 X0.296 Y-4.238 E7.50509
G1 X0.642 Y-4.199 E7.51595
G1 X0.992 Y-4.131 E7.52707
G1 X1.327 Y-4.035 E7.53794
G1 X1.665 Y-3.906 E7.54922
G1 X1.992 Y-3.75 E7.56051
G1 X2.299 Y-3.571 E7.57159
G1 X2.578 Y-3.375 E7.58223
G1 X2.862 Y-3.138 E7.59376
G1 X3.12 Y-2.882 E7.60509
G1 X3.34 Y-2.622 E7.61571
G1 X3.55 Y-2.331 E7.6269
G1 X3.731 Y-2.026 E7.63796
G1 X3.89 Y-1.701 E7.64924
G1 X4.018 Y-1.373 E7.66022
G1 X4.12 Y-1.03 E7.67138
G1 X4.19 Y-.681 E7.68248
G0 F6600 X4.22 Y-.433
G0 X3.796 Y-.446
G1 F1320.6 X3.824 Y-0.064 E7.69191
G1 X3.815 Y0.279 E7.70043
G1 X3.779 Y0.597 E7.70835
G1 X3.723 Y0.895 E7.71579
G1 X3.646 Y1.171 E7.72286
G1 X3.551 Y1.429 E7.72969
G1 X3.442 Y1.674 E7.73631
G1 X3.321 Y1.907 E7.74278
G1 X3.187 Y2.127 E7.74914
G1 X3.038 Y2.331 E7.75542
G1 X2.878 Y2.525 E7.76163
G1 X2.708 Y2.708 E7.76777
G1 X2.526 Y2.88 E7.77392
G1 X2.331 Y3.038 E7.78011
G1 X2.125 Y3.186 E7.78632
G1 X1.907 Y3.321 E7.79259
