;FLAVOR:Repetier
;TIME:1852
;Generated with Cura_SteamEngine 2.5.0
M190 S60
M104 S220
M109 S220
G28 ;Home
G1 Z15.0 F6000 ;Move the platform down 15mm
;Prime the extruder
G92 E0
G1 F200 E3
G92 E0
;LAYER_COUNT:146
;LAYER:0
M106 S255
G0 F3300 X1.375 Y-2.634 Z0.3
;TYPE:SUPPORT
G1 F1800 X0.833 Y-2.849 E0.03636
G1 X0.266 Y-3.125 E0.07569
G1 X-.207 Y-3.399 E0.10978
G1 X-.71 Y-3.74 E0.14768
G1 X-1.173 Y-4.106 E0.18448
G1 X-1.612 Y-4.508 E0.2216
G1 X-2.001 Y-4.917 E0.2568
G1 X-2.403 Y-5.409 E0.29643
G1 X-2.723 Y-5.864 E0.33112
G1 X-3.022 Y-6.361 E0.36729
G1 X-3.304 Y-6.914 E0.406
G1 X-3.53 Y-7.456 E0.44262
G1 X-3.724 Y-8.033 E0.48058
G1 X-3.861 Y-8.567 E0.51496
G1 X-3.968 Y-9.158 E0.55242
G1 X-4.034 Y-9.755 E0.58988
G1 X-4.054 Y-10.336 E0.62613
G1 X-4.035 Y-10.899 E0.66126
G1 X-3.965 Y-11.539 E0.70141
G1 X-3.858 Y-12.119 E0.73819
G1 X-3.724 Y-12.638 E0.77162
G1 X-3.536 Y-13.198 E0.80846
G1 X-3.29 Y-13.785 E0.84815
G1 X-3.025 Y-14.304 E0.88449
G1 X-2.741 Y-14.777 E0.9189
G1 X-2.37 Y-15.305 E0.95914
G1 X-2.013 Y-15.741 E0.99428
G1 X-1.611 Y-16.163 E1.03063
G1 X-1.173 Y-16.565 E1.0677
G1 X-.71 Y-16.931 E1.10451
G1 X-.207 Y-17.272 E1.14241
G1 X0.266 Y-17.546 E1.1765
G1 X0.833 Y-17.822 E1.21582
G1 X1.375 Y-18.037 E1.25219
G1 X1.917 Y-18.208 E1.28763
G1 X2.494 Y-18.347 E1.32464
G1 X3.096 Y-18.445 E1.36268
G1 X3.678 Y-18.498 E1.39912
G1 X4.252 Y-18.509 E1.43493
G1 X4.877 Y-18.474 E1.47396
G1 X5.446 Y-18.402 E1.50973
G1 X6.009 Y-18.29 E1.54553
G1 X6.616 Y-18.12 E1.58484
G1 X7.121 Y-17.939 E1.6183
G1 X7.695 Y-17.686 E1.65741
G1 X8.198 Y-17.42 E1.6929
G1 X8.697 Y-17.108 E1.7296
G1 X9.177 Y-16.756 E1.76672
G1 X9.654 Y-16.352 E1.8057
G1 X10.055 Y-15.959 E1.84072
G1 X10.434 Y-15.53 E1.87642
G1 X10.8 Y-15.048 E1.91416
G1 X11.11 Y-14.574 E1.94948
G1 X11.402 Y-14.046 E1.98711
G1 X11.666 Y-13.479 E2.02611
G1 X11.857 Y-12.973 E2.05984
G1 X12.041 Y-12.355 E2.10005
G1 X12.168 Y-11.776 E2.13702
G1 X12.249 Y-11.223 E2.17187
G1 X12.289 Y-10.658 E2.2072
G1 X12.289 Y-10.013 E2.24742
G1 X12.249 Y-9.449 E2.28268
G1 X12.168 Y-8.895 E2.3176
G1 X12.041 Y-8.316 E2.35457
G1 X11.863 Y-7.714 E2.39371
G1 X11.663 Y-7.185 E2.42898
G1 X11.408 Y-6.636 E2.46673
G1 X11.116 Y-6.109 E2.50431
G1 X10.803 Y-5.627 E2.54015
G1 X10.453 Y-5.165 E2.57629
G1 X10.049 Y-4.706 E2.61443
G1 X9.654 Y-4.319 E2.64891
G1 X9.18 Y-3.917 E2.68767
G1 X8.702 Y-3.566 E2.72465
G1 X8.198 Y-3.251 E2.76172
G1 X7.695 Y-2.985 E2.7972
G1 X7.12 Y-2.732 E2.83638
G1 X6.616 Y-2.551 E2.86978
G1 X6.009 Y-2.381 E2.90909
G1 X5.446 Y-2.269 E2.94488
G1 X4.877 Y-2.197 E2.98065
G1 X4.252 Y-2.162 E3.01969
G1 X3.678 Y-2.173 E3.05549
G1 X3.096 Y-2.226 E3.09194
G1 X2.494 Y-2.324 E3.12997
G1 X1.917 Y-2.463 E3.16699
G1 X1.375 Y-2.634 E3.20243
G0 F3300 X2.014 Y-4.132
G1 F1800 X2.547 Y-3.983 E3.23694
G1 X3.104 Y-3.862 E3.27249
G1 X3.58 Y-3.809 E3.30236
G1 X4.055 Y-3.788 E3.33201
G1 X4.784 Y-3.821 E3.37752
G1 X5.304 Y-3.892 E3.41025
G1 X5.692 Y-3.976 E3.43501
G1 X6.292 Y-4.157 E3.47409
G1 X6.821 Y-4.37 E3.50965
G1 X7.224 Y-4.569 E3.53768
G1 X7.782 Y-4.913 E3.57856
G1 X8.146 Y-5.174 E3.60649
G1 X8.59 Y-5.554 E3.64294
G1 X8.971 Y-5.944 E3.67694
G1 X9.343 Y-6.377 E3.71254
G1 X9.609 Y-6.771 E3.74219
G1 X9.914 Y-7.278 E3.77908
G1 X10.16 Y-7.805 E3.81535
G1 X10.321 Y-8.22 E3.84311
G1 X10.483 Y-8.793 E3.88025
G1 X10.579 Y-9.282 E3.91133
G1 X10.649 Y-9.802 E3.94405
G1 X10.668 Y-10.464 E3.98535
G1 X10.634 Y-10.959 E4.01629
G1 X10.578 Y-11.451 E4.04717
G1 X10.461 Y-11.979 E4.0809
G1 X10.277 Y-12.56 E4.1189
G1 X10.117 Y-12.984 E4.14717
G1 X9.867 Y-13.473 E4.18142
G1 X9.544 Y-13.997 E4.2198
G1 X9.255 Y-14.401 E4.25078
G1 X8.888 Y-14.822 E4.28561
G1 X8.494 Y-15.21 E4.3201
G1 X8.106 Y-15.53 E4.35146
G1 X7.685 Y-15.829 E4.38366
G1 X7.18 Y-16.128 E4.42026
G1 X6.783 Y-16.321 E4.44779
G1 X6.168 Y-16.553 E4.48878
G1 X5.672 Y-16.697 E4.52099
G1 X5.163 Y-16.8 E4.55338
G1 X4.612 Y-16.864 E4.58797
G1 X4.175 Y-16.883 E4.61525
G1 X3.46 Y-16.846 E4.6599
G1 X3.034 Y-16.8 E4.68662
G1 X2.486 Y-16.679 E4.72162
G1 X1.887 Y-16.493 E4.76073
G1 X1.538 Y-16.358 E4.78407
G1 X0.957 Y-16.066 E4.82462
G1 X0.513 Y-15.804 E4.85677
G1 X0.044 Y-15.458 E4.89311
G1 X-.357 Y-15.118 E4.9259
G1 X-.699 Y-14.778 E4.95598
G1 X-1.066 Y-14.332 E4.992
G1 X-1.382 Y-13.896 E5.02558
G1 X-1.654 Y-13.435 E5.05896
G1 X-1.879 Y-12.97 E5.09117
G1 X-2.086 Y-12.424 E5.12759
G1 X-2.237 Y-11.932 E5.15968
G1 X-2.34 Y-11.41 E5.19286
G1 X-2.4 Y-10.885 E5.22582
G1 X-2.421 Y-10.433 E5.25403
G1 X-2.384 Y-9.627 E5.30435
G1 X-2.342 Y-9.266 E5.32702
G1 X-2.233 Y-8.75 E5.35991
G1 X-2.074 Y-8.215 E5.39471
G1 X-1.867 Y-7.683 E5.43031
G1 X-1.601 Y-7.152 E5.46735
G1 X-1.354 Y-6.747 E5.49693
G1 X-1.059 Y-6.318 E5.5294
G1 X-.659 Y-5.862 E5.56723
G1 X-.321 Y-5.53 E5.59678
G1 X0.115 Y-5.155 E5.63264
G1 X0.571 Y-4.83 E5.66756
G1 X1.016 Y-4.564 E5.69989
G1 X1.568 Y-4.304 E5.73794
G1 X2.014 Y-4.132 E5.76775
G1 F6600 E3.76775
G0 F3300 X0.00 Y-3.511
G1 F6600 E5.76775
G1 F1800 X0.00 Y-4.991 E5.86005
G1 F6600 E3.86005
G0 F3300 X-1.537 Y-6.666
G1 F6600 E5.86005
G1 F1800 X-2.953 Y-6.666 E5.94836
G1 F6600 E3.94836
G0 F3300 X-3.262 Y-13.332
G1 F6600 E5.94836
G1 F1800 X-1.925 Y-13.332 E6.03174
G1 F6600 E4.03174
G0 F3300 X0.00 Y-15.673
G1 F6600 E6.03174
G1 F1800 X0.00 Y-17.161 E6.12453
G1 F6600 E4.12453
G0 F3300 X6.666 Y-16.579
G1 F6600 E6.12453
G1 F1800 X6.666 Y-17.888 E6.20616
G1 F6600 E4.20616
G0 F3300 X10.163 Y-13.332
G1 F6600 E6.20616
G1 F1800 X11.508 Y-13.332 E6.29004
G1 F6600 E4.29004
G0 F3300 X11.195 Y-6.665
G1 F6600 E6.29004
G1 F1800 X9.78 Y-6.665 E6.37828
G1 F6600 E4.37828
G0 F3300 X6.666 Y-4.092
G1 F6600 E6.37828
G1 F1800 X6.666 Y-2.782 E6.45998
G1 F6600 E4.45998
G0 F3300 X3.484 Y5.997
;TYPE:WALL-INNER
G1 F6600 E6.45998
G1 F1800 X3.537 Y6.018 E6.46354
G1 X3.767 Y6.129 E6.47946
G1 X3.814 Y6.156 E6.48284
G1 X4.017 Y6.27 E6.49736
G1 X4.114 Y6.334 E6.50461
G1 X4.249 Y6.423 E6.51469
G1 X4.395 Y6.534 E6.52613
G1 X4.475 Y6.595 E6.5324
G1 X4.66 Y6.754 E6.54762
G1 X4.689 Y6.779 E6.55
G1 X4.892 Y6.98 E6.56782
G1 X4.922 Y7.014 E6.57065
G1 X5.075 Y7.187 E6.58505
G1 X5.144 Y7.276 E6.59207
G1 X5.248 Y7.411 E6.6027
G1 X5.346 Y7.556 E6.61361
G1 X5.4 Y7.636 E6.61963
G1 X5.526 Y7.853 E6.63528
G1 X5.547 Y7.888 E6.63783
G1 X5.665 Y8.126 E6.65439
G1 X5.688 Y8.182 E6.65817
G1 X5.778 Y8.398 E6.67276
G1 X5.814 Y8.505 E6.6798
G1 X5.871 Y8.672 E6.69081
G1 X5.914 Y8.834 E6.70126
G1 X5.941 Y8.933 E6.70766
G1 X5.988 Y9.173 E6.72291
G1 X5.994 Y9.204 E6.72488
G1 X6.032 Y9.498 E6.74337
G1 X6.034 Y9.539 E6.74593
G1 X6.049 Y9.762 E6.75987
G1 X6.049 Y9.885 E6.76754
G1 X6.048 Y10.052 E6.77795
G1 X6.036 Y10.23 E6.78908
G1 X6.029 Y10.321 E6.79477
G1 X5.996 Y10.571 E6.81049
G1 X5.99 Y10.612 E6.81308
G1 X5.933 Y10.889 E6.83071
G1 X5.922 Y10.93 E6.83336
G1 X5.86 Y11.156 E6.84798
G1 X5.824 Y11.263 E6.85502
G1 X5.772 Y11.412 E6.86486
G1 X5.699 Y11.585 E6.87657
G1 X5.659 Y11.678 E6.88288
G1 X5.549 Y11.897 E6.89817
G1 X5.531 Y11.932 E6.90062
G1 X5.385 Y12.18 E6.91857
G1 X5.364 Y12.211 E6.9209
G1 X5.239 Y12.396 E6.93483
G1 X5.162 Y12.494 E6.9426
G1 X5.057 Y12.628 E6.95322
G1 X4.94 Y12.759 E6.96417
G1 X4.868 Y12.838 E6.97083
G1 X4.698 Y13.006 E6.98574
G1 X4.672 Y13.032 E6.98803
G1 X4.463 Y13.21 E7.00515
G1 X4.419 Y13.242 E7.00855
G1 X4.229 Y13.385 E7.02338
G1 X4.139 Y13.443 E7.03005
G1 X3.998 Y13.535 E7.04055
G1 X3.84 Y13.622 E7.0518
G1 X3.753 Y13.671 E7.05803
G1 X3.533 Y13.776 E7.07323
G1 X3.486 Y13.799 E7.07649
G1 X3.253 Y13.892 E7.09214
G1 X3.19 Y13.912 E7.09626
G1 X2.963 Y13.985 E7.11113
G1 X2.859 Y14.01 E7.1178
G1 X2.701 Y14.05 E7.12797
G1 X2.521 Y14.082 E7.13937
G1 X2.411 Y14.103 E7.14635
G1 X2.174 Y14.129 E7.16122
G1 X2.14 Y14.133 E7.16335
G1 X1.866 Y14.146 E7.18046
G1 X1.809 Y14.145 E7.18402
G1 X1.574 Y14.14 E7.19867
G1 X1.465 Y14.131 E7.20549
G1 X1.301 Y14.117 E7.21576
G1 X1.121 Y14.089 E7.22712
G1 X1.015 Y14.072 E7.23381
G1 X0.785 Y14.022 E7.24849
G1 X0.758 Y14.016 E7.25022
G1 X0.473 Y13.932 E7.26875
G1 X0.432 Y13.917 E7.27147
G1 X0.217 Y13.839 E7.28573
G1 X0.109 Y13.792 E7.29308
G1 X-0.043 Y13.724 E7.30346
G1 X-.201 Y13.641 E7.31459
G1 X-.302 Y13.588 E7.32171
G1 X-.501 Y13.467 E7.33623
G1 X-.53 Y13.449 E7.33836
G1 X-.764 Y13.283 E7.35625
G1 X-.798 Y13.256 E7.35896
G1 X-.974 Y13.114 E7.37306
G1 X-1.064 Y13.03 E7.38074
G1 X-1.188 Y12.914 E7.39133
G1 X-1.308 Y12.788 E7.40218
G1 X-1.377 Y12.716 E7.4084
G1 X-1.535 Y12.525 E7.42386
G1 X-1.557 Y12.498 E7.42603
G1 X-1.727 Y12.262 E7.44417
G1 X-1.748 Y12.228 E7.44666
G1 X-1.874 Y12.028 E7.4614
G1 X-1.925 Y11.931 E7.46824
G1 X-2.006 Y11.779 E7.47898
G1 X-2.077 Y11.621 E7.48978
G1 X-2.123 Y11.521 E7.49664
G1 X-2.206 Y11.299 E7.51142
G1 X-2.22 Y11.264 E7.51377
G1 X-2.306 Y10.98 E7.53228
G1 X-2.313 Y10.95 E7.5342
G1 X-2.362 Y10.739 E7.54771
G1 X-2.383 Y10.609 E7.55592
G1 X-2.411 Y10.434 E7.56697
G1 X-2.426 Y10.264 E7.57762
G1 X-2.436 Y10.164 E7.58388
G1 X-2.444 Y9.922 E7.59898
G1 X-2.446 Y9.882 E7.60148
G1 X-2.436 Y9.595 E7.61939
G1 X-2.432 Y9.554 E7.62196
G1 X-2.407 Y9.318 E7.63676
G1 X-2.39 Y9.214 E7.64333
G1 X-2.363 Y9.053 E7.65351
G1 X-2.32 Y8.872 E7.66511
G1 X-2.299 Y8.789 E7.67045
G1 X-2.223 Y8.542 E7.68657
G1 X-2.212 Y8.506 E7.68892
G1 X-2.108 Y8.233 E7.70714
G1 X-2.092 Y8.198 E7.70954
G1 X-1.998 Y7.996 E7.72343
G1 X-1.94 Y7.889 E7.73102
G1 X-1.856 Y7.736 E7.74191
G1 X-1.764 Y7.59 E7.75267
G1 X-1.714 Y7.512 E7.75844
G1 X-1.563 Y7.307 E7.77432
G1 X-1.535 Y7.269 E7.77727
G1 X-1.369 Y7.069 E7.79348
G1 X-1.328 Y7.026 E7.79718
G1 X-1.166 Y6.858 E7.81174
G1 X-1.083 Y6.782 E7.81875
G1 X-.956 Y6.666 E7.82948
G1 X-.823 Y6.559 E7.84013
G1 X-.743 Y6.494 E7.84655
G1 X-.543 Y6.355 E7.86174
G1 X-.508 Y6.33 E7.86442
G1 X-.27 Y6.187 E7.88174
G1 X-.227 Y6.165 E7.88475
G1 X-0.028 Y6.063 E7.8987
G1 X0.083 Y6.015 E7.90624
G1 X0.24 Y5.946 E7.91693
G1 X0.404 Y5.887 E7.9278
G1 X0.499 Y5.853 E7.9341
G1 X0.733 Y5.787 E7.94926
G1 X0.776 Y5.774 E7.95206
G1 X1.045 Y5.716 E7.96922
G1 X1.094 Y5.709 E7.97231
G1 X1.333 Y5.674 E7.98737
G1 X1.439 Y5.666 E7.994
G1 X1.594 Y5.653 E8.0037
G1 X1.784 Y5.651 E8.01555
G1 X1.886 Y5.649 E8.02191
G1 X2.13 Y5.662 E8.03715
G1 X2.162 Y5.664 E8.03915
G1 X2.448 Y5.697 E8.0571
G1 X2.492 Y5.705 E8.05989
G1 X2.729 Y5.75 E8.07494
G1 X2.831 Y5.776 E8.0815
G1 X2.98 Y5.815 E8.09111
G1 X3.163 Y5.875 E8.10312
G1 X3.263 Y5.908 E8.10968
G1 X3.484 Y5.997 E8.12454
G0 F3300 X3.365 Y6.297
G1 F1800 X3.145 Y6.212 E8.12876
G1 X3.063 Y6.18
G1 X2.888 Y6.129
G1 X2.751 Y6.088
G1 X2.664 Y6.071
G1 X2.433 Y6.023 E8.13119
G1 X2.412 Y6.021
G1 X2.124 Y5.987 E8.13786
G1 X2.112 Y5.985
G1 X1.873 Y5.976 E8.13993
G1 X1.789 Y5.972 E8.1422
G1 X1.608 Y5.979 E8.14323
G1 X1.465 Y5.986 E8.14606
G1 X1.375 Y5.997
G1 X1.141 Y6.027 E8.15123
G1 X1.114 Y6.032
G1 X0.845 Y6.091 E8.15479
G1 X0.823 Y6.096
G1 X0.593 Y6.165 E8.15857
G1 X0.514 Y6.189
G1 X0.359 Y6.249
G1 X0.211 Y6.307 E8.16315
G1 X0.118 Y6.353
G1 X-0.079 Y6.452 E8.16789
G1 X-.102 Y6.465
G1 X-.34 Y6.608 E8.17164
G1 X-.358 Y6.619
G1 X-.552 Y6.759 E8.17597
G1 X-.621 Y6.809 E8.17655
G1 X-.743 Y6.914 E8.17796
G1 X-.865 Y7.019 E8.1798
G1 X-.935 Y7.089
G1 X-1.095 Y7.249 E8.18166
G1 X-1.119 Y7.278
G1 X-1.286 Y7.477 E8.18691
G1 X-1.304 Y7.498
G1 X-1.447 Y7.7 E8.19102
G1 X-1.491 Y7.762 E8.19207
G1 X-1.573 Y7.902
G1 X-1.656 Y8.043
G1 X-1.702 Y8.138
G1 X-1.797 Y8.334 E8.1942
G1 X-1.803 Y8.349
G1 X-1.909 Y8.624 E8.20109
G1 X-1.914 Y8.636
G1 X-1.986 Y8.88 E8.20322
G1 X-2.006 Y8.948
G1 X-2.04 Y9.118
G1 X-2.071 Y9.266 E8.20606
G1 X-2.081 Y9.356
G1 X-2.109 Y9.587 E8.20857
G1 X-2.109 Y9.607
G1 X-2.121 Y9.895 E8.2151
G1 X-2.122 Y9.91
G1 X-2.112 Y10.15 E8.21882
G1 X-2.108 Y10.234 E8.21934
G1 X-2.088 Y10.393 E8.21942
G1 X-2.067 Y10.558
G1 X-2.043 Y10.669
G1 X-1.998 Y10.876 E8.22394
G1 X-1.995 Y10.886
G1 X-1.91 Y11.171 E8.23067
G1 X-1.905 Y11.185 E8.23099
G1 X-1.82 Y11.402 E8.23432
G1 X-1.786 Y11.488 E8.23512
G1 X-1.714 Y11.632 E8.23525
G1 X-1.64 Y11.779 E8.23845
G1 X-1.593 Y11.858
G1 X-1.475 Y12.055 E8.24353
G1 X-1.463 Y12.072
G1 X-1.293 Y12.31 E8.2503
G1 X-1.286 Y12.319
G1 X-1.129 Y12.502 E8.25188
G1 X-1.075 Y12.565 E8.25411
G1 X-.957 Y12.684 E8.25459
G1 X-.845 Y12.796
G1 X-.765 Y12.862
G1 X-.596 Y13.003 E8.25661
G1 X-.575 Y13.018
G1 X-.334 Y13.191 E8.26349
G1 X-.137 Y13.306 E8.26513
G1 X-0.052 Y13.356 E8.26665
G1 X0.099 Y13.429
G1 X0.239 Y13.497
G1 X0.335 Y13.534
G1 X0.541 Y13.614 E8.27144
G1 X0.564 Y13.62
G1 X0.853 Y13.706 E8.27861
G1 X1.08 Y13.752 E8.28047
G1 X1.171 Y13.771
G1 X1.338 Y13.79
G1 X1.492 Y13.809
G1 X1.587 Y13.812
G1 X1.815 Y13.822 E8.2825
G1 X1.852 Y13.821
G1 X2.126 Y13.809 E8.28832
G1 X2.139 Y13.808
G1 X2.37 Y13.779 E8.29165
G1 X2.463 Y13.767 E8.29251
G1 X2.631 Y13.731 E8.29312
G1 X2.781 Y13.698 E8.29633
G1 X2.868 Y13.672
G1 X3.09 Y13.605 E8.30143
G1 X3.133 Y13.588
G1 X3.367 Y13.497 E8.3063
G1 X3.393 Y13.487
G1 X3.606 Y13.381 E8.30991
G1 X3.683 Y13.342 E8.31226
G1 X3.829 Y13.255 E8.31278
G1 X3.963 Y13.175 E8.31564
G1 X4.036 Y13.122
G1 X4.225 Y12.984 E8.32292
G1 X4.251 Y12.962 E8.32349
G1 X4.461 Y12.784 E8.32952
G1 X4.47 Y12.776 E8.32974
G1 X4.637 Y12.608 E8.33399
G1 X4.701 Y12.544
G1 X4.805 Y12.419
G1 X4.908 Y12.295 E8.3371
G1 X4.971 Y12.207
G1 X5.096 Y12.031 E8.3417
G1 X5.104 Y12.017
G1 X5.25 Y11.768 E8.34599
G1 X5.26 Y11.751
G1 X5.366 Y11.534 E8.3481
G1 X5.402 Y11.461 E8.3492
G1 X5.466 Y11.294
G1 X5.519 Y11.158
G1 X5.546 Y11.064
G1 X5.611 Y10.846 E8.35141
G1 X5.615 Y10.825
G1 X5.672 Y10.547 E8.35543
G1 X5.676 Y10.528
G1 X5.705 Y10.283 E8.35719
G1 X5.714 Y10.207
G1 X5.72 Y10.039
G1 X5.727 Y9.884
G1 X5.723 Y9.776
G1 X5.713 Y9.56 E8.36303
G1 X5.711 Y9.54 E8.36315
G1 X5.672 Y9.236 E8.37029
G1 X5.622 Y9.003 E8.37168
G1 X5.603 Y8.918 E8.37236
G1 X5.558 Y8.767 E8.37247
G1 X5.51 Y8.609 E8.37449
G1 X5.475 Y8.517
G1 X5.392 Y8.306 E8.37863
G1 X5.375 Y8.272
G1 X5.256 Y8.034 E8.38212
G1 X5.247 Y8.016 E8.38248
G1 X5.12 Y7.803 E8.38661
G1 X5.08 Y7.736
G1 X4.984 Y7.605
G1 X4.889 Y7.474 E8.3897
G1 X4.826 Y7.4
G1 X4.681 Y7.229 E8.3946
G1 X4.663 Y7.211
G1 X4.46 Y7.009 E8.40109
G1 X4.45 Y6.999
G1 X4.267 Y6.845 E8.40246
G1 X4.201 Y6.79 E8.40371
G1 X4.06 Y6.69
G1 X3.937 Y6.603 E8.40524
G1 X3.852 Y6.553
G1 X3.656 Y6.438 E8.41027
G1 X3.626 Y6.424
G1 X3.395 Y6.312 E8.41528
G1 X3.365 Y6.297
G0 F3300 X3.166 Y6.756
;TYPE:WALL-OUTER
G1 F1800 X2.902 Y6.654 E8.43293
G1 X2.63 Y6.574 E8.45061
G1 X2.353 Y6.517 E8.46825
G1 X2.072 Y6.484 E8.48589
G1 X1.79 Y6.472 E8.5035
G1 X1.507 Y6.485 E8.52116
G1 X1.225 Y6.52 E8.53888
G1 X0.949 Y6.58 E8.5565
G1 X0.678 Y6.662 E8.57416
G1 X0.414 Y6.765 E8.59183
G1 X0.161 Y6.891 E8.60945
G1 X-0.083 Y7.037 E8.62719
G1 X-.311 Y7.202 E8.64474
G1 X-.525 Y7.386 E8.66234
G1 X-.726 Y7.587 E8.68007
G1 X-.908 Y7.804 E8.69773
G1 X-1.071 Y8.034 E8.71531
G1 X-1.215 Y8.279 E8.73303
G1 X-1.338 Y8.533 E8.75063
G1 X-1.44 Y8.797 E8.76828
G1 X-1.52 Y9.069 E8.78596
G1 X-1.577 Y9.346 E8.8036
G1 X-1.61 Y9.627 E8.82124
G1 X-1.622 Y9.909 E8.83884
G1 X-1.609 Y10.192 E8.85651
G1 X-1.574 Y10.474 E8.87423
G1 X-1.514 Y10.75 E8.89185
G1 X-1.432 Y11.021 E8.9095
G1 X-1.329 Y11.285 E8.92718
G1 X-1.202 Y11.538 E8.94483
G1 X-1.057 Y11.78 E8.96242
G1 X-.892 Y12.01 E8.98008
G1 X-.708 Y12.225 E8.99772
G1 X-.507 Y12.426 E9.01545
G1 X-.29 Y12.607 E9.03307
G1 X-0.061 Y12.771 E9.05064
G1 X0.184 Y12.915 E9.06836
G1 X0.438 Y13.038 E9.08596
G1 X0.702 Y13.14 E9.10361
G1 X0.974 Y13.22 E9.12129
G1 X1.251 Y13.277 E9.13893
G1 X1.532 Y13.31 E9.15657
G1 X1.814 Y13.322 E9.17418
G1 X2.097 Y13.309 E9.19184
G1 X2.379 Y13.274 E9.20956
G1 X2.655 Y13.214 E9.22718
G1 X2.926 Y13.132 E9.24484
G1 X3.19 Y13.029 E9.26251
G1 X3.443 Y12.903 E9.28013
G1 X3.687 Y12.757 E9.29787
G1 X3.916 Y12.591 E9.3155
G1 X4.13 Y12.409 E9.33302
G1 X4.331 Y12.207 E9.3508
G1 X4.512 Y11.99 E9.36842
G1 X4.676 Y11.759 E9.38608
G1 X4.819 Y11.515 E9.40372
G1 X4.943 Y11.261 E9.42135
G1 X5.045 Y10.997 E9.439
G1 X5.125 Y10.725 E9.45668
G1 X5.182 Y10.448 E9.47432
G1 X5.215 Y10.167 E9.49196
G1 X5.227 Y9.885 E9.50956
G1 X5.214 Y9.602 E9.52723
G1 X5.179 Y9.32 E9.54495
G1 X5.119 Y9.044 E9.56257
G1 X5.037 Y8.773 E9.58022
G1 X4.934 Y8.509 E9.59789
G1 X4.808 Y8.256 E9.61552
G1 X4.662 Y8.012 E9.63325
G1 X4.496 Y7.783 E9.65089
G1 X4.314 Y7.569 E9.66841
G1 X4.112 Y7.368 E9.68618
G1 X3.895 Y7.186 E9.70385
G1 X3.665 Y7.023 E9.72143
G1 X3.42 Y6.879 E9.73915
