;-- START GCODE --
;Sliced for Type A Machines Series 1
;Sliced at: Mon 24-07-2017 15:14:23
;Basic settings:
;	Layer height: 0.15
;	Walls: 0.8
;	Fill: 5
;	Print Speed: 60
;	Support: 0
;	Retraction Speed: 35
;	Retraction Distance: 0.4
;Print time: 3 hours 38 minutes
;Filament used: 11.484m 34.0g
;Settings based on: Generic PLA
G21        ;metric values
G90        ;absolute positioning
G28     ;move to endstops
G29		;allows for auto-levelling
G1 Z15.0 F12000 ;move the platform down 15mm
G1 X150 Y5 F12000 ;center
M109 S220 ;Heat To temp
G1 X150 Y5 Z0.3 ;move the platform to purge extrusion
G92 E0 ;zero the extruded length
G1 F200 X250 E30 ;extrude 30mm of feed stock
G92 E0 ;zero the extruded length again
G1 X150 Y150  Z25 F12000 ;recenter and begin
G1 F12000

;Layer count: 86
;LAYER:0
M107
G0 F12000 X44.619 Y110.092 Z0.200
;TYPE:SKIRT
G1 F1800 X44.619 Y200.014 E2.99082
G1 X76.541 Y200.014 E4.05255
G1 X76.541 Y110.092 E7.04337
G1 X44.619 Y110.092 E8.10510
G0 F12000 X44.219 Y109.692
G1 F1800 X44.219 Y200.414 E11.12252
G1 X76.941 Y200.414 E12.21086
G1 X76.941 Y109.692 E15.22829
G1 X44.219 Y109.692 E16.31662
G0 F12000 X43.819 Y109.292
G1 F1800 X43.819 Y200.814 E19.36066
G1 X77.341 Y200.814 E20.47560
G1 X77.341 Y109.292 E23.51964
G1 X43.819 Y109.292 E24.63458
G0 F12000 X43.419 Y108.892
G1 F1800 X43.419 Y200.897 E27.69468
G1 X43.445 Y201.097 E27.70139
G1 X43.458 Y201.127 E27.70248
G1 X43.479 Y201.154 E27.70362
G1 X43.506 Y201.175 E27.70475
G1 X43.534 Y201.187 E27.70577
G1 X43.742 Y201.214 E27.71274
G1 X77.620 Y201.214 E28.83953
G1 X77.741 Y200.973 E28.84850
G1 X77.741 Y108.892 E31.91113
G1 X43.419 Y108.892 E33.05268
G0 F12000 X43.019 Y108.492
G1 F1800 X43.019 Y200.927 E36.12708
G1 X43.055 Y201.201 E36.13627
G1 X43.108 Y201.328 E36.14085
G1 X43.195 Y201.442 E36.14562
G1 X43.302 Y201.524 E36.15010
G1 X43.430 Y201.577 E36.15471
G1 X43.713 Y201.614 E36.16420
G1 X77.866 Y201.614 E37.30014
G1 X78.141 Y201.067 E37.32050
G1 X78.141 Y108.492 E40.39956
G1 X43.019 Y108.492 E41.56772
G0 F12000 X43.080 Y108.092
G1 F1800 X42.619 Y107.683 E41.58822
G1 X42.619 Y200.949 E44.69026
G1 X42.666 Y201.305 E44.70220
G1 X42.760 Y201.532 E44.71037
G1 X42.908 Y201.725 E44.71846
G1 X43.101 Y201.873 E44.72655
G1 X43.325 Y201.966 E44.73462
G1 X43.691 Y202.014 E44.74690
G1 X78.113 Y202.014 E45.89178
G1 X78.541 Y201.163 E45.92346
G1 X78.541 Y108.092 E49.01901
G1 X43.080 Y108.092 E50.19845
G0 F12000 X43.232 Y107.692
G1 F1800 X42.219 Y106.792 E50.24352
G1 X42.219 Y200.978 E53.37616
G1 X42.276 Y201.411 E53.39068
G1 X42.409 Y201.732 E53.40224
G1 X42.622 Y202.010 E53.41389
G1 X42.899 Y202.222 E53.42549
G1 X43.223 Y202.356 E53.43715
G1 X43.661 Y202.414 E53.45185
G1 X78.359 Y202.414 E54.60591
G1 X78.941 Y201.257 E54.64898
G1 X78.941 Y107.973 E57.75162
G1 X78.922 Y107.832 E57.75635
G1 X78.905 Y107.790 E57.75786
G1 X78.880 Y107.758 E57.75921
G1 X78.838 Y107.726 E57.76097
G1 X78.801 Y107.711 E57.76230
G1 X78.658 Y107.692 E57.76709
G1 X43.232 Y107.692 E58.94537
G0 F12000 X43.384 Y107.292
G1 F1800 X42.284 Y106.315 E58.99430
G1 X41.819 Y106.315 E59.00977
G1 X41.819 Y201.007 E62.15924
G1 X41.886 Y201.512 E62.17618
G1 X42.061 Y201.935 E62.19140
G1 X42.337 Y202.295 E62.20649
G1 X42.698 Y202.573 E62.22165
G1 X43.119 Y202.746 E62.23679
G1 X43.632 Y202.814 E62.25400
G1 X78.606 Y202.814 E63.41724
G1 X79.341 Y201.351 E63.47169
G1 X79.341 Y107.948 E66.57829
G1 X79.311 Y107.725 E66.58577
G1 X79.253 Y107.587 E66.59075
G1 X79.165 Y107.473 E66.59554
G1 X79.039 Y107.377 E66.60081
G1 X78.902 Y107.321 E66.60573
G1 X78.689 Y107.292 E66.61288
G1 X43.384 Y107.292 E67.78713
G0 F12000 X43.536 Y106.892
G1 F1800 X42.436 Y105.915 E67.83606
G1 X41.419 Y105.915 E67.86989
G1 X41.419 Y201.030 E71.03343
G1 X41.497 Y201.620 E71.05322
G1 X41.711 Y202.136 E71.07180
G1 X42.050 Y202.578 E71.09033
G1 X42.497 Y202.922 E71.10909
G1 X43.014 Y203.135 E71.12769
G1 X43.610 Y203.214 E71.14768
G1 X78.853 Y203.214 E72.31987
G1 X79.741 Y201.447 E72.38564
G1 X79.741 Y107.916 E75.49650
G1 X79.701 Y107.622 E75.50637
G1 X79.601 Y107.382 E75.51501
G1 X79.449 Y107.185 E75.52329
G1 X79.243 Y107.029 E75.53189
G1 X79.008 Y106.932 E75.54034
G1 X78.712 Y106.892 E75.55028
G1 X43.536 Y106.892 E76.72023
G0 F12000 X43.688 Y106.492
G1 F1800 X42.587 Y105.515 E76.76919
G1 X41.019 Y105.515 E76.82134
G1 X41.019 Y201.059 E79.99915
G1 X41.106 Y201.721 E80.02136
G1 X41.362 Y202.338 E80.04358
G1 X41.767 Y202.865 E80.06568
G1 X42.296 Y203.272 E80.08788
G1 X42.910 Y203.526 E80.10998
G1 X43.580 Y203.614 E80.13246
G1 X79.099 Y203.614 E81.31382
G1 X80.141 Y201.541 E81.39099
G1 X80.141 Y107.891 E84.50580
G1 X80.090 Y107.516 E84.51839
G1 X79.949 Y107.179 E84.53054
G1 X79.734 Y106.900 E84.54226
G1 X79.441 Y106.677 E84.55450
G1 X79.112 Y106.542 E84.56633
G1 X78.743 Y106.492 E84.57872
G1 X43.688 Y106.492 E85.74465
G0 F12000 X43.283 Y103.365
G1 F1800 X67.355 Y104.027 E86.54559
G1 X80.416 Y81.402 E87.41449
G1 X124.618 Y81.402 E88.88465
G1 X124.618 Y90.603 E89.19068
G1 X85.647 Y90.602 E90.48686
G1 X82.732 Y95.652 E90.68080
G1 X82.732 Y212.002 E94.55062
G1 X85.647 Y217.051 E94.74452
G1 X120.617 Y217.051 E95.90763
G1 X120.617 Y226.801 E96.23192
G1 X80.417 Y226.801 E97.56898
G1 X68.271 Y205.764 E98.37692
G1 X43.559 Y205.764 E99.19884
G1 X42.680 Y205.679 E99.22821
G1 X41.813 Y205.424 E99.25827
G1 X41.013 Y205.009 E99.28825
G1 X36.563 Y202.112 E99.46485
G1 X35.985 Y201.624 E99.49001
G1 X35.957 Y201.597 E99.49131
G1 X35.505 Y200.963 E99.51721
G1 X35.216 Y200.225 E99.54357
G1 X35.120 Y199.457 E99.56931
G1 X35.119 Y106.545 E102.65957
G1 X35.226 Y105.736 E102.68672
G1 X35.546 Y104.964 E102.71451
G1 X36.054 Y104.301 E102.74229
G1 X36.718 Y103.792 E102.77012
G1 X37.490 Y103.472 E102.79791
G1 X38.306 Y103.365 E102.82529
G1 X43.283 Y103.365 E102.99082
G0 F12000 X43.288 Y102.965
G1 F1800 X67.127 Y103.620 E103.78401
G1 X79.813 Y81.647 E104.62789
G1 X80.186 Y81.002 E104.65267
G1 X125.018 Y81.002 E106.14379
G1 X125.018 Y91.003 E106.47643
G1 X85.878 Y91.003 E107.77823
G1 X83.132 Y95.759 E107.96089
G1 X83.132 Y211.894 E111.82355
G1 X85.879 Y216.651 E112.00626
G1 X121.017 Y216.651 E113.17495
G1 X121.017 Y227.201 E113.52585
G1 X80.186 Y227.201 E114.88389
G1 X68.039 Y206.164 E115.69185
G1 X43.540 Y206.164 E116.50669
G1 X42.604 Y206.074 E116.53796
G1 X41.663 Y205.797 E116.57059
G1 X40.811 Y205.355 E116.60251
G1 X36.324 Y202.434 E116.78059
G1 X35.714 Y201.919 E116.80714
G1 X35.650 Y201.856 E116.81013
G1 X35.150 Y201.155 E116.83877
G1 X34.825 Y200.324 E116.86844
G1 X34.720 Y199.482 E116.89667
G1 X34.719 Y106.519 E119.98863
G1 X34.837 Y105.631 E120.01842
G1 X35.197 Y104.762 E120.04971
G1 X35.769 Y104.016 E120.08097
G1 X36.516 Y103.443 E120.11229
G1 X37.385 Y103.082 E120.14358
G1 X38.280 Y102.965 E120.17361
G1 X43.288 Y102.965 E120.34017
G0 F12000 X43.294 Y102.565
G1 F1800 X66.901 Y103.214 E121.12564
G1 X79.466 Y81.447 E121.96158
G1 X79.956 Y80.602 E121.99406
G1 X125.418 Y80.602 E123.50614
G1 X125.418 Y91.403 E123.86538
G1 X86.109 Y91.403 E125.17280
G1 X83.532 Y95.868 E125.34427
G1 X83.532 Y211.787 E129.19975
G1 X86.109 Y216.251 E129.37119
G1 X121.417 Y216.251 E130.54554
G1 X121.417 Y227.601 E130.92304
G1 X79.955 Y227.601 E132.30207
G1 X67.809 Y206.564 E133.11001
G1 X43.521 Y206.564 E133.91783
G1 X42.527 Y206.468 E133.95105
G1 X41.513 Y206.170 E133.98620
G1 X40.610 Y205.701 E134.02004
G1 X36.085 Y202.755 E134.19963
G1 X35.443 Y202.214 E134.22755
G1 X35.344 Y202.115 E134.23221
G1 X34.796 Y201.347 E134.26359
G1 X34.434 Y200.423 E134.29660
G1 X34.320 Y199.507 E134.32730
G1 X34.319 Y106.492 E137.42099
G1 X34.447 Y105.526 E137.45340
G1 X34.848 Y104.561 E137.48816
G1 X35.484 Y103.731 E137.52294
G1 X36.315 Y103.094 E137.55776
G1 X37.281 Y102.693 E137.59255
G1 X38.254 Y102.565 E137.62519
G1 X43.294 Y102.565 E137.79282
G0 F12000 X43.299 Y102.165
G1 F1800 X66.672 Y102.808 E138.57050
G1 X79.120 Y81.246 E139.39859
G1 X79.725 Y80.202 E139.43872
G1 X125.818 Y80.202 E140.97178
G1 X125.818 Y91.803 E141.35763
G1 X86.340 Y91.803 E142.67068
G1 X83.932 Y95.975 E142.83089
G1 X83.932 Y211.681 E146.67929
G1 X86.340 Y215.851 E146.83945
G1 X121.817 Y215.851 E148.01942
G1 X121.817 Y228.001 E148.42353
G1 X79.724 Y228.001 E149.82355
G1 X67.804 Y207.356 E150.61644
G1 X67.578 Y206.964 E150.63149
G1 X43.502 Y206.964 E151.43226
G1 X42.451 Y206.863 E151.46738
G1 X41.363 Y206.543 E151.50510
G1 X40.408 Y206.047 E151.54089
G1 X35.846 Y203.077 E151.72194
G1 X35.172 Y202.509 E151.75126
G1 X35.038 Y202.375 E151.75756
G1 X34.442 Y201.539 E151.79171
G1 X34.043 Y200.522 E151.82805
G1 X33.920 Y199.532 E151.86123
G1 X33.919 Y106.466 E154.95662
G1 X34.057 Y105.422 E154.99164
G1 X34.498 Y104.359 E155.02992
G1 X35.198 Y103.446 E155.06818
G1 X36.113 Y102.744 E155.10654
G1 X37.176 Y102.303 E155.14482
G1 X38.228 Y102.165 E155.18011
G1 X43.299 Y102.165 E155.34877
G0 F12000 X43.305 Y101.765
G1 F1800 X66.445 Y102.402 E156.11870
G1 X78.774 Y81.046 E156.93887
G1 X79.495 Y79.802 E156.98670
G1 X126.218 Y79.802 E158.54071
G1 X126.218 Y92.203 E158.95317
G1 X86.571 Y92.203 E160.27183
G1 X84.332 Y96.081 E160.42077
G1 X84.332 Y211.572 E164.26202
G1 X86.571 Y215.451 E164.41098
G1 X122.217 Y215.451 E165.59657
G1 X122.217 Y228.401 E166.02729
G1 X79.493 Y228.401 E167.44830
G1 X67.457 Y207.555 E168.24891
G1 X67.347 Y207.364 E168.25624
G1 X43.482 Y207.364 E169.04999
G1 X42.375 Y207.257 E169.08698
G1 X41.213 Y206.916 E169.12726
G1 X40.206 Y206.393 E169.16500
G1 X35.607 Y203.399 E169.34752
G1 X34.901 Y202.804 E169.37823
G1 X34.731 Y202.634 E169.38623
G1 X34.087 Y201.731 E169.42312
G1 X33.653 Y200.621 E169.46276
G1 X33.520 Y199.557 E169.49842
G1 X33.519 Y106.440 E172.59551
G1 X33.668 Y105.317 E172.63318
G1 X34.149 Y104.157 E172.67495
G1 X34.913 Y103.160 E172.71673
G1 X35.911 Y102.395 E172.75855
G1 X37.072 Y101.913 E172.80036
G1 X38.201 Y101.765 E172.83823
G1 X43.305 Y101.765 E173.00799
G0 F12000 X43.310 Y101.365
G1 F1800 X66.217 Y101.995 E173.77017
G1 X78.428 Y80.845 E174.58245
G1 X79.264 Y79.402 E174.63792
G1 X126.618 Y79.402 E176.21292
G1 X126.618 Y92.603 E176.65198
G1 X86.802 Y92.603 E177.97627
G1 X84.732 Y96.188 E178.11396
G1 X84.732 Y211.466 E181.94812
G1 X86.802 Y215.051 E182.08581
G1 X122.617 Y215.051 E183.27702
G1 X122.617 Y228.801 E183.73434
G1 X79.262 Y228.801 E185.17634
G1 X67.116 Y207.764 E185.98428
G1 X43.463 Y207.764 E186.77098
G1 X42.298 Y207.652 E186.80991
G1 X41.063 Y207.289 E186.85272
G1 X40.004 Y206.739 E186.89241
G1 X35.368 Y203.721 E187.07640
G1 X34.630 Y203.099 E187.10850
G1 X34.425 Y202.893 E187.11817
G1 X33.733 Y201.923 E187.15780
G1 X33.262 Y200.721 E187.20074
G1 X33.120 Y199.582 E187.23891
G1 X33.119 Y106.413 E190.33773
G1 X33.278 Y105.212 E190.37802
G1 X33.800 Y103.955 E190.42329
G1 X34.628 Y102.875 E190.46855
G1 X35.709 Y102.046 E190.51386
G1 X36.967 Y101.524 E190.55916
G1 X38.175 Y101.365 E190.59969
G1 X43.310 Y101.365 E190.77048
G0 F12000 X43.316 Y100.965
G1 F1800 X65.990 Y101.588 E191.52490
G1 X78.081 Y80.645 E192.32922
G1 X79.034 Y79.002 E192.39239
G1 X127.018 Y79.002 E193.98835
G1 X127.018 Y93.003 E194.45402
G1 X87.033 Y93.003 E195.78393
G1 X85.132 Y96.297 E195.91043
G1 X85.132 Y211.358 E199.73737
G1 X87.033 Y214.651 E199.86384
G1 X123.017 Y214.651 E201.06067
G1 X123.017 Y229.201 E201.54460
G1 X79.031 Y229.201 E203.00758
G1 X66.885 Y208.164 E203.81552
G1 X43.444 Y208.164 E204.59518
G1 X42.222 Y208.046 E204.63601
G1 X40.913 Y207.661 E204.68139
G1 X39.802 Y207.085 E204.72301
G1 X35.129 Y204.042 E204.90849
G1 X34.359 Y203.393 E204.94198
G1 X34.119 Y203.153 E204.95327
G1 X33.378 Y202.115 E204.99569
G1 X32.871 Y200.820 E205.04194
G1 X32.720 Y199.607 E205.08260
G1 X32.719 Y106.387 E208.18311
G1 X32.888 Y105.107 E208.22605
G1 X33.450 Y103.754 E208.27478
G1 X34.342 Y102.590 E208.32355
G1 X35.507 Y101.696 E208.37240
G1 X36.863 Y101.134 E208.42122
G1 X38.149 Y100.965 E208.46436
G1 X43.316 Y100.965 E208.63621
G0 F12000 X43.321 Y100.565
G1 F1800 X65.762 Y101.182 E209.38289
G1 X77.735 Y80.445 E210.17931
G1 X78.803 Y78.602 E210.25016
G1 X127.418 Y78.602 E211.86710
G1 X127.418 Y93.403 E212.35938
G1 X87.264 Y93.403 E213.69491
G1 X85.532 Y96.403 E213.81012
G1 X85.532 Y211.251 E217.62998
G1 X87.264 Y214.251 E217.74520
G1 X123.417 Y214.251 E218.94765
G1 X123.417 Y229.601 E219.45820
G1 X78.800 Y229.601 E220.94216
G1 X66.654 Y208.564 E221.75010
G1 X43.425 Y208.564 E222.52270
G1 X42.146 Y208.441 E222.56544
G1 X40.763 Y208.034 E222.61339
G1 X39.601 Y207.431 E222.65693
G1 X34.890 Y204.364 E222.84390
G1 X34.089 Y203.688 E222.87876
G1 X33.812 Y203.412 E222.89177
G1 X33.024 Y202.307 E222.93691
G1 X32.481 Y200.919 E222.98648
G1 X32.320 Y199.632 E223.02962
G1 X32.319 Y106.361 E226.13182
G1 X32.499 Y105.003 E226.17739
G1 X33.101 Y103.552 E226.22964
G1 X34.057 Y102.305 E226.28190
G1 X35.306 Y101.347 E226.33425
G1 X36.758 Y100.744 E226.38654
G1 X38.123 Y100.565 E226.43233
G1 X43.321 Y100.565 E226.60522
G0 F12000 X43.327 Y100.165
G1 F1800 X65.536 Y100.775 E227.34417
G1 X77.389 Y80.244 E228.13267
G1 X78.573 Y78.202 E228.21117
G1 X127.818 Y78.202 E229.84907
G1 X127.818 Y93.803 E230.36796
G1 X87.495 Y93.803 E231.70911
G1 X85.932 Y96.510 E231.81307
G1 X85.932 Y211.143 E235.62578
G1 X87.495 Y213.851 E235.72978
G1 X123.817 Y213.851 E236.93785
G1 X123.817 Y230.001 E237.47500
G1 X78.569 Y230.001 E238.97996
G1 X66.424 Y208.964 E239.78788
G1 X43.406 Y208.964 E240.55346
G1 X42.070 Y208.835 E240.59811
G1 X40.613 Y208.407 E240.64861
G1 X39.399 Y207.776 E240.69412
G1 X34.651 Y204.686 E240.88254
G1 X33.818 Y203.983 E240.91879
G1 X33.506 Y203.671 E240.93347
G1 X32.670 Y202.499 E240.98135
G1 X32.090 Y201.018 E241.03425
G1 X31.920 Y199.657 E241.07987
G1 X31.919 Y196.153 E241.19641
G1 X31.919 Y106.334 E244.18380
G1 X32.109 Y104.898 E244.23198
G1 X32.751 Y103.350 E244.28772
G1 X33.772 Y102.019 E244.34351
G1 X35.104 Y100.998 E244.39933
G1 X36.654 Y100.354 E244.45516
G1 X38.097 Y100.165 E244.50356
G1 X43.327 Y100.165 E244.67752
G0 F12000 X43.332 Y99.765
G1 F1800 X65.308 Y100.369 E245.40872
G1 X77.043 Y80.044 E246.18931
G1 X78.343 Y77.802 E246.27551
G1 X128.218 Y77.802 E247.93436
G1 X128.218 Y94.203 E248.47986
G1 X87.726 Y94.203 E249.82663
G1 X86.332 Y96.617 E249.91935
G1 X86.332 Y211.037 E253.72497
G1 X87.726 Y213.451 E253.81769
G1 X124.217 Y213.451 E255.03138
G1 X124.217 Y230.401 E255.59514
G1 X78.338 Y230.401 E257.12108
G1 X66.192 Y209.364 E257.92902
G1 X43.386 Y209.364 E258.68755
G1 X41.993 Y209.230 E258.73410
G1 X40.463 Y208.780 E258.78714
G1 X39.197 Y208.122 E258.83460
G1 X34.412 Y205.007 E259.02450
G1 X33.547 Y204.278 E259.06212
G1 X33.200 Y203.931 E259.07845
G1 X32.315 Y202.691 E259.12912
G1 X31.699 Y201.117 E259.18533
G1 X31.520 Y199.682 E259.23343
G1 X31.519 Y196.153 E259.35081
G1 X31.519 Y106.307 E262.33910
G1 X31.720 Y104.793 E262.38989
G1 X32.402 Y103.149 E262.44909
G1 X33.486 Y101.734 E262.50838
G1 X34.902 Y100.648 E262.56773
G1 X36.549 Y99.965 E262.62703
G1 X38.071 Y99.765 E262.67809
G1 X43.332 Y99.765 E262.85307
G1 F2100 E262.45307
G0 F12000 X43.264 Y104.165
;TYPE:WALL-INNER
G1 F2100 E262.85307
G1 F1800 X67.809 Y104.840 E263.66975
G1 X80.851 Y82.248 E264.53738
G1 X80.878 Y82.202 E264.53916
G1 X123.818 Y82.202 E265.96735
G1 X123.818 Y89.803 E266.22016
G1 X86.045 Y89.803 E267.47649
G1 X85.186 Y89.801 E267.50506
G1 X82.053 Y95.229 E267.71351
G1 X81.932 Y95.438 E267.72155
G1 X81.932 Y212.216 E271.60560
G1 X84.973 Y217.482 E271.80785
G1 X85.186 Y217.851 E271.82202
G1 X119.817 Y217.851 E272.97386
G1 X119.817 Y226.001 E273.24493
G1 X80.879 Y226.001 E274.54001
G1 X68.732 Y204.964 E275.34797
G1 X43.596 Y204.964 E276.18399
G1 X42.835 Y204.891 E276.20942
G1 X42.111 Y204.678 E276.23452
G1 X41.418 Y204.318 E276.26050
G1 X37.043 Y201.470 E276.43412
G1 X36.555 Y201.058 E276.45537
G1 X36.215 Y200.583 E276.47479
G1 X35.996 Y200.023 E276.49479
G1 X35.920 Y199.411 E276.51531
G1 X35.919 Y106.599 E279.60224
G1 X36.006 Y105.944 E279.62422
G1 X36.245 Y105.367 E279.64499
G1 X36.625 Y104.872 E279.66575
G1 X37.122 Y104.491 E279.68658
G1 X37.698 Y104.252 E279.70732
G1 X38.359 Y104.165 E279.72949
G1 X43.264 Y104.165 E279.89264
G1 F2100 E279.49264
G0 F12000 X43.992 Y105.692
G1 F2100 E279.89264
G1 F1800 X43.073 Y104.876 E279.93351
G1 X42.896 Y104.715 E279.94147
G1 X40.219 Y104.715 E280.03051
G1 X40.219 Y201.109 E283.23658
G1 X40.327 Y201.933 E283.26423
G1 X40.663 Y202.742 E283.29336
G1 X41.196 Y203.436 E283.32247
G1 X41.891 Y203.970 E283.35162
G1 X42.701 Y204.305 E283.38077
G1 X43.530 Y204.414 E283.40858
G1 X79.593 Y204.414 E284.60804
G1 X80.866 Y201.880 E284.70236
G1 X80.941 Y201.731 E284.70791
G1 X80.941 Y107.838 E287.83080
G1 X80.868 Y107.302 E287.84879
G1 X80.648 Y106.776 E287.86776
G1 X80.303 Y106.328 E287.88656
G1 X79.842 Y105.977 E287.90584
G1 X79.322 Y105.763 E287.92454
G1 X78.795 Y105.692 E287.94222
G1 X43.992 Y105.692 E289.09978
G0 F12000 X43.841 Y106.092
;TYPE:WALL-OUTER
G1 F1800 X42.808 Y105.175 E289.14572
G1 X42.741 Y105.115 E289.14871
G1 X40.619 Y105.115 E289.21929
G1 X40.619 Y201.083 E292.41120
G1 X40.717 Y201.828 E292.43619
G1 X41.012 Y202.540 E292.46182
G1 X41.481 Y203.151 E292.48744
G1 X42.093 Y203.621 E292.51311
G1 X42.805 Y203.915 E292.53873
G1 X43.556 Y204.014 E292.56392
G1 X79.346 Y204.014 E293.75430
G1 X80.541 Y201.636 E293.84282
G1 X80.541 Y107.865 E296.96166
G1 X80.479 Y107.408 E296.97699
G1 X80.299 Y106.979 E296.99247
G1 X80.018 Y106.614 E297.00779
G1 X79.641 Y106.327 E297.02355
G1 X79.217 Y106.152 E297.03880
G1 X78.768 Y106.092 E297.05387
G1 X43.841 Y106.092 E298.21555
G1 F2100 E297.81555
G0 F12000 X43.275 Y103.765
G1 F2100 E298.21555
G1 F1800 X67.582 Y104.433 E299.02431
G1 X80.647 Y81.802 E299.89344
G1 X124.218 Y81.802 E301.34262
G1 X124.218 Y90.203 E301.62204
G1 X85.417 Y90.202 E302.91257
G1 X82.332 Y95.545 E303.11777
G1 X82.332 Y212.109 E306.99471
G1 X85.417 Y217.451 E307.19988
G1 X120.217 Y217.451 E308.35733
G1 X120.217 Y226.401 E308.65501
G1 X80.647 Y226.401 E309.97112
G1 X68.501 Y205.364 E310.77906
G1 X43.578 Y205.364 E311.60800
G1 X42.757 Y205.285 E311.63543
G1 X41.960 Y205.051 E311.66306
G1 X41.222 Y204.667 E311.69073
G1 X36.801 Y201.789 E311.86618
G1 X36.261 Y201.334 E311.88967
G1 X35.859 Y200.770 E311.91271
G1 X35.606 Y200.125 E311.93575
G1 X35.520 Y199.436 E311.95884
G1 X35.519 Y106.569 E315.04761
G1 X35.615 Y105.843 E315.07197
G1 X35.896 Y105.166 E315.09635
G1 X36.340 Y104.587 E315.12062
G1 X36.920 Y104.142 E315.14493
G1 X37.597 Y103.861 E315.16931
G1 X38.330 Y103.765 E315.19390
G1 X43.275 Y103.765 E315.35837
G0 F12000 X43.200 Y104.305
;TYPE:SKIN
G1 F1800 X43.000 Y104.686 E315.37472
G1 X42.600 Y104.305 E315.38368
G1 X42.200 Y104.575 E315.39267
G1 X41.800 Y104.305 E315.40166
G1 X41.400 Y104.575 E315.41065
G1 X41.000 Y104.305 E315.41963
G1 X40.600 Y104.575 E315.42862
G1 X40.400 Y104.305 E315.43980
G0 F12000 X40.000 Y104.305
G1 F1800 X40.000 Y203.227 E318.72996
G0 F12000 X40.400 Y203.487
G1 F1800 X40.400 Y202.475 E318.76362
G0 F12000 X40.800 Y203.150
G1 F1800 X41.000 Y203.681 E318.78348
G1 X41.400 Y203.965 E318.79653
G1 X41.800 Y204.211 E318.80758
G1 X42.200 Y204.398 E318.81742
G1 X42.600 Y204.675 E318.82685
G1 X43.000 Y204.486 E318.83594
G1 X43.400 Y204.804 E318.84494
G1 X43.800 Y204.554 E318.85389
G1 X44.200 Y204.824 E318.86288
G1 X44.600 Y204.554 E318.87186
G1 X45.000 Y204.824 E318.88085
G1 X45.400 Y204.554 E318.88984
G1 X45.800 Y204.824 E318.89883
G1 X46.200 Y204.554 E318.90782
G1 X46.600 Y204.824 E318.91681
G1 X47.000 Y204.554 E318.92580
G1 X47.400 Y204.824 E318.93478
G1 X47.800 Y204.554 E318.94377
G1 X48.200 Y204.824 E318.95276
G1 X48.600 Y204.554 E318.96175
G1 X49.000 Y204.824 E318.97074
G1 X49.400 Y204.554 E318.97973
G1 X49.800 Y204.824 E318.98872
G1 X50.200 Y204.554 E318.99771
G1 X50.600 Y204.824 E319.00669
G1 X51.000 Y204.554 E319.01568
G1 X51.400 Y204.824 E319.02467
G1 X51.800 Y204.554 E319.03366
G1 X52.200 Y204.824 E319.04265
G1 X52.600 Y204.554 E319.05164
G1 X53.000 Y204.824 E319.06063
G1 X53.400 Y204.554 E319.06962
G1 X53.800 Y204.824 E319.07860
G1 X54.200 Y204.554 E319.08759
G1 X54.600 Y204.824 E319.09658
G1 X55.000 Y204.554 E319.10557
G1 X55.400 Y204.824 E319.11456
G1 X55.800 Y204.554 E319.12355
G1 X56.200 Y204.824 E319.13254
G1 X56.600 Y204.554 E319.14152
G1 X57.000 Y204.824 E319.15051
G1 X57.400 Y204.554 E319.15950
G1 X57.800 Y204.824 E319.16849
G1 X58.200 Y204.554 E319.17748
G1 X58.600 Y204.824 E319.18647
G1 X59.000 Y204.554 E319.19546
G1 X59.400 Y204.824 E319.20445
G1 X59.800 Y204.554 E319.21343
G1 X60.200 Y204.824 E319.22242
G1 X60.600 Y204.554 E319.23141
G1 X61.000 Y204.824 E319.24040
G1 X61.400 Y204.554 E319.24939
G1 X61.800 Y204.824 E319.25838
G1 X62.200 Y204.554 E319.26737
G1 X62.600 Y204.824 E319.27636
G1 X63.000 Y204.554 E319.28534
G1 X63.400 Y204.824 E319.29433
G1 X63.800 Y204.554 E319.30332
G1 X64.200 Y204.824 E319.31231
G1 X64.600 Y204.554 E319.32130
G1 X65.000 Y204.824 E319.33029
G1 X65.400 Y204.554 E319.33928
G1 X65.800 Y204.824 E319.34827
G1 X66.200 Y204.554 E319.35725
G1 X66.600 Y204.824 E319.36624
G1 X67.000 Y204.554 E319.37523
G1 X67.400 Y204.824 E319.38422
G1 X67.800 Y204.554 E319.39321
G1 X68.200 Y204.824 E319.40220
G1 X68.600 Y204.554 E319.41119
G1 X68.800 Y204.824 E319.42236
G0 F12000 X69.200 Y204.554
G1 F1800 X69.200 Y205.495 E319.45366
G0 F12000 X69.600 Y206.188
G1 F1800 X69.600 Y204.554 E319.50801
G0 F12000 X70.000 Y204.554
G1 F1800 X70.000 Y206.881 E319.58540
G0 F12000 X70.400 Y207.574
G1 F1800 X70.400 Y204.554 E319.68585
G0 F12000 X70.800 Y204.554
G1 F1800 X70.800 Y208.266 E319.80931
G0 F12000 X71.200 Y208.959
G1 F1800 X71.200 Y204.554 E319.95582
G0 F12000 X71.600 Y204.554
G1 F1800 X71.600 Y209.652 E320.12538
G0 F12000 X72.000 Y210.345
G1 F1800 X72.000 Y204.554 E320.31799
G0 F12000 X72.400 Y204.554
G1 F1800 X72.400 Y211.037 E320.53362
G0 F12000 X72.800 Y211.730
G1 F1800 X72.800 Y204.554 E320.77229
G0 F12000 X73.200 Y204.554
G1 F1800 X73.200 Y212.423 E321.03401
G0 F12000 X73.600 Y213.116
G1 F1800 X73.600 Y204.554 E321.31879
G0 F12000 X74.000 Y204.554
G1 F1800 X74.000 Y213.808 E321.62658
G0 F12000 X74.400 Y214.501
G1 F1800 X74.400 Y204.554 E321.95742
G0 F12000 X74.800 Y204.554
G1 F1800 X74.800 Y215.194 E322.31130
G0 F12000 X75.200 Y215.887
G1 F1800 X75.200 Y204.554 E322.68824
G0 F12000 X75.600 Y204.554
G1 F1800 X75.600 Y216.579 E323.08819
G0 F12000 X76.000 Y217.272
G1 F1800 X76.000 Y204.554 E323.51120
G0 F12000 X76.400 Y204.554
G1 F1800 X76.400 Y217.965 E323.95725
G0 F12000 X76.800 Y218.658
G1 F1800 X76.800 Y204.554 E324.42635
G0 F12000 X77.200 Y204.554
G1 F1800 X77.200 Y219.350 E324.91847
G0 F12000 X77.600 Y220.043
G1 F1800 X77.600 Y204.554 E325.43363
G0 F12000 X78.000 Y204.554
G1 F1800 X78.000 Y220.736 E325.97185
G0 F12000 X78.400 Y221.429
G1 F1800 X78.400 Y204.554 E326.53311
G0 F12000 X78.800 Y204.554
G1 F1800 X78.800 Y222.121 E327.11739
G0 F12000 X79.200 Y222.814
G1 F1800 X79.200 Y204.554 E327.72472
G0 F12000 X79.600 Y204.554
G1 F1800 X79.600 Y223.507 E328.35510
G0 F12000 X80.000 Y224.200
G1 F1800 X80.000 Y203.914 E329.02982
G0 F12000 X80.400 Y203.118
G1 F1800 X80.400 Y224.892 E329.75402
G0 F12000 X80.800 Y225.585
G1 F1800 X80.800 Y202.322 E330.52775
G1 F2100 E330.12775
G0 F12000 X82.000 Y212.615
G1 F2100 E330.52775
G1 F1800 X82.000 Y225.861 E330.96832
G0 F12000 X81.600 Y225.861
G1 F1800 X81.600 Y82.342 E335.74178
G0 F12000 X81.200 Y82.342
G1 F1800 X81.200 Y225.861 E340.51524
G0 F12000 X82.400 Y225.861
G1 F1800 X82.400 Y213.307 E340.93279
G0 F12000 X82.800 Y213.999
G1 F1800 X82.800 Y225.861 E341.32732
G0 F12000 X83.200 Y225.861
G1 F1800 X83.200 Y214.692 E341.69880
G0 F12000 X83.600 Y215.384
G1 F1800 X83.600 Y225.861 E342.04727
G0 F12000 X84.000 Y225.861
G1 F1800 X84.000 Y216.077 E342.37269
G0 F12000 X84.400 Y216.769
G1 F1800 X84.400 Y225.861 E342.67509
G0 F12000 X84.800 Y225.861
G1 F1800 X84.800 Y217.462 E342.95444
G0 F12000 X85.200 Y217.991
G1 F1800 X85.200 Y225.861 E343.21620
G0 F12000 X85.600 Y225.861
G1 F1800 X85.600 Y217.991 E343.47795
G0 F12000 X86.000 Y217.991
G1 F1800 X86.000 Y225.861 E343.73971
G0 F12000 X86.400 Y225.861
G1 F1800 X86.400 Y217.991 E344.00147
G0 F12000 X86.800 Y217.991
G1 F1800 X86.800 Y225.861 E344.26323
G0 F12000 X87.200 Y225.861
G1 F1800 X87.200 Y217.991 E344.52498
G0 F12000 X87.600 Y217.991
G1 F1800 X87.600 Y225.861 E344.78674
G0 F12000 X88.000 Y225.861
G1 F1800 X88.000 Y217.991 E345.04850
G0 F12000 X88.400 Y217.991
G1 F1800 X88.400 Y225.861 E345.31025
G0 F12000 X88.800 Y225.861
G1 F1800 X88.800 Y217.991 E345.57201
G0 F12000 X89.200 Y217.991
G1 F1800 X89.200 Y225.861 E345.83377
G0 F12000 X89.600 Y225.861
G1 F1800 X89.600 Y217.991 E346.09553
G0 F12000 X90.000 Y217.991
G1 F1800 X90.000 Y225.861 E346.35728
G0 F12000 X90.400 Y225.861
G1 F1800 X90.400 Y217.991 E346.61904
G0 F12000 X90.800 Y217.991
G1 F1800 X90.800 Y225.861 E346.88080
G0 F12000 X91.200 Y225.861
G1 F1800 X91.200 Y217.991 E347.14256
G0 F12000 X91.600 Y217.991
G1 F1800 X91.600 Y225.861 E347.40431
G0 F12000 X92.000 Y225.861
G1 F1800 X92.000 Y217.991 E347.66607
G0 F12000 X92.400 Y217.991
G1 F1800 X92.400 Y225.861 E347.92783
G0 F12000 X92.800 Y225.861
G1 F1800 X92.800 Y217.991 E348.18958
G0 F12000 X93.200 Y217.991
G1 F1800 X93.200 Y225.861 E348.45134
G0 F12000 X93.600 Y225.861
G1 F1800 X93.600 Y217.991 E348.71310
G0 F12000 X94.000 Y217.991
G1 F1800 X94.000 Y225.861 E348.97486
G0 F12000 X94.400 Y225.861
G1 F1800 X94.400 Y217.991 E349.23661
G0 F12000 X94.800 Y217.991
G1 F1800 X94.800 Y225.861 E349.49837
G0 F12000 X95.200 Y225.861
G1 F1800 X95.200 Y217.991 E349.76013
G0 F12000 X95.600 Y217.991
G1 F1800 X95.600 Y225.861 E350.02189
G0 F12000 X96.000 Y225.861
G1 F1800 X96.000 Y217.991 E350.28364
G0 F12000 X96.400 Y217.991
G1 F1800 X96.400 Y225.861 E350.54540
G0 F12000 X96.800 Y225.861
G1 F1800 X96.800 Y217.991 E350.80716
G0 F12000 X97.200 Y217.991
G1 F1800 X97.200 Y225.861 E351.06891
G0 F12000 X97.600 Y225.861
G1 F1800 X97.600 Y217.991 E351.33067
G0 F12000 X98.000 Y217.991
G1 F1800 X98.000 Y225.861 E351.59243
G0 F12000 X98.400 Y225.861
G1 F1800 X98.400 Y217.991 E351.85419
G0 F12000 X98.800 Y217.991
G1 F1800 X98.800 Y225.861 E352.11594
G0 F12000 X99.200 Y225.861
G1 F1800 X99.200 Y217.991 E352.37770
G0 F12000 X99.600 Y217.991
G1 F1800 X99.600 Y225.861 E352.63946
G0 F12000 X100.000 Y225.861
G1 F1800 X100.000 Y217.991 E352.90122
G0 F12000 X100.400 Y217.991
G1 F1800 X100.400 Y225.861 E353.16297
G0 F12000 X100.800 Y225.861
G1 F1800 X100.800 Y217.991 E353.42473
G0 F12000 X101.200 Y217.991
G1 F1800 X101.200 Y225.861 E353.68649
G0 F12000 X101.600 Y225.861
G1 F1800 X101.600 Y217.991 E353.94824
G0 F12000 X102.000 Y217.991
G1 F1800 X102.000 Y225.861 E354.21000
G0 F12000 X102.400 Y225.861
G1 F1800 X102.400 Y217.991 E354.47176
G0 F12000 X102.800 Y217.991
G1 F1800 X102.800 Y225.861 E354.73352
G0 F12000 X103.200 Y225.861
G1 F1800 X103.200 Y217.991 E354.99527
G0 F12000 X103.600 Y217.991
G1 F1800 X103.600 Y225.861 E355.25703
G0 F12000 X104.000 Y225.861
G1 F1800 X104.000 Y217.991 E355.51879
G0 F12000 X104.400 Y217.991
G1 F1800 X104.400 Y225.861 E355.78055
G0 F12000 X104.800 Y225.861
G1 F1800 X104.800 Y217.991 E356.04230
G0 F12000 X105.200 Y217.991
G1 F1800 X105.200 Y225.861 E356.30406
G0 F12000 X105.600 Y225.861
G1 F1800 X105.600 Y217.991 E356.56582
G0 F12000 X106.000 Y217.991
G1 F1800 X106.000 Y225.861 E356.82757
G0 F12000 X106.400 Y225.861
G1 F1800 X106.400 Y217.991 E357.08933
G0 F12000 X106.800 Y217.991
G1 F1800 X106.800 Y225.861 E357.35109
G0 F12000 X107.200 Y225.861
G1 F1800 X107.200 Y217.991 E357.61285
G0 F12000 X107.600 Y217.991
G1 F1800 X107.600 Y225.861 E357.87460
G0 F12000 X108.000 Y225.861
G1 F1800 X108.000 Y217.991 E358.13636
G0 F12000 X108.400 Y217.991
G1 F1800 X108.400 Y225.861 E358.39812
G0 F12000 X108.800 Y225.861
G1 F1800 X108.800 Y217.991 E358.65988
G0 F12000 X109.200 Y217.991
G1 F1800 X109.200 Y225.861 E358.92163
G0 F12000 X109.600 Y225.861
G1 F1800 X109.600 Y217.991 E359.18339
G0 F12000 X110.000 Y217.991
G1 F1800 X110.000 Y225.861 E359.44515
G0 F12000 X110.400 Y225.861
G1 F1800 X110.400 Y217.991 E359.70690
G0 F12000 X110.800 Y217.991
G1 F1800 X110.800 Y225.861 E359.96866
G0 F12000 X111.200 Y225.861
G1 F1800 X111.200 Y217.991 E360.23042
G0 F12000 X111.600 Y217.991
G1 F1800 X111.600 Y225.861 E360.49218
G0 F12000 X112.000 Y225.861
G1 F1800 X112.000 Y217.991 E360.75393
G0 F12000 X112.400 Y217.991
G1 F1800 X112.400 Y225.861 E361.01569
G0 F12000 X112.800 Y225.861
G1 F1800 X112.800 Y217.991 E361.27745
G0 F12000 X113.200 Y217.991
G1 F1800 X113.200 Y225.861 E361.53920
G0 F12000 X113.600 Y225.861
G1 F1800 X113.600 Y217.991 E361.80096
G0 F12000 X114.000 Y217.991
G1 F1800 X114.000 Y225.861 E362.06272
G0 F12000 X114.400 Y225.861
G1 F1800 X114.400 Y217.991 E362.32448
G0 F12000 X114.800 Y217.991
G1 F1800 X114.800 Y225.861 E362.58623
G0 F12000 X115.200 Y225.861
G1 F1800 X115.200 Y217.991 E362.84799
G0 F12000 X115.600 Y217.991
G1 F1800 X115.600 Y225.861 E363.10975
G0 F12000 X116.000 Y225.861
G1 F1800 X116.000 Y217.991 E363.37151
G0 F12000 X116.400 Y217.991
G1 F1800 X116.400 Y225.861 E363.63326
G0 F12000 X116.800 Y225.861
G1 F1800 X116.800 Y217.991 E363.89502
G0 F12000 X117.200 Y217.991
G1 F1800 X117.200 Y225.861 E364.15678
G0 F12000 X117.600 Y225.861
G1 F1800 X117.600 Y217.991 E364.41853
G0 F12000 X118.000 Y217.991
G1 F1800 X118.000 Y225.861 E364.68029
G0 F12000 X118.400 Y225.861
G1 F1800 X118.400 Y217.991 E364.94205
G0 F12000 X118.800 Y217.991
G1 F1800 X118.800 Y225.861 E365.20381
G0 F12000 X119.200 Y225.861
G1 F1800 X119.200 Y217.991 E365.46556
G0 F12000 X119.600 Y217.991
G1 F1800 X119.600 Y225.861 E365.72732
G1 F2100 E365.32732
G0 F12000 X39.600 Y202.966
G1 F2100 E365.72732
G1 F1800 X39.600 Y104.305 E369.00880
G0 F12000 X39.200 Y104.305
G1 F1800 X39.200 Y202.706 E372.28163
G0 F12000 X38.800 Y202.445
G1 F1800 X38.800 Y104.305 E375.54578
G0 F12000 X38.400 Y104.305
G1 F1800 X38.400 Y202.185 E378.80128
G0 F12000 X38.000 Y201.925
G1 F1800 X38.000 Y104.353 E382.04654
G0 F12000 X37.600 Y104.444
G1 F1800 X37.600 Y201.664 E385.28009
G0 F12000 X37.200 Y201.404
G1 F1800 X37.200 Y104.611 E388.49944
G0 F12000 X36.800 Y104.914
G1 F1800 X36.800 Y201.080 E391.69793
G0 F12000 X36.400 Y200.600
G1 F1800 X36.400 Y105.396 E394.86443
G1 F2100 E394.46443
G0 F12000 X43.600 Y105.154
G1 F2100 E394.86443
G1 F1800 X43.600 Y104.315 E394.89234
G0 F12000 X44.000 Y104.326
G1 F1800 X44.000 Y105.510 E394.93172
G0 F12000 X44.400 Y105.552
G1 F1800 X44.400 Y104.337 E394.97213
G0 F12000 X44.800 Y104.348
G1 F1800 X44.800 Y105.552 E395.01217
G0 F12000 X45.200 Y105.552
G1 F1800 X45.200 Y104.359 E395.05185
G0 F12000 X45.600 Y104.370
G1 F1800 X45.600 Y105.552 E395.09116
G0 F12000 X46.000 Y105.552
G1 F1800 X46.000 Y104.381 E395.13011
G0 F12000 X46.400 Y104.392
G1 F1800 X46.400 Y105.552 E395.16869
G0 F12000 X46.800 Y105.552
G1 F1800 X46.800 Y104.403 E395.20691
G0 F12000 X47.200 Y104.414
G1 F1800 X47.200 Y105.552 E395.24476
G0 F12000 X47.600 Y105.552
G1 F1800 X47.600 Y104.425 E395.28224
G0 F12000 X48.000 Y104.436
G1 F1800 X48.000 Y105.552 E395.31936
G0 F12000 X48.400 Y105.552
G1 F1800 X48.400 Y104.447 E395.35611
G0 F12000 X48.800 Y104.458
G1 F1800 X48.800 Y105.552 E395.39250
G0 F12000 X49.200 Y105.552
G1 F1800 X49.200 Y104.469 E395.42852
G0 F12000 X49.600 Y104.480
G1 F1800 X49.600 Y105.552 E395.46418
G0 F12000 X50.000 Y105.552
G1 F1800 X50.000 Y104.491 E395.49947
G0 F12000 X50.400 Y104.502
G1 F1800 X50.400 Y105.552 E395.53439
G0 F12000 X50.800 Y105.552
G1 F1800 X50.800 Y104.513 E395.56895
G0 F12000 X51.200 Y104.524
G1 F1800 X51.200 Y105.552 E395.60314
G0 F12000 X51.600 Y105.552
G1 F1800 X51.600 Y104.535 E395.63696
G0 F12000 X52.000 Y104.546
G1 F1800 X52.000 Y105.552 E395.67042
G0 F12000 X52.400 Y105.552
G1 F1800 X52.400 Y104.557 E395.70352
G0 F12000 X52.800 Y104.568
G1 F1800 X52.800 Y105.552 E395.73624
G0 F12000 X53.200 Y105.552
G1 F1800 X53.200 Y104.579 E395.76861
G0 F12000 X53.600 Y104.590
G1 F1800 X53.600 Y105.552 E395.80060
G0 F12000 X54.000 Y105.552
G1 F1800 X54.000 Y104.601 E395.83223
G0 F12000 X54.400 Y104.612
G1 F1800 X54.400 Y105.552 E395.86350
G0 F12000 X54.800 Y105.552
G1 F1800 X54.800 Y104.623 E395.89440
G0 F12000 X55.200 Y104.634
G1 F1800 X55.200 Y105.552 E395.92493
G0 F12000 X55.600 Y105.552
G1 F1800 X55.600 Y104.645 E395.95510
G0 F12000 X56.000 Y104.656
G1 F1800 X56.000 Y105.552 E395.98490
G0 F12000 X56.400 Y105.552
G1 F1800 X56.400 Y104.667 E396.01433
G0 F12000 X56.800 Y104.678
G1 F1800 X56.800 Y105.552 E396.04340
G0 F12000 X57.200 Y105.552
G1 F1800 X57.200 Y104.689 E396.07211
G0 F12000 X57.600 Y104.700
G1 F1800 X57.600 Y105.552 E396.10044
G0 F12000 X58.000 Y105.552
G1 F1800 X58.000 Y104.711 E396.12841
G0 F12000 X58.400 Y104.722
G1 F1800 X58.400 Y105.552 E396.15602
G0 F12000 X58.800 Y105.552
G1 F1800 X58.800 Y104.733 E396.18326
G0 F12000 X59.200 Y104.744
G1 F1800 X59.200 Y105.552 E396.21014
G0 F12000 X59.600 Y105.552
G1 F1800 X59.800 Y104.760 E396.23662
G1 X60.200 Y105.552 E396.26274
G1 X60.600 Y104.782 E396.28850
G1 X61.000 Y105.552 E396.31390
G1 X61.400 Y104.804 E396.33893
G1 X61.800 Y105.552 E396.36362
G1 X62.200 Y104.826 E396.38795
G1 X62.600 Y105.552 E396.41187
G1 X63.000 Y104.848 E396.43543
G1 X63.400 Y105.552 E396.45866
G1 X63.800 Y104.870 E396.48147
G1 X64.200 Y105.552 E396.50396
G1 X64.600 Y104.892 E396.52609
G1 X65.000 Y105.552 E396.54785
G1 X65.400 Y104.914 E396.56920
G1 X65.800 Y105.552 E396.59018
G1 X66.200 Y104.936 E396.61082
G1 X66.600 Y105.552 E396.63109
G1 X67.000 Y104.958 E396.65098
G1 X67.400 Y105.552 E396.67051
G1 X67.800 Y104.882 E396.68965
G1 X68.000 Y105.552 E396.71291
G0 F12000 X68.400 Y105.552
G1 F1800 X68.400 Y104.096 E396.76134
G0 F12000 X68.800 Y103.403
G1 F1800 X68.800 Y105.552 E396.83281
G0 F12000 X69.200 Y105.552
G1 F1800 X69.200 Y102.710 E396.92734
G0 F12000 X69.600 Y102.017
G1 F1800 X69.600 Y105.552 E397.04491
G0 F12000 X70.000 Y105.552
G1 F1800 X70.000 Y101.325 E397.18550
G0 F12000 X70.400 Y100.632
G1 F1800 X70.400 Y105.552 E397.34914
G0 F12000 X70.800 Y105.552
G1 F1800 X70.800 Y99.939 E397.53583
G0 F12000 X71.200 Y99.246
G1 F1800 X71.200 Y105.552 E397.74557
G0 F12000 X71.600 Y105.552
G1 F1800 X71.600 Y98.553 E397.97836
G0 F12000 X72.000 Y97.860
G1 F1800 X72.000 Y105.552 E398.23420
G0 F12000 X72.400 Y105.552
G1 F1800 X72.400 Y97.167 E398.51308
G0 F12000 X72.800 Y96.474
G1 F1800 X72.800 Y105.552 E398.81502
G0 F12000 X73.200 Y105.552
G1 F1800 X73.200 Y95.781 E399.14000
G0 F12000 X73.600 Y95.088
G1 F1800 X73.600 Y105.552 E399.48804
G0 F12000 X74.000 Y105.552
G1 F1800 X74.000 Y94.395 E399.85912
G0 F12000 X74.400 Y93.702
G1 F1800 X74.400 Y105.552 E400.25325
G0 F12000 X74.800 Y105.552
G1 F1800 X74.800 Y93.009 E400.67043
G0 F12000 X75.200 Y92.316
G1 F1800 X75.200 Y105.552 E401.11067
G0 F12000 X75.600 Y105.552
G1 F1800 X75.600 Y91.623 E401.57395
G0 F12000 X76.000 Y90.930
G1 F1800 X76.000 Y105.552 E402.06028
G0 F12000 X76.400 Y105.552
G1 F1800 X76.400 Y90.238 E402.56962
G0 F12000 X76.800 Y89.545
G1 F1800 X76.800 Y105.552 E403.10202
G0 F12000 X77.200 Y105.552
G1 F1800 X77.200 Y88.852 E403.65746
G0 F12000 X77.600 Y88.159
G1 F1800 X77.600 Y105.552 E404.23595
G0 F12000 X78.000 Y105.552
G1 F1800 X78.000 Y87.466 E404.83750
G0 F12000 X78.400 Y86.773
G1 F1800 X78.400 Y105.552 E405.46209
G0 F12000 X78.800 Y105.552
G1 F1800 X78.800 Y86.080 E406.10973
G0 F12000 X79.200 Y85.387
G1 F1800 X79.200 Y105.604 E406.78215
G0 F12000 X79.600 Y105.725
G1 F1800 X79.600 Y84.694 E407.48164
G0 F12000 X80.000 Y84.001
G1 F1800 X80.000 Y105.921 E408.21071
G0 F12000 X80.400 Y106.226
G1 F1800 X80.400 Y83.308 E408.97296
G0 F12000 X80.800 Y82.615
G1 F1800 X80.800 Y106.775 E409.77653
G1 F2100 E409.37653
G0 F12000 X82.000 Y95.040
G1 F2100 E409.77653
G1 F1800 X82.000 Y82.342 E410.19886
G0 F12000 X82.400 Y82.342
G1 F1800 X82.400 Y94.348 E410.59819
G0 F12000 X82.800 Y93.655
G1 F1800 X82.800 Y82.342 E410.97446
G0 F12000 X83.200 Y82.342
G1 F1800 X83.200 Y92.962 E411.32768
G0 F12000 X83.600 Y92.270
G1 F1800 X83.600 Y82.342 E411.65789
G0 F12000 X84.000 Y82.342
G1 F1800 X84.000 Y91.577 E411.96504
G0 F12000 X84.400 Y90.884
G1 F1800 X84.400 Y82.342 E412.24915
G0 F12000 X84.800 Y82.342
G1 F1800 X84.800 Y90.191 E412.51021
G0 F12000 X85.200 Y89.661
G1 F1800 X85.200 Y82.342 E412.75364
G0 F12000 X85.600 Y82.342
G1 F1800 X85.600 Y89.661 E412.99707
G0 F12000 X86.000 Y89.661
G1 F1800 X86.000 Y82.342 E413.24050
G0 F12000 X86.400 Y82.342
G1 F1800 X86.400 Y89.661 E413.48393
G0 F12000 X86.800 Y89.661
G1 F1800 X86.800 Y82.342 E413.72737
G0 F12000 X87.200 Y82.342
G1 F1800 X87.200 Y89.661 E413.97080
G0 F12000 X87.600 Y89.661
G1 F1800 X87.600 Y82.342 E414.21423
G0 F12000 X88.000 Y82.342
G1 F1800 X88.000 Y89.661 E414.45766
G0 F12000 X88.400 Y89.661
G1 F1800 X88.400 Y82.342 E414.70109
G0 F12000 X88.800 Y82.342
G1 F1800 X88.800 Y89.661 E414.94452
G0 F12000 X89.200 Y89.661
G1 F1800 X89.200 Y82.342 E415.18795
G0 F12000 X89.600 Y82.342
G1 F1800 X89.600 Y89.661 E415.43138
G0 F12000 X90.000 Y89.661
G1 F1800 X90.000 Y82.342 E415.67481
G0 F12000 X90.400 Y82.342
G1 F1800 X90.400 Y89.661 E415.91824
G0 F12000 X90.800 Y89.661
G1 F1800 X90.800 Y82.342 E416.16167
G0 F12000 X91.200 Y82.342
G1 F1800 X91.200 Y89.661 E416.40511
G0 F12000 X91.600 Y89.661
G1 F1800 X91.600 Y82.342 E416.64854
G0 F12000 X92.000 Y82.342
G1 F1800 X92.000 Y89.661 E416.89197
G0 F12000 X92.400 Y89.661
G1 F1800 X92.400 Y82.342 E417.13540
G0 F12000 X92.800 Y82.342
G1 F1800 X92.800 Y89.661 E417.37883
G0 F12000 X93.200 Y89.661
G1 F1800 X93.200 Y82.342 E417.62226
G0 F12000 X93.600 Y82.342
G1 F1800 X93.600 Y89.661 E417.86569
G0 F12000 X94.000 Y89.661
G1 F1800 X94.000 Y82.342 E418.10912
G0 F12000 X94.400 Y82.342
G1 F1800 X94.400 Y89.661 E418.35255
G0 F12000 X94.800 Y89.661
G1 F1800 X94.800 Y82.342 E418.59598
G0 F12000 X95.200 Y82.342
G1 F1800 X95.200 Y89.661 E418.83941
G0 F12000 X95.600 Y89.661
G1 F1800 X95.600 Y82.342 E419.08285
G0 F12000 X96.000 Y82.342
G1 F1800 X96.000 Y89.661 E419.32628
G0 F12000 X96.400 Y89.661
G1 F1800 X96.400 Y82.342 E419.56971
G0 F12000 X96.800 Y82.342
G1 F1800 X96.800 Y89.661 E419.81314
G0 F12000 X97.200 Y89.661
G1 F1800 X97.200 Y82.342 E420.05657
G0 F12000 X97.600 Y82.342
G1 F1800 X97.600 Y89.661 E420.30000
G0 F12000 X98.000 Y89.661
G1 F1800 X98.000 Y82.342 E420.54343
G0 F12000 X98.400 Y82.342
G1 F1800 X98.400 Y89.661 E420.78686
G0 F12000 X98.800 Y89.661
G1 F1800 X98.800 Y82.342 E421.03029
G0 F12000 X99.200 Y82.342
G1 F1800 X99.200 Y89.661 E421.27372
G0 F12000 X99.600 Y89.661
G1 F1800 X99.600 Y82.342 E421.51716
G0 F12000 X100.000 Y82.342
G1 F1800 X100.000 Y89.661 E421.76059
G0 F12000 X100.400 Y89.661
G1 F1800 X100.400 Y82.342 E422.00402
G0 F12000 X100.800 Y82.342
G1 F1800 X100.800 Y89.661 E422.24745
G0 F12000 X101.200 Y89.661
G1 F1800 X101.200 Y82.342 E422.49088
G0 F12000 X101.600 Y82.342
G1 F1800 X101.600 Y89.661 E422.73431
G0 F12000 X102.000 Y89.661
G1 F1800 X102.000 Y82.342 E422.97774
G0 F12000 X102.400 Y82.342
G1 F1800 X102.400 Y89.661 E423.22117
G0 F12000 X102.800 Y89.661
G1 F1800 X102.800 Y82.342 E423.46460
G0 F12000 X103.200 Y82.342
G1 F1800 X103.200 Y89.661 E423.70803
G0 F12000 X103.600 Y89.661
G1 F1800 X103.600 Y82.342 E423.95146
G0 F12000 X104.000 Y82.342
G1 F1800 X104.000 Y89.661 E424.19490
G0 F12000 X104.400 Y89.662
G1 F1800 X104.400 Y82.342 E424.43836
G0 F12000 X104.800 Y82.342
G1 F1800 X104.800 Y89.662 E424.68182
G0 F12000 X105.200 Y89.662
G1 F1800 X105.200 Y82.342 E424.92529
G0 F12000 X105.600 Y82.342
G1 F1800 X105.600 Y89.662 E425.16875
G0 F12000 X106.000 Y89.662
G1 F1800 X106.000 Y82.342 E425.41222
G0 F12000 X106.400 Y82.342
G1 F1800 X106.400 Y89.662 E425.65568
G0 F12000 X106.800 Y89.662
G1 F1800 X106.800 Y82.342 E425.89914
G0 F12000 X107.200 Y82.342
G1 F1800 X107.200 Y89.662 E426.14261
G0 F12000 X107.600 Y89.662
G1 F1800 X107.600 Y82.342 E426.38607
G0 F12000 X108.000 Y82.342
G1 F1800 X108.000 Y89.662 E426.62954
G0 F12000 X108.400 Y89.662
G1 F1800 X108.400 Y82.342 E426.87300
G0 F12000 X108.800 Y82.342
G1 F1800 X108.800 Y89.662 E427.11647
G0 F12000 X109.200 Y89.662
G1 F1800 X109.200 Y82.342 E427.35993
G0 F12000 X109.600 Y82.342
G1 F1800 X109.600 Y89.662 E427.60339
G0 F12000 X110.000 Y89.662
G1 F1800 X110.000 Y82.342 E427.84686
G0 F12000 X110.400 Y82.342
G1 F1800 X110.400 Y89.662 E428.09032
G0 F12000 X110.800 Y89.662
G1 F1800 X110.800 Y82.342 E428.33379
G0 F12000 X111.200 Y82.342
G1 F1800 X111.200 Y89.662 E428.57725
G0 F12000 X111.600 Y89.662
G1 F1800 X111.600 Y82.342 E428.82071
G0 F12000 X112.000 Y82.342
G1 F1800 X112.000 Y89.662 E429.06418
G0 F12000 X112.400 Y89.662
G1 F1800 X112.400 Y82.342 E429.30764
G0 F12000 X112.800 Y82.342
G1 F1800 X112.800 Y89.662 E429.55111
G0 F12000 X113.200 Y89.662
G1 F1800 X113.200 Y82.342 E429.79457
G0 F12000 X113.600 Y82.342
G1 F1800 X113.600 Y89.662 E430.03804
G0 F12000 X114.000 Y89.662
G1 F1800 X114.000 Y82.342 E430.28150
G0 F12000 X114.400 Y82.342
G1 F1800 X114.400 Y89.662 E430.52496
G0 F12000 X114.800 Y89.662
G1 F1800 X114.800 Y82.342 E430.76843
G0 F12000 X115.200 Y82.342
G1 F1800 X115.200 Y89.662 E431.01189
G0 F12000 X115.600 Y89.662
G1 F1800 X115.600 Y82.342 E431.25536
G0 F12000 X116.000 Y82.342
G1 F1800 X116.000 Y89.662 E431.49882
G0 F12000 X116.400 Y89.662
G1 F1800 X116.400 Y82.342 E431.74229
G0 F12000 X116.800 Y82.342
G1 F1800 X116.800 Y89.662 E431.98575
G0 F12000 X117.200 Y89.662
G1 F1800 X117.200 Y82.342 E432.22921
G0 F12000 X117.600 Y82.342
G1 F1800 X117.600 Y89.662 E432.47268
G0 F12000 X118.000 Y89.662
G1 F1800 X118.000 Y82.342 E432.71614
G0 F12000 X118.400 Y82.342
G1 F1800 X118.400 Y89.662 E432.95961
G0 F12000 X118.800 Y89.662
G1 F1800 X118.800 Y82.342 E433.20307
G0 F12000 X119.200 Y82.342
G1 F1800 X119.200 Y89.662 E433.44653
G0 F12000 X119.600 Y89.662
G1 F1800 X119.600 Y82.342 E433.69000
G0 F12000 X120.000 Y82.342
G1 F1800 X120.000 Y89.662 E433.93346
G0 F12000 X120.400 Y89.662
G1 F1800 X120.400 Y82.342 E434.17693
G0 F12000 X120.800 Y82.342
G1 F1800 X120.800 Y89.662 E434.42039
G0 F12000 X121.200 Y89.662
G1 F1800 X121.200 Y82.342 E434.66386
G0 F12000 X121.600 Y82.342
G1 F1800 X121.600 Y89.662 E434.90732
G0 F12000 X122.000 Y89.662
G1 F1800 X122.000 Y82.342 E435.15078
G0 F12000 X122.400 Y82.342
G1 F1800 X122.400 Y89.662 E435.39425
G0 F12000 X122.800 Y89.662
G1 F1800 X122.800 Y82.342 E435.63771
G0 F12000 X123.200 Y82.342
G1 F1800 X123.200 Y89.662 E435.88118
G0 F12000 X123.600 Y89.662
G1 F1800 X123.600 Y82.342 E436.12464
;LAYER:1
M106 S2
G0 F12000 X123.818 Y82.202 Z0.350
;TYPE:WALL-INNER
G1 F2220 X123.818 Y89.803 E436.31425
G1 X85.186 Y89.802 E437.27793
G1 X81.932 Y95.438 E437.44027
G1 X81.932 Y212.216 E440.35331
G1 X85.186 Y217.851 E440.51563
G1 X119.817 Y217.851 E441.37950
G1 X119.817 Y226.001 E441.58280
G1 X80.879 Y226.001 E442.55411
G1 X68.732 Y204.964 E443.16008
G1 X43.596 Y204.964 E443.78710
G1 X42.824 Y204.890 E443.80645
G1 X42.123 Y204.682 E443.82469
G1 X41.418 Y204.318 E443.84448
G1 X37.103 Y201.510 E443.97290
G1 X37.045 Y201.472 E443.97463
G1 X36.558 Y201.061 E443.99053
G1 X36.214 Y200.580 E444.00528
G1 X35.996 Y200.023 E444.02020
G1 X35.921 Y199.418 E444.03541
G1 X35.919 Y106.844 E446.34468
G1 X35.921 Y106.591 E446.35099
G1 X36.006 Y105.944 E446.36727
G1 X36.245 Y105.367 E446.38285
G1 X36.625 Y104.872 E446.39841
G1 X37.122 Y104.491 E446.41403
G1 X37.698 Y104.252 E446.42959
G1 X38.359 Y104.165 E446.44622
G1 X43.209 Y104.165 E446.56720
G1 X44.010 Y104.184 E446.58719
G1 X67.809 Y104.840 E447.18109
G1 X80.879 Y82.202 E447.83315
G1 X123.818 Y82.202 E448.90427
G1 F2100 E448.50427
G0 F12000 X80.653 Y106.783
G1 F2100 E448.90427
G1 F2220 X80.304 Y106.329 E448.91855
G1 X79.850 Y105.981 E448.93282
G1 X79.322 Y105.763 E448.94707
G1 X78.795 Y105.692 E448.96034
G1 X43.993 Y105.692 E449.82848
G1 X43.085 Y104.886 E449.85876
G1 X42.889 Y104.715 E449.86525
G1 X40.219 Y104.715 E449.93186
G1 X40.219 Y200.679 E452.32569
G1 X40.220 Y201.119 E452.33666
G1 X40.328 Y201.933 E452.35715
G1 X40.663 Y202.742 E452.37899
G1 X41.196 Y203.436 E452.40082
G1 X41.891 Y203.970 E452.42268
G1 X42.701 Y204.305 E452.44455
G1 X43.530 Y204.414 E452.46540
G1 X79.593 Y204.414 E453.36500
G1 X80.853 Y201.906 E453.43501
G1 X80.941 Y201.731 E453.43990
G1 X80.941 Y107.840 E455.78202
G1 X80.872 Y107.312 E455.79530
G1 X80.653 Y106.783 E455.80958
G0 F12000 X80.304 Y106.985
;TYPE:WALL-OUTER
G1 F2220 X80.019 Y106.614 E455.82126
G1 X79.649 Y106.330 E455.83289
G1 X79.217 Y106.152 E455.84455
G1 X78.768 Y106.092 E455.85585
G1 X43.841 Y106.092 E456.72710
G1 X42.820 Y105.186 E456.76115
G1 X42.739 Y105.115 E456.76384
G1 X40.619 Y105.115 E456.81672
G1 X40.620 Y201.092 E459.21088
G1 X40.717 Y201.828 E459.22940
G1 X41.012 Y202.540 E459.24862
G1 X41.481 Y203.151 E459.26784
G1 X42.093 Y203.621 E459.28709
G1 X42.805 Y203.915 E459.30630
G1 X43.556 Y204.014 E459.32520
G1 X79.346 Y204.014 E460.21798
G1 X80.541 Y201.636 E460.28437
G1 X80.541 Y107.866 E462.62347
G1 X80.482 Y107.416 E462.63479
G1 X80.304 Y106.985 E462.64643
G1 F2100 E462.24643
G0 F12000 X82.332 Y95.545
G1 F2100 E462.64643
G1 F2220 X82.332 Y212.109 E465.55413
G1 X85.417 Y217.451 E465.70801
G1 X120.217 Y217.451 E466.57610
G1 X120.217 Y226.401 E466.79936
G1 X80.647 Y226.401 E467.78643
G1 X68.501 Y205.364 E468.39239
G1 X43.578 Y205.364 E469.01410
G1 X42.750 Y205.284 E469.03485
G1 X41.973 Y205.054 E469.05506
G1 X41.214 Y204.662 E469.07637
G1 X36.885 Y201.845 E469.20521
G1 X36.803 Y201.791 E469.20766
G1 X36.262 Y201.335 E469.22531
G1 X35.859 Y200.770 E469.24262
G1 X35.606 Y200.125 E469.25990
G1 X35.521 Y199.444 E469.27702
G1 X35.519 Y106.841 E471.58701
G1 X35.521 Y106.560 E471.59402
G1 X35.615 Y105.843 E471.61206
G1 X35.896 Y105.166 E471.63035
G1 X36.340 Y104.587 E471.64855
G1 X36.920 Y104.142 E471.66678
G1 X37.597 Y103.861 E471.68507
G1 X38.330 Y103.765 E471.70351
G1 X43.218 Y103.765 E471.82544
G1 X67.582 Y104.433 E472.43343
G1 X80.647 Y81.802 E473.08529
G1 X124.218 Y81.802 E474.17217
G1 X124.218 Y90.203 E474.38173
G1 X85.417 Y90.202 E475.34963
G1 X82.332 Y95.545 E475.50353
G0 F12000 X81.791 Y95.600
;TYPE:SKIN
G1 F2220 X73.304 Y95.600 E475.71524
G0 F12000 X73.073 Y96.000
G1 F2220 X81.791 Y96.000 E475.93271
G0 F12000 X81.791 Y96.400
G1 F2220 X72.842 Y96.400 E476.15594
G0 F12000 X72.611 Y96.800
G1 F2220 X81.791 Y96.800 E476.38494
G0 F12000 X81.791 Y97.200
G1 F2220 X72.380 Y97.200 E476.61970
G0 F12000 X72.150 Y97.600
G1 F2220 X81.791 Y97.600 E476.86019
G0 F12000 X81.791 Y98.000
G1 F2220 X71.919 Y98.000 E477.10645
G0 F12000 X71.688 Y98.400
G1 F2220 X81.791 Y98.400 E477.35847
G0 F12000 X81.791 Y98.800
G1 F2220 X71.457 Y98.800 E477.61626
G0 F12000 X71.226 Y99.200
G1 F2220 X81.791 Y99.200 E477.87980
G0 F12000 X81.791 Y99.600
G1 F2220 X70.995 Y99.600 E478.14911
G1 F2100 E477.74911
G0 F12000 X73.535 Y95.200
G1 F2100 E478.14911
G1 F2220 X81.905 Y95.200 E478.35790
G0 F12000 X82.136 Y94.800
G1 F2220 X73.766 Y94.800 E478.56669
G0 F12000 X73.997 Y94.400
G1 F2220 X82.367 Y94.400 E478.77548
G0 F12000 X82.598 Y94.000
G1 F2220 X74.228 Y94.000 E478.98427
G0 F12000 X74.459 Y93.600
G1 F2220 X82.830 Y93.600 E479.19309
G0 F12000 X83.061 Y93.200
G1 F2220 X74.690 Y93.200 E479.40190
G0 F12000 X74.921 Y92.800
G1 F2220 X83.292 Y92.800 E479.61072
G0 F12000 X83.523 Y92.400
G1 F2220 X75.151 Y92.400 E479.81956
G0 F12000 X75.382 Y92.000
G1 F2220 X83.754 Y92.000 E480.02840
G0 F12000 X83.985 Y91.600
G1 F2220 X75.613 Y91.600 E480.23724
G0 F12000 X75.844 Y91.200
G1 F2220 X84.216 Y91.200 E480.44608
G0 F12000 X84.447 Y90.800
G1 F2220 X76.075 Y90.800 E480.65492
G0 F12000 X76.306 Y90.400
G1 F2220 X84.678 Y90.400 E480.86376
G0 F12000 X84.909 Y90.000
G1 F2220 X76.537 Y90.000 E481.07260
G0 F12000 X76.768 Y89.600
G1 F2220 X123.677 Y89.600 E482.24275
G0 F12000 X123.677 Y89.200
G1 F2220 X76.999 Y89.200 E483.40714
G0 F12000 X77.230 Y88.800
G1 F2220 X123.677 Y88.800 E484.56576
G0 F12000 X123.677 Y88.400
G1 F2220 X77.461 Y88.400 E485.71862
G0 F12000 X77.692 Y88.000
G1 F2220 X123.677 Y88.000 E486.86572
G0 F12000 X123.677 Y87.600
G1 F2220 X77.922 Y87.600 E488.00709
G0 F12000 X78.153 Y87.200
G1 F2220 X123.677 Y87.200 E489.14269
G0 F12000 X123.677 Y86.800
G1 F2220 X78.384 Y86.800 E490.27253
G0 F12000 X78.615 Y86.400
G1 F2220 X123.677 Y86.400 E491.39660
G0 F12000 X123.677 Y86.000
G1 F2220 X78.846 Y86.000 E492.51492
G0 F12000 X79.077 Y85.600
G1 F2220 X123.677 Y85.600 E493.62747
G0 F12000 X123.677 Y85.200
G1 F2220 X79.308 Y85.200 E494.73426
G0 F12000 X79.539 Y84.800
G1 F2220 X123.677 Y84.800 E495.83528
G0 F12000 X123.677 Y84.400
G1 F2220 X79.770 Y84.400 E496.93055
G0 F12000 X80.001 Y84.000
G1 F2220 X123.677 Y84.000 E498.02005
G0 F12000 X123.677 Y83.600
G1 F2220 X80.232 Y83.600 E499.10379
G0 F12000 X80.463 Y83.200
G1 F2220 X123.677 Y83.200 E500.18177
G0 F12000 X123.677 Y82.800
G1 F2220 X80.694 Y82.800 E501.25398
G0 F12000 X80.924 Y82.400
G1 F2220 X123.677 Y82.400 E502.32046
G1 F2100 E501.92046
G0 F12000 X81.791 Y100.000
G1 F2100 E502.32046
G1 F2220 X70.764 Y100.000 E502.59553
G0 F12000 X70.533 Y100.400
G1 F2220 X81.791 Y100.400 E502.87636
G0 F12000 X81.791 Y100.800
G1 F2220 X70.302 Y100.800 E503.16296
G0 F12000 X70.071 Y101.200
G1 F2220 X81.791 Y101.200 E503.45531
G0 F12000 X81.791 Y101.600
G1 F2220 X69.840 Y101.600 E503.75343
G0 F12000 X69.609 Y102.000
G1 F2220 X81.791 Y102.000 E504.05731
G0 F12000 X81.791 Y102.400
G1 F2220 X69.379 Y102.400 E504.36693
G0 F12000 X69.148 Y102.800
G1 F2220 X81.791 Y102.800 E504.68231
G0 F12000 X81.791 Y103.200
G1 F2220 X68.917 Y103.200 E505.00346
G0 F12000 X68.686 Y103.600
G1 F2220 X81.791 Y103.600 E505.33036
G0 F12000 X81.791 Y104.000
G1 F2220 X68.455 Y104.000 E505.66303
G0 F12000 X68.224 Y104.400
G1 F2220 X81.791 Y104.400 E506.00146
G0 F12000 X81.791 Y104.800
G1 F2220 X67.993 Y104.800 E506.34565
G1 F2100 E505.94565
G0 F12000 X61.289 Y104.800
G1 F2100 E506.34565
G1 F2220 X43.195 Y104.800 E506.79701
G0 F12000 X43.648 Y105.200
G1 F2220 X81.791 Y105.200 E507.74849
G0 F12000 X81.791 Y105.600
G1 F2220 X79.170 Y105.600 E507.81387
G0 F12000 X80.105 Y106.000
G1 F2220 X81.791 Y106.000 E507.85593
G0 F12000 X81.791 Y106.400
G1 F2220 X80.534 Y106.400 E507.88729
G0 F12000 X80.811 Y106.800
G1 F2220 X81.791 Y106.800 E507.91173
G0 F12000 X81.791 Y107.200
G1 F2220 X80.976 Y107.200 E507.93206
G0 F12000 X81.050 Y107.600
G1 F2220 X81.791 Y107.800 E507.95054
G1 X81.080 Y108.200 E507.96824
G1 X81.791 Y108.600 E507.98595
G1 X81.080 Y109.000 E508.00365
G1 X81.791 Y109.400 E508.02136
G1 X81.080 Y109.800 E508.03906
G1 X81.791 Y110.200 E508.05676
G1 X81.080 Y110.600 E508.07447
G1 X81.791 Y111.000 E508.09217
G1 X81.080 Y111.400 E508.10988
G1 X81.791 Y111.800 E508.12758
G1 X81.080 Y112.200 E508.14529
G1 X81.791 Y112.600 E508.16299
G1 X81.080 Y113.000 E508.18070
G1 X81.791 Y113.400 E508.19840
G1 X81.080 Y113.800 E508.21611
G1 X81.791 Y114.200 E508.23381
G1 X81.080 Y114.600 E508.25152
G1 X81.791 Y115.000 E508.26922
G1 X81.080 Y115.400 E508.28692
G1 X81.791 Y115.800 E508.30463
G1 X81.080 Y116.200 E508.32233
G1 X81.791 Y116.600 E508.34004
G1 X81.080 Y117.000 E508.35774
G1 X81.791 Y117.400 E508.37545
G1 X81.080 Y117.800 E508.39315
G1 X81.791 Y118.200 E508.41086
G1 X81.080 Y118.600 E508.42856
G1 X81.791 Y119.000 E508.44627
G1 X81.080 Y119.400 E508.46397
G1 X81.791 Y119.800 E508.48167
G1 X81.080 Y120.200 E508.49938
G1 X81.791 Y120.600 E508.51708
G1 X81.080 Y121.000 E508.53479
G1 X81.791 Y121.400 E508.55249
G1 X81.080 Y121.800 E508.57020
G1 X81.791 Y122.200 E508.58790
G1 X81.080 Y122.600 E508.60561
G1 X81.791 Y123.000 E508.62331
G1 X81.080 Y123.400 E508.64102
G1 X81.791 Y123.800 E508.65872
G1 X81.080 Y124.200 E508.67642
G1 X81.791 Y124.600 E508.69413
G1 X81.080 Y125.000 E508.71183
G1 X81.791 Y125.400 E508.72954
G1 X81.080 Y125.800 E508.74724
G1 X81.791 Y126.200 E508.76495
G1 X81.080 Y126.600 E508.78265
G1 X81.791 Y127.000 E508.80036
G1 X81.080 Y127.400 E508.81806
G1 X81.791 Y127.800 E508.83577
G1 X81.080 Y128.200 E508.85347
G1 X81.791 Y128.600 E508.87118
G1 X81.080 Y129.000 E508.88888
G1 X81.791 Y129.400 E508.90658
G1 X81.080 Y129.800 E508.92429
G1 X81.791 Y130.200 E508.94199
G1 X81.080 Y130.600 E508.95970
G1 X81.791 Y131.000 E508.97740
G1 X81.080 Y131.400 E508.99511
G1 X81.791 Y131.800 E509.01281
G1 X81.080 Y132.200 E509.03052
G1 X81.791 Y132.600 E509.04822
G1 X81.080 Y133.000 E509.06593
G1 X81.791 Y133.400 E509.08363
G1 X81.080 Y133.800 E509.10133
G1 X81.791 Y134.200 E509.11904
G1 X81.080 Y134.600 E509.13674
G1 X81.791 Y135.000 E509.15445
G1 X81.080 Y135.400 E509.17215
G1 X81.791 Y135.800 E509.18986
G1 X81.080 Y136.200 E509.20756
G1 X81.791 Y136.600 E509.22527
G1 X81.080 Y137.000 E509.24297
G1 X81.791 Y137.400 E509.26068
G1 X81.080 Y137.800 E509.27838
G1 X81.791 Y138.200 E509.29608
G1 X81.080 Y138.600 E509.31379
G1 X81.791 Y139.000 E509.33149
G1 X81.080 Y139.400 E509.34920
G1 X81.791 Y139.800 E509.36690
G1 X81.080 Y140.200 E509.38461
G1 X81.791 Y140.600 E509.40231
G1 X81.080 Y141.000 E509.42002
G1 X81.791 Y141.400 E509.43772
G1 X81.080 Y141.800 E509.45543
G1 X81.791 Y142.200 E509.47313
G1 X81.080 Y142.600 E509.49084
G1 X81.791 Y143.000 E509.50854
G1 X81.080 Y143.400 E509.52624
G1 X81.791 Y143.800 E509.54395
G1 X81.080 Y144.200 E509.56165
G1 X81.791 Y144.600 E509.57936
G1 X81.080 Y145.000 E509.59706
G1 X81.791 Y145.400 E509.61477
G1 X81.080 Y145.800 E509.63247
G1 X81.791 Y146.200 E509.65018
G1 X81.080 Y146.600 E509.66788
G1 X81.791 Y147.000 E509.68559
G1 X81.080 Y147.400 E509.70329
G1 X81.791 Y147.800 E509.72099
G1 X81.080 Y148.200 E509.73870
G1 X81.791 Y148.600 E509.75640
G1 X81.080 Y149.000 E509.77411
G1 X81.791 Y149.400 E509.79181
G1 X81.080 Y149.800 E509.80952
G1 X81.791 Y150.200 E509.82722
G1 X81.080 Y150.600 E509.84493
G1 X81.791 Y151.000 E509.86263
G1 X81.080 Y151.400 E509.88034
G1 X81.791 Y151.800 E509.89804
G1 X81.080 Y152.200 E509.91574
G1 X81.791 Y152.600 E509.93345
G1 X81.080 Y153.000 E509.95115
G1 X81.791 Y153.400 E509.96886
G1 X81.080 Y153.800 E509.98656
G1 X81.791 Y154.200 E510.00427
G1 X81.080 Y154.600 E510.02197
G1 X81.791 Y155.000 E510.03968
G1 X81.080 Y155.400 E510.05738
G1 X81.791 Y155.800 E510.07509
G1 X81.080 Y156.200 E510.09279
G1 X81.791 Y156.600 E510.11050
G1 X81.080 Y157.000 E510.12820
G1 X81.791 Y157.400 E510.14590
G1 X81.080 Y157.800 E510.16361
G1 X81.791 Y158.200 E510.18131
G1 X81.080 Y158.600 E510.19902
G1 X81.791 Y159.000 E510.21672
G1 X81.080 Y159.400 E510.23443
G1 X81.791 Y159.800 E510.25213
G1 X81.080 Y160.200 E510.26984
G1 X81.791 Y160.600 E510.28754
G1 X81.080 Y161.000 E510.30525
G1 X81.791 Y161.400 E510.32295
G1 X81.080 Y161.800 E510.34065
G1 X81.791 Y162.200 E510.35836
G1 X81.080 Y162.600 E510.37606
G1 X81.791 Y163.000 E510.39377
G1 X81.080 Y163.400 E510.41147
G1 X81.791 Y163.800 E510.42918
G1 X81.080 Y164.200 E510.44688
G1 X81.791 Y164.600 E510.46459
G1 X81.080 Y165.000 E510.48229
G1 X81.791 Y165.400 E510.50000
G1 X81.080 Y165.800 E510.51770
G1 X81.791 Y166.200 E510.53540
G1 X81.080 Y166.600 E510.55311
G1 X81.791 Y167.000 E510.57081
G1 X81.080 Y167.400 E510.58852
G1 X81.791 Y167.800 E510.60622
G1 X81.080 Y168.200 E510.62393
G1 X81.791 Y168.600 E510.64163
G1 X81.080 Y169.000 E510.65934
G1 X81.791 Y169.400 E510.67704
G1 X81.080 Y169.800 E510.69475
G1 X81.791 Y170.200 E510.71245
G1 X81.080 Y170.600 E510.73016
G1 X81.791 Y171.000 E510.74786
G1 X81.080 Y171.400 E510.76556
G1 X81.791 Y171.800 E510.78327
G1 X81.080 Y172.200 E510.80097
G1 X81.791 Y172.600 E510.81868
G1 X81.080 Y173.000 E510.83638
G1 X81.791 Y173.400 E510.85409
G1 X81.080 Y173.800 E510.87179
G1 X81.791 Y174.200 E510.88950
G1 X81.080 Y174.600 E510.90720
G1 X81.791 Y175.000 E510.92491
G1 X81.080 Y175.400 E510.94261
G1 X81.791 Y175.800 E510.96031
G1 X81.080 Y176.200 E510.97802
G1 X81.791 Y176.600 E510.99572
G1 X81.080 Y177.000 E511.01343
G1 X81.791 Y177.400 E511.03113
G1 X81.080 Y177.800 E511.04884
G1 X81.791 Y178.200 E511.06654
G1 X81.080 Y178.600 E511.08425
G1 X81.791 Y179.000 E511.10195
G1 X81.080 Y179.400 E511.11966
G1 X81.791 Y179.800 E511.13736
G1 X81.080 Y180.200 E511.15506
G1 X81.791 Y180.600 E511.17277
G1 X81.080 Y181.000 E511.19047
G1 X81.791 Y181.400 E511.20818
G1 X81.080 Y181.800 E511.22588
G1 X81.791 Y182.200 E511.24359
G1 X81.080 Y182.600 E511.26129
G1 X81.791 Y183.000 E511.27900
G1 X81.080 Y183.400 E511.29670
G1 X81.791 Y183.800 E511.31441
G1 X81.080 Y184.200 E511.33211
G1 X81.791 Y184.600 E511.34982
G1 X81.080 Y185.000 E511.36752
G1 X81.791 Y185.400 E511.38522
G1 X81.080 Y185.800 E511.40293
G1 X81.791 Y186.200 E511.42063
G1 X81.080 Y186.600 E511.43834
G1 X81.791 Y187.000 E511.45604
G1 X81.080 Y187.400 E511.47375
G1 X81.791 Y187.800 E511.49145
G1 X81.080 Y188.200 E511.50916
G1 X81.791 Y188.600 E511.52686
G1 X81.080 Y189.000 E511.54457
G1 X81.791 Y189.400 E511.56227
G1 X81.080 Y189.800 E511.57997
G1 X81.791 Y190.200 E511.59768
G1 X81.080 Y190.600 E511.61538
G1 X81.791 Y191.000 E511.63309
G1 X81.080 Y191.400 E511.65079
G1 X81.791 Y191.800 E511.66850
G1 X81.080 Y192.200 E511.68620
G1 X81.791 Y192.600 E511.70391
G1 X81.080 Y193.000 E511.72161
G1 X81.791 Y193.400 E511.73932
G1 X81.080 Y193.800 E511.75702
G1 X81.791 Y194.200 E511.77472
G1 X81.080 Y194.600 E511.79243
G1 X81.791 Y195.000 E511.81013
G1 X81.080 Y195.400 E511.82784
G1 X81.791 Y195.800 E511.84554
G1 X81.080 Y196.200 E511.86325
G1 X81.791 Y196.600 E511.88095
G1 X81.080 Y197.000 E511.89866
G1 X81.791 Y197.400 E511.91636
G1 X81.080 Y197.800 E511.93407
G1 X81.791 Y198.200 E511.95177
G1 X81.080 Y198.600 E511.96948
G1 X81.791 Y199.000 E511.98718
G1 X81.080 Y199.400 E512.00488
G1 X81.791 Y199.800 E512.02259
G1 X81.080 Y200.200 E512.04029
G1 X81.791 Y200.600 E512.05800
G1 X81.080 Y201.000 E512.07570
G1 X81.791 Y201.400 E512.09341
G1 X81.080 Y201.600 E512.11183
G0 F12000 X80.961 Y202.000
G1 F2220 X81.791 Y202.000 E512.13254
G0 F12000 X81.791 Y202.400
G1 F2220 X80.760 Y202.400 E512.15825
G0 F12000 X80.559 Y202.800
G1 F2220 X81.791 Y202.800 E512.18899
G0 F12000 X81.791 Y203.200
G1 F2220 X80.358 Y203.200 E512.22473
G0 F12000 X80.157 Y203.600
G1 F2220 X81.791 Y203.600 E512.26549
G0 F12000 X81.791 Y204.000
G1 F2220 X79.956 Y204.000 E512.31127
G0 F12000 X79.755 Y204.400
G1 F2220 X81.791 Y204.400 E512.36206
G0 F12000 X81.791 Y204.800
G1 F2220 X43.361 Y204.800 E513.32070
G0 F12000 X42.565 Y204.400
G1 F2220 X41.792 Y204.200 E513.33768
G1 X41.183 Y203.800 E513.35049
G1 X40.572 Y203.600 E513.36653
G0 F12000 X40.839 Y203.200
G1 F2220 X39.958 Y203.200 E513.38850
G0 F12000 X40.535 Y202.800
G1 F2220 X39.343 Y202.800 E513.41824
G0 F12000 X38.729 Y202.400
G1 F2220 X40.369 Y202.400 E513.45915
G0 F12000 X40.204 Y202.000
G1 F2220 X38.114 Y202.000 E513.51128
G0 F12000 X37.500 Y201.600
G1 F2220 X40.142 Y201.600 E513.57719
G0 F12000 X40.089 Y201.200
G1 F2220 X36.940 Y201.200 E513.65574
G0 F12000 X36.543 Y200.800
G1 F2220 X40.079 Y200.800 E513.74395
G0 F12000 X40.079 Y200.400
G1 F2220 X36.293 Y200.400 E513.83839
G0 F12000 X36.136 Y200.000
G1 F2220 X40.079 Y200.000 E513.93675
G0 F12000 X40.079 Y199.600
G1 F2220 X36.083 Y199.600 E514.03643
G0 F12000 X36.060 Y199.200
G1 F2220 X40.079 Y199.200 E514.13668
G0 F12000 X40.079 Y198.800
G1 F2220 X36.060 Y198.800 E514.23694
G0 F12000 X36.060 Y198.400
G1 F2220 X40.079 Y198.400 E514.33719
G0 F12000 X40.079 Y198.000
G1 F2220 X36.060 Y198.000 E514.43744
G0 F12000 X36.060 Y197.600
G1 F2220 X40.079 Y197.600 E514.53770
G0 F12000 X40.079 Y197.200
G1 F2220 X36.060 Y197.200 E514.63795
G0 F12000 X36.060 Y196.800
G1 F2220 X40.079 Y196.800 E514.73821
G0 F12000 X40.079 Y196.400
G1 F2220 X36.060 Y196.400 E514.83846
G0 F12000 X36.060 Y196.000
G1 F2220 X40.079 Y196.000 E514.93872
G0 F12000 X40.079 Y195.600
G1 F2220 X36.060 Y195.600 E515.03897
G0 F12000 X36.060 Y195.200
G1 F2220 X40.079 Y195.200 E515.13923
G0 F12000 X40.079 Y194.800
G1 F2220 X36.060 Y194.800 E515.23948
G0 F12000 X36.060 Y194.400
G1 F2220 X40.079 Y194.400 E515.33973
G0 F12000 X40.079 Y194.000
G1 F2220 X36.060 Y194.000 E515.43999
G0 F12000 X36.060 Y193.600
G1 F2220 X40.079 Y193.600 E515.54024
G0 F12000 X40.079 Y193.200
G1 F2220 X36.060 Y193.200 E515.64050
G0 F12000 X36.060 Y192.800
G1 F2220 X40.079 Y192.800 E515.74075
G0 F12000 X40.079 Y192.400
G1 F2220 X36.060 Y192.400 E515.84101
G0 F12000 X36.060 Y192.000
G1 F2220 X40.079 Y192.000 E515.94126
G0 F12000 X40.079 Y191.600
G1 F2220 X36.060 Y191.600 E516.04151
G0 F12000 X36.060 Y191.200
G1 F2220 X40.079 Y191.200 E516.14177
G0 F12000 X40.079 Y190.800
G1 F2220 X36.060 Y190.800 E516.24202
G0 F12000 X36.060 Y190.400
G1 F2220 X40.079 Y190.400 E516.34228
G0 F12000 X40.079 Y190.000
G1 F2220 X36.060 Y190.000 E516.44253
G0 F12000 X36.060 Y189.600
G1 F2220 X40.079 Y189.600 E516.54279
G0 F12000 X40.079 Y189.200
G1 F2220 X36.060 Y189.200 E516.64304
G0 F12000 X36.060 Y188.800
G1 F2220 X40.079 Y188.800 E516.74330
G0 F12000 X40.079 Y188.400
G1 F2220 X36.060 Y188.400 E516.84355
G0 F12000 X36.060 Y188.000
G1 F2220 X40.079 Y188.000 E516.94380
G0 F12000 X40.079 Y187.600
G1 F2220 X36.060 Y187.600 E517.04406
G0 F12000 X36.060 Y187.200
G1 F2220 X40.079 Y187.200 E517.14431
G0 F12000 X40.079 Y186.800
G1 F2220 X36.060 Y186.800 E517.24457
G0 F12000 X36.060 Y186.400
G1 F2220 X40.079 Y186.400 E517.34482
G0 F12000 X40.079 Y186.000
G1 F2220 X36.060 Y186.000 E517.44508
G0 F12000 X36.060 Y185.600
G1 F2220 X40.079 Y185.600 E517.54533
G0 F12000 X40.079 Y185.200
G1 F2220 X36.060 Y185.200 E517.64558
G0 F12000 X36.060 Y184.800
G1 F2220 X40.079 Y184.800 E517.74584
G0 F12000 X40.079 Y184.400
G1 F2220 X36.060 Y184.400 E517.84609
G0 F12000 X36.060 Y184.000
G1 F2220 X40.079 Y184.000 E517.94635
G0 F12000 X40.079 Y183.600
G1 F2220 X36.060 Y183.600 E518.04660
G0 F12000 X36.060 Y183.200
G1 F2220 X40.079 Y183.200 E518.14686
G0 F12000 X40.079 Y182.800
G1 F2220 X36.060 Y182.800 E518.24711
G0 F12000 X36.060 Y182.400
G1 F2220 X40.079 Y182.400 E518.34736
G0 F12000 X40.079 Y182.000
G1 F2220 X36.060 Y182.000 E518.44762
G0 F12000 X36.060 Y181.600
G1 F2220 X40.079 Y181.600 E518.54787
G0 F12000 X40.079 Y181.200
G1 F2220 X36.060 Y181.200 E518.64813
G0 F12000 X36.060 Y180.800
G1 F2220 X40.079 Y180.800 E518.74838
G0 F12000 X40.079 Y180.400
G1 F2220 X36.060 Y180.400 E518.84864
G0 F12000 X36.060 Y180.000
G1 F2220 X40.079 Y180.000 E518.94889
G0 F12000 X40.079 Y179.600
G1 F2220 X36.060 Y179.600 E519.04915
G0 F12000 X36.060 Y179.200
G1 F2220 X40.079 Y179.200 E519.14940
G0 F12000 X40.079 Y178.800
G1 F2220 X36.060 Y178.800 E519.24965
G0 F12000 X36.060 Y178.400
G1 F2220 X40.079 Y178.400 E519.34991
G0 F12000 X40.079 Y178.000
G1 F2220 X36.060 Y178.000 E519.45016
G0 F12000 X36.060 Y177.600
G1 F2220 X40.079 Y177.600 E519.55042
G0 F12000 X40.079 Y177.200
G1 F2220 X36.060 Y177.200 E519.65067
G0 F12000 X36.060 Y176.800
G1 F2220 X40.079 Y176.800 E519.75093
G0 F12000 X40.079 Y176.400
G1 F2220 X36.060 Y176.400 E519.85118
G0 F12000 X36.060 Y176.000
G1 F2220 X40.079 Y176.000 E519.95143
G0 F12000 X40.079 Y175.600
G1 F2220 X36.060 Y175.600 E520.05169
G0 F12000 X36.060 Y175.200
G1 F2220 X40.079 Y175.200 E520.15194
G0 F12000 X40.079 Y174.800
G1 F2220 X36.060 Y174.800 E520.25220
G0 F12000 X36.060 Y174.400
G1 F2220 X40.079 Y174.400 E520.35245
G0 F12000 X40.079 Y174.000
G1 F2220 X36.060 Y174.000 E520.45271
G0 F12000 X36.060 Y173.600
G1 F2220 X40.079 Y173.600 E520.55296
G0 F12000 X40.079 Y173.200
G1 F2220 X36.060 Y173.200 E520.65322
G0 F12000 X36.060 Y172.800
G1 F2220 X40.079 Y172.800 E520.75347
G0 F12000 X40.079 Y172.400
G1 F2220 X36.060 Y172.400 E520.85372
G0 F12000 X36.060 Y172.000
G1 F2220 X40.079 Y172.000 E520.95398
G0 F12000 X40.079 Y171.600
G1 F2220 X36.060 Y171.600 E521.05423
G0 F12000 X36.060 Y171.200
G1 F2220 X40.079 Y171.200 E521.15449
G0 F12000 X40.079 Y170.800
G1 F2220 X36.060 Y170.800 E521.25474
G0 F12000 X36.060 Y170.400
G1 F2220 X40.079 Y170.400 E521.35500
G0 F12000 X40.079 Y170.000
G1 F2220 X36.060 Y170.000 E521.45525
G0 F12000 X36.060 Y169.600
G1 F2220 X40.079 Y169.600 E521.55550
G0 F12000 X40.079 Y169.200
G1 F2220 X36.060 Y169.200 E521.65576
G0 F12000 X36.060 Y168.800
G1 F2220 X40.079 Y168.800 E521.75601
G0 F12000 X40.079 Y168.400
G1 F2220 X36.060 Y168.400 E521.85627
G0 F12000 X36.060 Y168.000
G1 F2220 X40.079 Y168.000 E521.95652
G0 F12000 X40.079 Y167.600
G1 F2220 X36.060 Y167.600 E522.05678
G0 F12000 X36.060 Y167.200
G1 F2220 X40.079 Y167.200 E522.15703
G0 F12000 X40.079 Y166.800
G1 F2220 X36.060 Y166.800 E522.25728
G0 F12000 X36.060 Y166.400
G1 F2220 X40.079 Y166.400 E522.35754
G0 F12000 X40.079 Y166.000
G1 F2220 X36.060 Y166.000 E522.45779
G0 F12000 X36.060 Y165.600
G1 F2220 X40.079 Y165.600 E522.55805
G0 F12000 X40.079 Y165.200
G1 F2220 X36.060 Y165.200 E522.65830
G0 F12000 X36.060 Y164.800
G1 F2220 X40.079 Y164.800 E522.75856
G0 F12000 X40.079 Y164.400
G1 F2220 X36.060 Y164.400 E522.85881
G0 F12000 X36.060 Y164.000
G1 F2220 X40.079 Y164.000 E522.95907
G0 F12000 X40.079 Y163.600
G1 F2220 X36.060 Y163.600 E523.05932
G0 F12000 X36.060 Y163.200
G1 F2220 X40.079 Y163.200 E523.15957
G0 F12000 X40.079 Y162.800
G1 F2220 X36.060 Y162.800 E523.25983
G0 F12000 X36.060 Y162.400
G1 F2220 X40.079 Y162.400 E523.36008
G0 F12000 X40.079 Y162.000
G1 F2220 X36.060 Y162.000 E523.46034
G0 F12000 X36.060 Y161.600
G1 F2220 X40.079 Y161.600 E523.56059
G0 F12000 X40.079 Y161.200
G1 F2220 X36.060 Y161.200 E523.66085
G0 F12000 X36.060 Y160.800
G1 F2220 X40.079 Y160.800 E523.76110
G0 F12000 X40.079 Y160.400
G1 F2220 X36.060 Y160.400 E523.86135
G0 F12000 X36.060 Y160.000
G1 F2220 X40.079 Y160.000 E523.96161
G0 F12000 X40.079 Y159.600
G1 F2220 X36.060 Y159.600 E524.06186
G0 F12000 X36.060 Y159.200
G1 F2220 X40.079 Y159.200 E524.16212
G0 F12000 X40.079 Y158.800
G1 F2220 X36.060 Y158.800 E524.26237
G0 F12000 X36.060 Y158.400
G1 F2220 X40.079 Y158.400 E524.36263
G0 F12000 X40.079 Y158.000
G1 F2220 X36.060 Y158.000 E524.46288
G0 F12000 X36.060 Y157.600
G1 F2220 X40.079 Y157.600 E524.56314
G0 F12000 X40.079 Y157.200
G1 F2220 X36.060 Y157.200 E524.66339
G0 F12000 X36.060 Y156.800
G1 F2220 X40.079 Y156.800 E524.76364
G0 F12000 X40.079 Y156.400
G1 F2220 X36.060 Y156.400 E524.86390
G0 F12000 X36.060 Y156.000
G1 F2220 X40.079 Y156.000 E524.96415
G0 F12000 X40.079 Y155.600
G1 F2220 X36.060 Y155.600 E525.06441
G0 F12000 X36.060 Y155.200
G1 F2220 X40.079 Y155.200 E525.16466
G0 F12000 X40.079 Y154.800
G1 F2220 X36.060 Y154.800 E525.26492
G0 F12000 X36.060 Y154.400
G1 F2220 X40.079 Y154.400 E525.36517
G0 F12000 X40.079 Y154.000
G1 F2220 X36.060 Y154.000 E525.46542
G0 F12000 X36.060 Y153.600
G1 F2220 X40.079 Y153.600 E525.56568
G0 F12000 X40.079 Y153.200
G1 F2220 X36.060 Y153.200 E525.66593
G0 F12000 X36.060 Y152.800
G1 F2220 X40.079 Y152.800 E525.76619
G0 F12000 X40.079 Y152.400
G1 F2220 X36.060 Y152.400 E525.86644
G0 F12000 X36.060 Y152.000
G1 F2220 X40.079 Y152.000 E525.96670
G0 F12000 X40.079 Y151.600
G1 F2220 X36.060 Y151.600 E526.06695
G0 F12000 X36.060 Y151.200
G1 F2220 X40.079 Y151.200 E526.16721
G0 F12000 X40.079 Y150.800
G1 F2220 X36.060 Y150.800 E526.26746
G0 F12000 X36.060 Y150.400
G1 F2220 X40.079 Y150.400 E526.36771
G0 F12000 X40.079 Y150.000
G1 F2220 X36.060 Y150.000 E526.46797
G0 F12000 X36.060 Y149.600
G1 F2220 X40.079 Y149.600 E526.56822
G0 F12000 X40.079 Y149.200
G1 F2220 X36.060 Y149.200 E526.66848
G0 F12000 X36.060 Y148.800
G1 F2220 X40.079 Y148.800 E526.76873
G0 F12000 X40.079 Y148.400
G1 F2220 X36.060 Y148.400 E526.86899
G0 F12000 X36.060 Y148.000
G1 F2220 X40.079 Y148.000 E526.96924
G0 F12000 X40.079 Y147.600
G1 F2220 X36.060 Y147.600 E527.06949
G0 F12000 X36.060 Y147.200
G1 F2220 X40.079 Y147.200 E527.16975
G0 F12000 X40.079 Y146.800
G1 F2220 X36.060 Y146.800 E527.27000
G0 F12000 X36.060 Y146.400
G1 F2220 X40.079 Y146.400 E527.37026
G0 F12000 X40.079 Y146.000
G1 F2220 X36.060 Y146.000 E527.47051
G0 F12000 X36.060 Y145.600
G1 F2220 X40.079 Y145.600 E527.57077
G0 F12000 X40.079 Y145.200
G1 F2220 X36.060 Y145.200 E527.67102
G0 F12000 X36.060 Y144.800
G1 F2220 X40.079 Y144.800 E527.77127
G0 F12000 X40.079 Y144.400
G1 F2220 X36.060 Y144.400 E527.87153
G0 F12000 X36.060 Y144.000
G1 F2220 X40.079 Y144.000 E527.97178
G0 F12000 X40.079 Y143.600
G1 F2220 X36.060 Y143.600 E528.07204
G0 F12000 X36.060 Y143.200
G1 F2220 X40.079 Y143.200 E528.17229
G0 F12000 X40.079 Y142.800
G1 F2220 X36.060 Y142.800 E528.27255
G0 F12000 X36.060 Y142.400
G1 F2220 X40.079 Y142.400 E528.37280
G0 F12000 X40.079 Y142.000
G1 F2220 X36.060 Y142.000 E528.47306
G0 F12000 X36.060 Y141.600
G1 F2220 X40.079 Y141.600 E528.57331
G0 F12000 X40.079 Y141.200
G1 F2220 X36.060 Y141.200 E528.67356
G0 F12000 X36.060 Y140.800
G1 F2220 X40.079 Y140.800 E528.77382
G0 F12000 X40.079 Y140.400
G1 F2220 X36.060 Y140.400 E528.87407
G0 F12000 X36.060 Y140.000
G1 F2220 X40.079 Y140.000 E528.97433
G0 F12000 X40.079 Y139.600
G1 F2220 X36.060 Y139.600 E529.07458
G0 F12000 X36.060 Y139.200
G1 F2220 X40.079 Y139.200 E529.17484
G0 F12000 X40.079 Y138.800
G1 F2220 X36.060 Y138.800 E529.27509
G0 F12000 X36.060 Y138.400
G1 F2220 X40.079 Y138.400 E529.37534
G0 F12000 X40.079 Y138.000
G1 F2220 X36.060 Y138.000 E529.47560
G0 F12000 X36.060 Y137.600
G1 F2220 X40.079 Y137.600 E529.57585
G0 F12000 X40.079 Y137.200
G1 F2220 X36.060 Y137.200 E529.67611
G0 F12000 X36.060 Y136.800
G1 F2220 X40.079 Y136.800 E529.77636
G0 F12000 X40.079 Y136.400
G1 F2220 X36.060 Y136.400 E529.87662
G0 F12000 X36.060 Y136.000
G1 F2220 X40.079 Y136.000 E529.97687
G0 F12000 X40.079 Y135.600
G1 F2220 X36.060 Y135.600 E530.07713
G0 F12000 X36.060 Y135.200
G1 F2220 X40.079 Y135.200 E530.17738
G0 F12000 X40.079 Y134.800
G1 F2220 X36.060 Y134.800 E530.27763
G0 F12000 X36.060 Y134.400
G1 F2220 X40.079 Y134.400 E530.37789
G0 F12000 X40.079 Y134.000
G1 F2220 X36.060 Y134.000 E530.47814
G0 F12000 X36.060 Y133.600
G1 F2220 X40.079 Y133.600 E530.57840
G0 F12000 X40.079 Y133.200
G1 F2220 X36.060 Y133.200 E530.67865
G0 F12000 X36.060 Y132.800
G1 F2220 X40.079 Y132.800 E530.77891
G0 F12000 X40.079 Y132.400
G1 F2220 X36.060 Y132.400 E530.87916
G0 F12000 X36.060 Y132.000
G1 F2220 X40.079 Y132.000 E530.97941
G0 F12000 X40.079 Y131.600
G1 F2220 X36.060 Y131.600 E531.07967
G0 F12000 X36.060 Y131.200
G1 F2220 X40.079 Y131.200 E531.17992
G0 F12000 X40.079 Y130.800
G1 F2220 X36.060 Y130.800 E531.28018
G0 F12000 X36.060 Y130.400
G1 F2220 X40.079 Y130.400 E531.38043
G0 F12000 X40.079 Y130.000
G1 F2220 X36.060 Y130.000 E531.48069
G0 F12000 X36.060 Y129.600
G1 F2220 X40.079 Y129.600 E531.58094
G0 F12000 X40.079 Y129.200
G1 F2220 X36.060 Y129.200 E531.68119
G0 F12000 X36.060 Y128.800
G1 F2220 X40.079 Y128.800 E531.78145
G0 F12000 X40.079 Y128.400
G1 F2220 X36.060 Y128.400 E531.88170
G0 F12000 X36.060 Y128.000
G1 F2220 X40.079 Y128.000 E531.98196
G0 F12000 X40.079 Y127.600
G1 F2220 X36.060 Y127.600 E532.08221
G0 F12000 X36.060 Y127.200
G1 F2220 X40.079 Y127.200 E532.18247
G0 F12000 X40.079 Y126.800
G1 F2220 X36.060 Y126.800 E532.28272
G0 F12000 X36.060 Y126.400
G1 F2220 X40.079 Y126.400 E532.38298
G0 F12000 X40.079 Y126.000
G1 F2220 X36.060 Y126.000 E532.48323
G0 F12000 X36.060 Y125.600
G1 F2220 X40.079 Y125.600 E532.58348
G0 F12000 X40.079 Y125.200
G1 F2220 X36.060 Y125.200 E532.68374
G0 F12000 X36.060 Y124.800
G1 F2220 X40.079 Y124.800 E532.78399
G0 F12000 X40.079 Y124.400
G1 F2220 X36.060 Y124.400 E532.88425
G0 F12000 X36.060 Y124.000
G1 F2220 X40.079 Y124.000 E532.98450
G0 F12000 X40.079 Y123.600
G1 F2220 X36.060 Y123.600 E533.08476
G0 F12000 X36.060 Y123.200
G1 F2220 X40.079 Y123.200 E533.18501
G0 F12000 X40.079 Y122.800
G1 F2220 X36.060 Y122.800 E533.28526
G0 F12000 X36.060 Y122.400
G1 F2220 X40.079 Y122.400 E533.38552
G0 F12000 X40.079 Y122.000
G1 F2220 X36.060 Y122.000 E533.48577
G0 F12000 X36.060 Y121.600
G1 F2220 X40.079 Y121.600 E533.58603
G0 F12000 X40.079 Y121.200
G1 F2220 X36.060 Y121.200 E533.68628
G0 F12000 X36.060 Y120.800
G1 F2220 X40.079 Y120.800 E533.78654
G0 F12000 X40.079 Y120.400
G1 F2220 X36.060 Y120.400 E533.88679
G0 F12000 X36.060 Y120.000
G1 F2220 X40.079 Y120.000 E533.98705
G0 F12000 X40.079 Y119.600
G1 F2220 X36.060 Y119.600 E534.08730
G0 F12000 X36.060 Y119.200
G1 F2220 X40.079 Y119.200 E534.18755
G0 F12000 X40.079 Y118.800
G1 F2220 X36.060 Y118.800 E534.28781
G0 F12000 X36.060 Y118.400
G1 F2220 X40.079 Y118.400 E534.38806
G0 F12000 X40.079 Y118.000
G1 F2220 X36.060 Y118.000 E534.48832
G0 F12000 X36.060 Y117.600
G1 F2220 X40.079 Y117.600 E534.58857
G0 F12000 X40.079 Y117.200
G1 F2220 X36.060 Y117.200 E534.68883
G0 F12000 X36.060 Y116.800
G1 F2220 X40.079 Y116.800 E534.78908
G0 F12000 X40.079 Y116.400
G1 F2220 X36.060 Y116.400 E534.88933
G0 F12000 X36.060 Y116.000
G1 F2220 X40.079 Y116.000 E534.98959
G0 F12000 X40.079 Y115.600
G1 F2220 X36.060 Y115.600 E535.08984
G0 F12000 X36.060 Y115.200
G1 F2220 X40.079 Y115.200 E535.19010
G0 F12000 X40.079 Y114.800
G1 F2220 X36.060 Y114.800 E535.29035
G0 F12000 X36.060 Y114.400
G1 F2220 X40.079 Y114.400 E535.39061
G0 F12000 X40.079 Y114.000
G1 F2220 X36.060 Y114.000 E535.49086
G0 F12000 X36.060 Y113.600
G1 F2220 X40.079 Y113.600 E535.59112
G0 F12000 X40.079 Y113.200
G1 F2220 X36.060 Y113.200 E535.69137
G0 F12000 X36.060 Y112.800
G1 F2220 X40.079 Y112.800 E535.79162
G0 F12000 X40.079 Y112.400
G1 F2220 X36.060 Y112.400 E535.89188
G0 F12000 X36.060 Y112.000
G1 F2220 X40.079 Y112.000 E535.99213
G0 F12000 X40.079 Y111.600
G1 F2220 X36.060 Y111.600 E536.09239
G0 F12000 X36.060 Y111.200
G1 F2220 X40.079 Y111.200 E536.19264
G0 F12000 X40.079 Y110.800
G1 F2220 X36.060 Y110.800 E536.29290
G0 F12000 X36.060 Y110.400
G1 F2220 X40.079 Y110.400 E536.39315
G0 F12000 X40.079 Y110.000
G1 F2220 X36.060 Y110.000 E536.49340
G0 F12000 X36.060 Y109.600
G1 F2220 X40.079 Y109.600 E536.59366
G0 F12000 X40.079 Y109.200
G1 F2220 X36.060 Y109.200 E536.69391
G0 F12000 X36.060 Y108.800
G1 F2220 X40.079 Y108.800 E536.79417
G0 F12000 X40.079 Y108.400
G1 F2220 X36.060 Y108.400 E536.89442
G0 F12000 X36.060 Y108.000
G1 F2220 X40.079 Y108.000 E536.99468
G0 F12000 X40.079 Y107.600
G1 F2220 X36.060 Y107.600 E537.09493
G0 F12000 X36.060 Y107.200
G1 F2220 X40.079 Y107.200 E537.19518
G0 F12000 X40.079 Y106.800
G1 F2220 X36.060 Y106.800 E537.29544
G0 F12000 X36.086 Y106.400
G1 F2220 X40.079 Y106.400 E537.39505
G0 F12000 X40.079 Y106.000
G1 F2220 X36.139 Y106.000 E537.49333
G0 F12000 X36.300 Y105.600
G1 F2220 X40.079 Y105.600 E537.58760
G0 F12000 X40.079 Y105.200
G1 F2220 X36.549 Y105.200 E537.67565
G0 F12000 X36.948 Y104.800
G1 F2220 X40.079 Y104.800 E537.75376
G1 F2100 E537.35376
G0 F12000 X37.705 Y104.400
G1 F2100 E537.75376
G1 F2220 X46.705 Y104.400 E537.97826
G1 F2100 E537.57826
G0 F12000 X69.028 Y205.200
G1 F2100 E537.97826
G1 F2220 X81.791 Y205.200 E538.29664
G0 F12000 X81.791 Y205.600
G1 F2220 X69.259 Y205.600 E538.60925
G0 F12000 X69.490 Y206.000
G1 F2220 X81.791 Y206.000 E538.91610
G0 F12000 X81.791 Y206.400
G1 F2220 X69.721 Y206.400 E539.21718
G0 F12000 X69.952 Y206.800
G1 F2220 X81.791 Y206.800 E539.51251
G0 F12000 X81.791 Y207.200
G1 F2220 X70.183 Y207.200 E539.80207
G0 F12000 X70.414 Y207.600
G1 F2220 X81.791 Y207.600 E540.08587
G0 F12000 X81.791 Y208.000
G1 F2220 X70.645 Y208.000 E540.36391
G0 F12000 X70.876 Y208.400
G1 F2220 X81.791 Y208.400 E540.63619
G0 F12000 X81.791 Y208.800
G1 F2220 X71.107 Y208.800 E540.90270
G0 F12000 X71.338 Y209.200
G1 F2220 X81.791 Y209.200 E541.16345
G0 F12000 X81.791 Y209.600
G1 F2220 X71.569 Y209.600 E541.41844
G0 F12000 X71.800 Y210.000
G1 F2220 X81.791 Y210.000 E541.66767
G0 F12000 X81.791 Y210.400
G1 F2220 X72.031 Y210.400 E541.91113
G0 F12000 X72.262 Y210.800
G1 F2220 X81.791 Y210.800 E542.14883
G0 F12000 X81.791 Y211.200
G1 F2220 X72.493 Y211.200 E542.38077
G0 F12000 X72.724 Y211.600
G1 F2220 X81.791 Y211.600 E542.60695
G0 F12000 X81.791 Y212.000
G1 F2220 X72.955 Y212.000 E542.82736
G0 F12000 X73.186 Y212.400
G1 F2220 X81.876 Y212.400 E543.04414
G0 F12000 X82.107 Y212.800
G1 F2220 X73.417 Y212.800 E543.26091
G0 F12000 X73.647 Y213.200
G1 F2220 X82.339 Y213.200 E543.47773
G0 F12000 X82.570 Y213.600
G1 F2220 X73.878 Y213.600 E543.69456
G0 F12000 X74.109 Y214.000
G1 F2220 X82.801 Y214.000 E543.91138
G0 F12000 X83.032 Y214.400
G1 F2220 X74.340 Y214.400 E544.12820
G0 F12000 X74.571 Y214.800
G1 F2220 X83.263 Y214.800 E544.34502
G0 F12000 X83.494 Y215.200
G1 F2220 X74.802 Y215.200 E544.56185
G0 F12000 X75.033 Y215.600
G1 F2220 X83.725 Y215.600 E544.77867
G0 F12000 X83.956 Y216.000
G1 F2220 X75.264 Y216.000 E544.99549
G0 F12000 X75.495 Y216.400
G1 F2220 X84.187 Y216.400 E545.21232
G0 F12000 X84.418 Y216.800
G1 F2220 X75.726 Y216.800 E545.42914
G0 F12000 X75.957 Y217.200
G1 F2220 X84.649 Y217.200 E545.64596
G0 F12000 X84.880 Y217.600
G1 F2220 X76.188 Y217.600 E545.86278
G0 F12000 X76.419 Y218.000
G1 F2220 X119.676 Y218.000 E546.94183
G0 F12000 X119.676 Y218.400
G1 F2220 X76.650 Y218.400 E548.01512
G0 F12000 X76.881 Y218.800
G1 F2220 X119.676 Y218.800 E549.08265
G0 F12000 X119.676 Y219.200
G1 F2220 X77.112 Y219.200 E550.14441
G0 F12000 X77.343 Y219.600
G1 F2220 X119.676 Y219.600 E551.20041
G0 F12000 X119.676 Y220.000
G1 F2220 X77.574 Y220.000 E552.25065
G0 F12000 X77.805 Y220.400
G1 F2220 X119.676 Y220.400 E553.29513
G0 F12000 X119.676 Y220.800
G1 F2220 X78.036 Y220.800 E554.33384
G0 F12000 X78.267 Y221.200
G1 F2220 X119.676 Y221.200 E555.36679
G0 F12000 X119.676 Y221.600
G1 F2220 X78.498 Y221.600 E556.39398
G0 F12000 X78.729 Y222.000
G1 F2220 X119.676 Y222.000 E557.41541
G0 F12000 X119.676 Y222.400
G1 F2220 X78.960 Y222.400 E558.43107
G0 F12000 X79.191 Y222.800
G1 F2220 X119.676 Y222.800 E559.44098
G0 F12000 X119.676 Y223.200
G1 F2220 X79.422 Y223.200 E560.44512
G0 F12000 X79.653 Y223.600
G1 F2220 X119.676 Y223.600 E561.44349
G0 F12000 X119.676 Y224.000
G1 F2220 X79.884 Y224.000 E562.43611
G0 F12000 X80.114 Y224.400
G1 F2220 X119.676 Y224.400 E563.42299
G0 F12000 X119.676 Y224.800
G1 F2220 X80.345 Y224.800 E564.40410
G0 F12000 X80.576 Y225.200
G1 F2220 X119.676 Y225.200 E565.37946
G0 F12000 X119.676 Y225.600
G1 F2220 X80.807 Y225.600 E566.34905
;LAYER:2
M106 S7
G0 F12000 X80.879 Y226.001 Z0.500
;TYPE:WALL-INNER
G1 F2700 X68.732 Y204.964 E566.95502
G1 X43.595 Y204.964 E567.58206
G1 X42.824 Y204.890 E567.60138
G1 X42.135 Y204.686 E567.61931
G1 X41.414 Y204.315 E567.63953
G1 X37.154 Y201.543 E567.76632
G1 X37.042 Y201.470 E567.76965
G1 X36.555 Y201.058 E567.78556
G1 X36.215 Y200.583 E567.80014
G1 X35.996 Y200.023 E567.81514
G1 X35.923 Y199.428 E567.83009
G1 X35.919 Y106.605 E570.14557
G1 X36.006 Y105.944 E570.16220
G1 X36.245 Y105.367 E570.17778
G1 X36.625 Y104.872 E570.19335
G1 X37.122 Y104.491 E570.20897
G1 X37.698 Y104.252 E570.22452
G1 X38.359 Y104.165 E570.24115
G1 X43.151 Y104.165 E570.36069
G1 X44.391 Y104.194 E570.39163
G1 X67.809 Y104.840 E570.97602
G1 X80.879 Y82.202 E571.62808
G1 X123.818 Y82.202 E572.69920
G1 X123.818 Y89.803 E572.88881
G1 X85.186 Y89.802 E573.85249
G1 X82.148 Y95.065 E574.00408
G1 X81.932 Y95.438 E574.01483
G1 X81.932 Y212.216 E576.92787
G1 X85.186 Y217.851 E577.09019
G1 X119.817 Y217.851 E577.95406
G1 X119.817 Y226.001 E578.15736
G1 X80.879 Y226.001 E579.12868
G1 F2100 E578.72868
G0 F12000 X79.593 Y204.414
G1 F2100 E579.12868
G1 F2700 X80.839 Y201.933 E579.19793
G1 X80.941 Y201.732 E579.20355
G1 X80.941 Y107.840 E581.54570
G1 X80.872 Y107.312 E581.55898
G1 X80.653 Y106.783 E581.57327
G1 X80.304 Y106.329 E581.58755
G1 X79.850 Y105.981 E581.60182
G1 X79.322 Y105.763 E581.61607
G1 X78.795 Y105.692 E581.62933
G1 X43.992 Y105.692 E582.49750
G1 X42.892 Y104.715 E582.53420
G1 X40.219 Y104.715 E582.60088
G1 X40.219 Y201.103 E585.00528
G1 X40.327 Y201.932 E585.02614
G1 X40.663 Y202.742 E585.04801
G1 X41.196 Y203.436 E585.06984
G1 X41.891 Y203.970 E585.09171
G1 X42.701 Y204.305 E585.11357
G1 X43.530 Y204.414 E585.13443
G1 X79.593 Y204.414 E586.03402
G0 F12000 X79.346 Y204.014
;TYPE:WALL-OUTER
G1 F2700 X80.541 Y201.636 E586.10041
G1 X80.541 Y107.866 E588.43951
G1 X80.482 Y107.416 E588.45084
G1 X80.304 Y106.985 E588.46247
G1 X80.019 Y106.614 E588.47414
G1 X79.649 Y106.330 E588.48577
G1 X79.217 Y106.152 E588.49743
G1 X78.768 Y106.092 E588.50873
G1 X43.841 Y106.092 E589.37999
G1 X42.740 Y105.115 E589.41670
G1 X40.619 Y105.115 E589.46961
G1 X40.619 Y201.077 E591.86339
G1 X40.717 Y201.828 E591.88229
G1 X41.012 Y202.540 E591.90151
G1 X41.481 Y203.151 E591.92073
G1 X42.093 Y203.621 E591.93998
G1 X42.805 Y203.915 E591.95919
G1 X43.556 Y204.014 E591.97809
G1 X79.346 Y204.014 E592.87087
G1 F2100 E592.47087
G0 F12000 X82.332 Y212.109
G1 F2100 E592.87087
G1 F2700 X85.417 Y217.451 E593.02475
G1 X120.217 Y217.451 E593.89284
G1 X120.217 Y226.401 E594.11610
G1 X80.647 Y226.401 E595.10318
G1 X68.501 Y205.364 E595.70913
G1 X43.578 Y205.364 E596.33084
G1 X42.759 Y205.285 E596.35137
G1 X42.749 Y205.284 E596.35162
G1 X41.981 Y205.057 E596.37159
G1 X41.218 Y204.664 E596.39300
G1 X36.801 Y201.789 E596.52447
G1 X36.271 Y201.343 E596.54175
G1 X35.859 Y200.770 E596.55935
G1 X35.606 Y200.124 E596.57666
G1 X35.523 Y199.454 E596.59350
G1 X35.519 Y106.576 E598.91035
G1 X35.615 Y105.843 E598.92879
G1 X35.896 Y105.166 E598.94708
G1 X36.340 Y104.587 E598.96528
G1 X36.920 Y104.142 E598.98352
G1 X37.597 Y103.861 E599.00180
G1 X38.330 Y103.765 E599.02024
G1 X43.160 Y103.765 E599.14073
G1 X67.582 Y104.433 E599.75016
G1 X80.647 Y81.802 E600.40202
G1 X124.218 Y81.802 E601.48890
G1 X124.218 Y90.203 E601.69846
G1 X85.417 Y90.202 E602.66636
G1 X82.332 Y95.545 E602.82026
G1 X82.332 Y212.109 E605.72796
G0 F12000 X82.000 Y212.615
;TYPE:SKIN
G1 F2700 X82.000 Y225.861 E606.05839
G0 F12000 X81.600 Y225.861
G1 F2700 X81.600 Y82.342 E609.63848
G0 F12000 X81.200 Y82.342
G1 F2700 X81.200 Y225.861 E613.21858
G0 F12000 X80.800 Y225.585
G1 F2700 X80.800 Y202.323 E613.79885
G0 F12000 X80.400 Y203.119
G1 F2700 X80.400 Y224.892 E614.34198
G0 F12000 X80.000 Y224.200
G1 F2700 X80.000 Y203.915 E614.84799
G1 F2100 E614.44799
G0 F12000 X82.400 Y213.307
G1 F2100 E614.84799
G1 F2700 X82.400 Y225.861 E615.16115
G0 F12000 X82.800 Y225.861
G1 F2700 X82.800 Y213.999 E615.45705
G0 F12000 X83.200 Y214.692
G1 F2700 X83.200 Y225.861 E615.73566
G0 F12000 X83.600 Y225.861
G1 F2700 X83.600 Y215.384 E615.99701
G0 F12000 X84.000 Y216.077
G1 F2700 X84.000 Y225.861 E616.24108
G0 F12000 X84.400 Y225.861
G1 F2700 X84.400 Y216.769 E616.46788
G0 F12000 X84.800 Y217.462
G1 F2700 X84.800 Y225.861 E616.67739
G0 F12000 X85.200 Y225.861
G1 F2700 X85.200 Y217.991 E616.87371
G0 F12000 X85.600 Y217.991
G1 F2700 X85.600 Y225.861 E617.07003
G0 F12000 X86.000 Y225.861
G1 F2700 X86.000 Y217.991 E617.26634
G0 F12000 X86.400 Y217.991
G1 F2700 X86.400 Y225.861 E617.46266
G0 F12000 X86.800 Y225.861
G1 F2700 X86.800 Y217.991 E617.65898
G0 F12000 X87.200 Y217.991
G1 F2700 X87.200 Y225.861 E617.85530
G0 F12000 X87.600 Y225.861
G1 F2700 X87.600 Y217.991 E618.05162
G0 F12000 X88.000 Y217.991
G1 F2700 X88.000 Y225.861 E618.24793
G0 F12000 X88.400 Y225.861
G1 F2700 X88.400 Y217.991 E618.44425
G0 F12000 X88.800 Y217.991
G1 F2700 X88.800 Y225.861 E618.64057
G0 F12000 X89.200 Y225.861
G1 F2700 X89.200 Y217.991 E618.83689
G0 F12000 X89.600 Y217.991
G1 F2700 X89.600 Y225.861 E619.03321
G0 F12000 X90.000 Y225.861
G1 F2700 X90.000 Y217.991 E619.22952
G0 F12000 X90.400 Y217.991
G1 F2700 X90.400 Y225.861 E619.42584
G0 F12000 X90.800 Y225.861
G1 F2700 X90.800 Y217.991 E619.62216
G0 F12000 X91.200 Y217.991
G1 F2700 X91.200 Y225.861 E619.81848
G0 F12000 X91.600 Y225.861
G1 F2700 X91.600 Y217.991 E620.01480
G0 F12000 X92.000 Y217.991
G1 F2700 X92.000 Y225.861 E620.21111
G0 F12000 X92.400 Y225.861
G1 F2700 X92.400 Y217.991 E620.40743
G0 F12000 X92.800 Y217.991
G1 F2700 X92.800 Y225.861 E620.60375
G0 F12000 X93.200 Y225.861
G1 F2700 X93.200 Y217.991 E620.80007
G0 F12000 X93.600 Y217.991
G1 F2700 X93.600 Y225.861 E620.99638
G0 F12000 X94.000 Y225.861
G1 F2700 X94.000 Y217.991 E621.19270
G0 F12000 X94.400 Y217.991
G1 F2700 X94.400 Y225.861 E621.38902
G0 F12000 X94.800 Y225.861
G1 F2700 X94.800 Y217.991 E621.58534
G0 F12000 X95.200 Y217.991
G1 F2700 X95.200 Y225.861 E621.78166
G0 F12000 X95.600 Y225.861
G1 F2700 X95.600 Y217.991 E621.97797
G0 F12000 X96.000 Y217.991
G1 F2700 X96.000 Y225.861 E622.17429
G0 F12000 X96.400 Y225.861
G1 F2700 X96.400 Y217.991 E622.37061
G0 F12000 X96.800 Y217.991
G1 F2700 X96.800 Y225.861 E622.56693
G0 F12000 X97.200 Y225.861
G1 F2700 X97.200 Y217.991 E622.76325
G0 F12000 X97.600 Y217.991
G1 F2700 X97.600 Y225.861 E622.95956
G0 F12000 X98.000 Y225.861
G1 F2700 X98.000 Y217.991 E623.15588
G0 F12000 X98.400 Y217.991
G1 F2700 X98.400 Y225.861 E623.35220
G0 F12000 X98.800 Y225.861
G1 F2700 X98.800 Y217.991 E623.54852
G0 F12000 X99.200 Y217.991
G1 F2700 X99.200 Y225.861 E623.74484
G0 F12000 X99.600 Y225.861
G1 F2700 X99.600 Y217.991 E623.94115
G0 F12000 X100.000 Y217.991
G1 F2700 X100.000 Y225.861 E624.13747
G0 F12000 X100.400 Y225.861
G1 F2700 X100.400 Y217.991 E624.33379
G0 F12000 X100.800 Y217.991
G1 F2700 X100.800 Y225.861 E624.53011
G0 F12000 X101.200 Y225.861
G1 F2700 X101.200 Y217.991 E624.72643
G0 F12000 X101.600 Y217.991
G1 F2700 X101.600 Y225.861 E624.92274
G0 F12000 X102.000 Y225.861
G1 F2700 X102.000 Y217.991 E625.11906
G0 F12000 X102.400 Y217.991
G1 F2700 X102.400 Y225.861 E625.31538
G0 F12000 X102.800 Y225.861
G1 F2700 X102.800 Y217.991 E625.51170
G0 F12000 X103.200 Y217.991
G1 F2700 X103.200 Y225.861 E625.70802
G0 F12000 X103.600 Y225.861
G1 F2700 X103.600 Y217.991 E625.90433
G0 F12000 X104.000 Y217.991
G1 F2700 X104.000 Y225.861 E626.10065
G0 F12000 X104.400 Y225.861
G1 F2700 X104.400 Y217.991 E626.29697
G0 F12000 X104.800 Y217.991
G1 F2700 X104.800 Y225.861 E626.49329
G0 F12000 X105.200 Y225.861
G1 F2700 X105.200 Y217.991 E626.68961
G0 F12000 X105.600 Y217.991
G1 F2700 X105.600 Y225.861 E626.88592
G0 F12000 X106.000 Y225.861
G1 F2700 X106.000 Y217.991 E627.08224
G0 F12000 X106.400 Y217.991
G1 F2700 X106.400 Y225.861 E627.27856
G0 F12000 X106.800 Y225.861
G1 F2700 X106.800 Y217.991 E627.47488
G0 F12000 X107.200 Y217.991
G1 F2700 X107.200 Y225.861 E627.67120
G0 F12000 X107.600 Y225.861
G1 F2700 X107.600 Y217.991 E627.86751
G0 F12000 X108.000 Y217.991
G1 F2700 X108.000 Y225.861 E628.06383
G0 F12000 X108.400 Y225.861
G1 F2700 X108.400 Y217.991 E628.26015
G0 F12000 X108.800 Y217.991
G1 F2700 X108.800 Y225.861 E628.45647
G0 F12000 X109.200 Y225.861
G1 F2700 X109.200 Y217.991 E628.65278
G0 F12000 X109.600 Y217.991
G1 F2700 X109.600 Y225.861 E628.84910
G0 F12000 X110.000 Y225.861
G1 F2700 X110.000 Y217.991 E629.04542
G0 F12000 X110.400 Y217.991
G1 F2700 X110.400 Y225.861 E629.24174
G0 F12000 X110.800 Y225.861
G1 F2700 X110.800 Y217.991 E629.43806
G0 F12000 X111.200 Y217.991
G1 F2700 X111.200 Y225.861 E629.63437
G0 F12000 X111.600 Y225.861
G1 F2700 X111.600 Y217.991 E629.83069
G0 F12000 X112.000 Y217.991
G1 F2700 X112.000 Y225.861 E630.02701
G0 F12000 X112.400 Y225.861
G1 F2700 X112.400 Y217.991 E630.22333
G0 F12000 X112.800 Y217.991
G1 F2700 X112.800 Y225.861 E630.41965
G0 F12000 X113.200 Y225.861
G1 F2700 X113.200 Y217.991 E630.61596
G0 F12000 X113.600 Y217.991
G1 F2700 X113.600 Y225.861 E630.81228
G0 F12000 X114.000 Y225.861
G1 F2700 X114.000 Y217.991 E631.00860
G0 F12000 X114.400 Y217.991
G1 F2700 X114.400 Y225.861 E631.20492
G0 F12000 X114.800 Y225.861
G1 F2700 X114.800 Y217.991 E631.40124
G0 F12000 X115.200 Y217.991
G1 F2700 X115.200 Y225.861 E631.59755
G0 F12000 X115.600 Y225.861
G1 F2700 X115.600 Y217.991 E631.79387
G0 F12000 X116.000 Y217.991
G1 F2700 X116.000 Y225.861 E631.99019
G0 F12000 X116.400 Y225.861
G1 F2700 X116.400 Y217.991 E632.18651
G0 F12000 X116.800 Y217.991
G1 F2700 X116.800 Y225.861 E632.38283
G0 F12000 X117.200 Y225.861
G1 F2700 X117.200 Y217.991 E632.57914
G0 F12000 X117.600 Y217.991
G1 F2700 X117.600 Y225.861 E632.77546
G0 F12000 X118.000 Y225.861
G1 F2700 X118.000 Y217.991 E632.97178
G0 F12000 X118.400 Y217.991
G1 F2700 X118.400 Y225.861 E633.16810
G0 F12000 X118.800 Y225.861
G1 F2700 X118.800 Y217.991 E633.36442
G0 F12000 X119.200 Y217.991
G1 F2700 X119.200 Y225.861 E633.56073
G0 F12000 X119.600 Y225.861
G1 F2700 X119.600 Y217.991 E633.75705
G1 F2100 E633.35705
G0 F12000 X79.600 Y223.507
G1 F2100 E633.75705
G1 F2700 X79.600 Y204.554 E634.22984
G0 F12000 X79.200 Y204.554
G1 F2700 X79.200 Y222.814 E634.68533
G0 F12000 X78.800 Y222.121
G1 F2700 X78.800 Y204.554 E635.12354
G0 F12000 X78.400 Y204.554
G1 F2700 X78.400 Y221.429 E635.54449
G0 F12000 X78.000 Y220.736
G1 F2700 X78.000 Y204.554 E635.94815
G0 F12000 X77.600 Y204.554
G1 F2700 X77.600 Y220.043 E636.33453
G0 F12000 X77.200 Y219.350
G1 F2700 X77.200 Y204.554 E636.70362
G0 F12000 X76.800 Y204.554
G1 F2700 X76.800 Y218.658 E637.05544
G0 F12000 X76.400 Y217.965
G1 F2700 X76.400 Y204.554 E637.38998
G0 F12000 X76.000 Y204.554
G1 F2700 X76.000 Y217.272 E637.70723
G0 F12000 X75.600 Y216.579
G1 F2700 X75.600 Y204.554 E638.00720
G0 F12000 X75.200 Y204.554
G1 F2700 X75.200 Y215.887 E638.28990
G0 F12000 X74.800 Y215.194
G1 F2700 X74.800 Y204.554 E638.55532
G0 F12000 X74.400 Y204.554
G1 F2700 X74.400 Y214.501 E638.80345
G0 F12000 X74.000 Y213.808
G1 F2700 X74.000 Y204.554 E639.03429
G0 F12000 X73.600 Y204.554
G1 F2700 X73.600 Y213.116 E639.24787
G0 F12000 X73.200 Y212.423
G1 F2700 X73.200 Y204.554 E639.44416
G0 F12000 X72.800 Y204.554
G1 F2700 X72.800 Y211.730 E639.62317
G0 F12000 X72.400 Y211.037
G1 F2700 X72.400 Y204.554 E639.78489
G0 F12000 X72.000 Y204.554
G1 F2700 X72.000 Y210.345 E639.92934
G0 F12000 X71.600 Y209.652
G1 F2700 X71.600 Y204.554 E640.05651
G0 F12000 X71.200 Y204.554
G1 F2700 X71.200 Y208.959 E640.16640
G0 F12000 X70.800 Y208.266
G1 F2700 X70.800 Y204.554 E640.25899
G0 F12000 X70.400 Y204.554
G1 F2700 X70.400 Y207.574 E640.33433
G0 F12000 X70.000 Y206.881
G1 F2700 X70.000 Y204.554 E640.39237
G0 F12000 X69.600 Y204.554
G1 F2700 X69.600 Y206.188 E640.43313
G0 F12000 X69.200 Y205.495
G1 F2700 X69.200 Y204.554 E640.45661
G0 F12000 X68.800 Y204.554
G1 F2700 X68.600 Y204.824 E640.46333
G1 X68.200 Y204.554 E640.47008
G1 X67.800 Y204.824 E640.47682
G1 X67.400 Y204.554 E640.48356
G1 X67.000 Y204.824 E640.49030
G1 X66.600 Y204.554 E640.49704
G1 X66.200 Y204.824 E640.50378
G1 X65.800 Y204.554 E640.51052
G1 X65.400 Y204.824 E640.51727
G1 X65.000 Y204.554 E640.52401
G1 X64.600 Y204.824 E640.53075
G1 X64.200 Y204.554 E640.53749
G1 X63.800 Y204.824 E640.54423
G1 X63.400 Y204.554 E640.55097
G1 X63.000 Y204.824 E640.55771
G1 X62.600 Y204.554 E640.56446
G1 X62.200 Y204.824 E640.57120
G1 X61.800 Y204.554 E640.57794
G1 X61.400 Y204.824 E640.58468
G1 X61.000 Y204.554 E640.59142
G1 X60.600 Y204.824 E640.59816
G1 X60.200 Y204.554 E640.60491
G1 X59.800 Y204.824 E640.61165
G1 X59.400 Y204.554 E640.61839
G1 X59.000 Y204.824 E640.62513
G1 X58.600 Y204.554 E640.63187
G1 X58.200 Y204.824 E640.63861
G1 X57.800 Y204.554 E640.64535
G1 X57.400 Y204.824 E640.65210
G1 X57.000 Y204.554 E640.65884
G1 X56.600 Y204.824 E640.66558
G1 X56.200 Y204.554 E640.67232
G1 X55.800 Y204.824 E640.67906
G1 X55.400 Y204.554 E640.68580
G1 X55.000 Y204.824 E640.69255
G1 X54.600 Y204.554 E640.69929
G1 X54.200 Y204.824 E640.70603
G1 X53.800 Y204.554 E640.71277
G1 X53.400 Y204.824 E640.71951
G1 X53.000 Y204.554 E640.72625
G1 X52.600 Y204.824 E640.73299
G1 X52.200 Y204.554 E640.73974
G1 X51.800 Y204.824 E640.74648
G1 X51.400 Y204.554 E640.75322
G1 X51.000 Y204.824 E640.75996
G1 X50.600 Y204.554 E640.76670
G1 X50.200 Y204.824 E640.77344
G1 X49.800 Y204.554 E640.78019
G1 X49.400 Y204.824 E640.78693
G1 X49.000 Y204.554 E640.79367
G1 X48.600 Y204.824 E640.80041
G1 X48.200 Y204.554 E640.80715
G1 X47.800 Y204.824 E640.81389
G1 X47.400 Y204.554 E640.82063
G1 X47.000 Y204.824 E640.82738
G1 X46.600 Y204.554 E640.83412
G1 X46.200 Y204.824 E640.84086
G1 X45.800 Y204.554 E640.84760
G1 X45.400 Y204.824 E640.85434
G1 X45.000 Y204.554 E640.86108
G1 X44.600 Y204.824 E640.86782
G1 X44.200 Y204.554 E640.87457
G1 X43.800 Y204.823 E640.88130
G1 X43.400 Y204.533 E640.88799
G1 X43.000 Y204.760 E640.89478
G1 X42.600 Y204.396 E640.90166
G1 X42.200 Y204.537 E640.90873
G1 X41.800 Y204.209 E640.91598
G1 X41.400 Y203.965 E640.92420
G1 X41.000 Y203.681 E640.93399
G1 X40.800 Y203.150 E640.94814
G0 F12000 X40.400 Y203.487
G1 F2700 X40.400 Y202.475 E640.97338
G0 F12000 X40.000 Y203.227
G1 F2700 X40.000 Y104.305 E643.44100
G0 F12000 X40.400 Y104.305
G1 F2700 X40.600 Y104.575 E643.44773
G1 X41.000 Y104.305 E643.45447
G1 X41.400 Y104.575 E643.46121
G1 X41.800 Y104.305 E643.46795
G1 X42.200 Y104.575 E643.47470
G1 X42.600 Y104.305 E643.48144
G1 X43.000 Y104.688 E643.48817
G1 X43.200 Y104.307 E643.49891
G0 F12000 X43.600 Y104.318
G1 F2700 X43.600 Y105.156 E643.51981
G0 F12000 X44.000 Y105.511
G1 F2700 X44.000 Y104.329 E643.54929
G0 F12000 X44.400 Y104.340
G1 F2700 X44.400 Y105.552 E643.57953
G0 F12000 X44.800 Y105.552
G1 F2700 X44.800 Y104.351 E643.60949
G0 F12000 X45.200 Y104.362
G1 F2700 X45.200 Y105.552 E643.63917
G0 F12000 X45.600 Y105.552
G1 F2700 X45.600 Y104.373 E643.66858
G0 F12000 X46.000 Y104.384
G1 F2700 X46.000 Y105.552 E643.69772
G0 F12000 X46.400 Y105.552
G1 F2700 X46.400 Y104.395 E643.72658
G0 F12000 X46.800 Y104.405
G1 F2700 X46.800 Y105.552 E643.75519
G0 F12000 X47.200 Y105.552
G1 F2700 X47.200 Y104.416 E643.78353
G0 F12000 X47.600 Y104.427
G1 F2700 X47.600 Y105.552 E643.81159
G0 F12000 X48.000 Y105.552
G1 F2700 X48.000 Y104.438 E643.83938
G0 F12000 X48.400 Y104.449
G1 F2700 X48.400 Y105.552 E643.86690
G0 F12000 X48.800 Y105.552
G1 F2700 X48.800 Y104.460 E643.89414
G0 F12000 X49.200 Y104.471
G1 F2700 X49.200 Y105.552 E643.92110
G0 F12000 X49.600 Y105.552
G1 F2700 X49.600 Y104.482 E643.94779
G0 F12000 X50.000 Y104.493
G1 F2700 X50.000 Y105.552 E643.97421
G0 F12000 X50.400 Y105.552
G1 F2700 X50.400 Y104.504 E644.00035
G0 F12000 X50.800 Y104.515
G1 F2700 X50.800 Y105.552 E644.02622
G0 F12000 X51.200 Y105.552
G1 F2700 X51.200 Y104.526 E644.05181
G0 F12000 X51.600 Y104.537
G1 F2700 X51.600 Y105.552 E644.07713
G0 F12000 X52.000 Y105.552
G1 F2700 X52.000 Y104.548 E644.10218
G0 F12000 X52.400 Y104.559
G1 F2700 X52.400 Y105.552 E644.12695
G0 F12000 X52.800 Y105.552
G1 F2700 X52.800 Y104.570 E644.15144
G0 F12000 X53.200 Y104.581
G1 F2700 X53.200 Y105.552 E644.17567
G0 F12000 X53.600 Y105.552
G1 F2700 X53.600 Y104.592 E644.19961
G0 F12000 X54.000 Y104.602
G1 F2700 X54.000 Y105.552 E644.22331
G0 F12000 X54.400 Y105.552
G1 F2700 X54.400 Y104.613 E644.24673
G0 F12000 X54.800 Y104.624
G1 F2700 X54.800 Y105.552 E644.26988
G0 F12000 X55.200 Y105.552
G1 F2700 X55.200 Y104.635 E644.29276
G0 F12000 X55.600 Y104.646
G1 F2700 X55.600 Y105.552 E644.31536
G0 F12000 X56.000 Y105.552
G1 F2700 X56.000 Y104.657 E644.33768
G0 F12000 X56.400 Y104.668
G1 F2700 X56.400 Y105.552 E644.35974
G0 F12000 X56.800 Y105.552
G1 F2700 X56.800 Y104.679 E644.38151
G0 F12000 X57.200 Y104.690
G1 F2700 X57.200 Y105.552 E644.40302
G0 F12000 X57.600 Y105.552
G1 F2700 X57.600 Y104.701 E644.42424
G0 F12000 X58.000 Y104.712
G1 F2700 X58.000 Y105.552 E644.44520
G0 F12000 X58.400 Y105.552
G1 F2700 X58.400 Y104.723 E644.46588
G0 F12000 X58.800 Y104.734
G1 F2700 X58.800 Y105.552 E644.48628
G0 F12000 X59.200 Y105.552
G1 F2700 X59.200 Y104.745 E644.50641
G0 F12000 X59.600 Y104.756
G1 F2700 X59.800 Y105.552 E644.52627
G1 X60.200 Y104.772 E644.54584
G1 X60.600 Y105.552 E644.56514
G1 X61.000 Y104.794 E644.58417
G1 X61.400 Y105.552 E644.60293
G1 X61.800 Y104.815 E644.62144
G1 X62.200 Y105.552 E644.63964
G1 X62.600 Y104.837 E644.65757
G1 X63.000 Y105.552 E644.67525
G1 X63.400 Y104.859 E644.69267
G1 X63.800 Y105.552 E644.70978
G1 X64.200 Y104.881 E644.72664
G1 X64.600 Y105.552 E644.74320
G1 X65.000 Y104.903 E644.75951
G1 X65.400 Y105.552 E644.77553
G1 X65.800 Y104.925 E644.79130
G1 X66.200 Y105.552 E644.80679
G1 X66.600 Y104.947 E644.82199
G1 X67.000 Y105.552 E644.83691
G1 X67.400 Y104.969 E644.85155
G1 X67.800 Y105.552 E644.86593
G1 X68.000 Y104.789 E644.88560
G0 F12000 X68.400 Y104.096
G1 F2700 X68.400 Y105.552 E644.92192
G0 F12000 X68.800 Y105.552
G1 F2700 X68.800 Y103.403 E644.97553
G0 F12000 X69.200 Y102.711
G1 F2700 X69.200 Y105.552 E645.04640
G0 F12000 X69.600 Y105.552
G1 F2700 X69.600 Y102.018 E645.13456
G0 F12000 X70.000 Y101.325
G1 F2700 X70.000 Y105.552 E645.24000
G0 F12000 X70.400 Y105.552
G1 F2700 X70.400 Y100.632 E645.36273
G0 F12000 X70.800 Y99.939
G1 F2700 X70.800 Y105.552 E645.50275
G0 F12000 X71.200 Y105.552
G1 F2700 X71.200 Y99.246 E645.66005
G0 F12000 X71.600 Y98.553
G1 F2700 X71.600 Y105.552 E645.83464
G0 F12000 X72.000 Y105.552
G1 F2700 X72.000 Y97.860 E646.02652
G0 F12000 X72.400 Y97.167
G1 F2700 X72.400 Y105.552 E646.23568
G0 F12000 X72.800 Y105.552
G1 F2700 X72.800 Y96.475 E646.46211
G0 F12000 X73.200 Y95.782
G1 F2700 X73.200 Y105.552 E646.70582
G0 F12000 X73.600 Y105.552
G1 F2700 X73.600 Y95.089 E646.96682
G0 F12000 X74.000 Y94.396
G1 F2700 X74.000 Y105.552 E647.24511
G0 F12000 X74.400 Y105.552
G1 F2700 X74.400 Y93.703 E647.54069
G0 F12000 X74.800 Y93.010
G1 F2700 X74.800 Y105.552 E647.85355
G0 F12000 X75.200 Y105.552
G1 F2700 X75.200 Y92.317 E648.18370
G0 F12000 X75.600 Y91.624
G1 F2700 X75.600 Y105.552 E648.53113
G0 F12000 X76.000 Y105.552
G1 F2700 X76.000 Y90.932 E648.89583
G0 F12000 X76.400 Y90.239
G1 F2700 X76.400 Y105.552 E649.27781
G0 F12000 X76.800 Y105.552
G1 F2700 X76.800 Y89.546 E649.67708
G0 F12000 X77.200 Y88.853
G1 F2700 X77.200 Y105.552 E650.09364
G0 F12000 X77.600 Y105.552
G1 F2700 X77.600 Y88.160 E650.52749
G0 F12000 X78.000 Y87.467
G1 F2700 X78.000 Y105.552 E650.97862
G0 F12000 X78.400 Y105.552
G1 F2700 X78.400 Y86.774 E651.44704
G0 F12000 X78.800 Y86.081
G1 F2700 X78.800 Y105.552 E651.93274
G0 F12000 X79.200 Y105.604
G1 F2700 X79.200 Y85.388 E652.43703
G0 F12000 X79.600 Y84.696
G1 F2700 X79.600 Y105.725 E652.96161
G0 F12000 X80.000 Y105.919
G1 F2700 X80.000 Y84.003 E653.50830
G0 F12000 X80.400 Y83.310
G1 F2700 X80.400 Y106.225 E654.07992
G0 F12000 X80.800 Y106.771
G1 F2700 X80.800 Y82.617 E654.68244
G0 F12000 X82.000 Y82.342
G1 F2700 X82.000 Y95.040 E654.99920
G0 F12000 X82.400 Y94.348
G1 F2700 X82.400 Y82.342 E655.29869
G0 F12000 X82.800 Y82.342
G1 F2700 X82.800 Y93.655 E655.58089
G0 F12000 X83.200 Y92.963
G1 F2700 X83.200 Y82.342 E655.84583
G0 F12000 X83.600 Y82.342
G1 F2700 X83.600 Y92.270 E656.09349
G0 F12000 X84.000 Y91.577
G1 F2700 X84.000 Y82.342 E656.32386
G0 F12000 X84.400 Y82.342
G1 F2700 X84.400 Y90.885 E656.53696
G0 F12000 X84.800 Y90.192
G1 F2700 X84.800 Y82.342 E656.73278
G0 F12000 X85.200 Y82.342
G1 F2700 X85.200 Y89.662 E656.91538
G0 F12000 X85.600 Y89.662
G1 F2700 X85.600 Y82.342 E657.09798
G0 F12000 X86.000 Y82.342
G1 F2700 X86.000 Y89.662 E657.28057
G0 F12000 X86.400 Y89.662
G1 F2700 X86.400 Y82.342 E657.46317
G0 F12000 X86.800 Y82.342
G1 F2700 X86.800 Y89.662 E657.64577
G0 F12000 X87.200 Y89.662
G1 F2700 X87.200 Y82.342 E657.82837
G0 F12000 X87.600 Y82.342
G1 F2700 X87.600 Y89.662 E658.01097
G0 F12000 X88.000 Y89.662
G1 F2700 X88.000 Y82.342 E658.19357
G0 F12000 X88.400 Y82.342
G1 F2700 X88.400 Y89.662 E658.37616
G0 F12000 X88.800 Y89.662
G1 F2700 X88.800 Y82.342 E658.55876
G0 F12000 X89.200 Y82.342
G1 F2700 X89.200 Y89.662 E658.74136
G0 F12000 X89.600 Y89.662
G1 F2700 X89.600 Y82.342 E658.92396
G0 F12000 X90.000 Y82.342
G1 F2700 X90.000 Y89.662 E659.10656
G0 F12000 X90.400 Y89.662
G1 F2700 X90.400 Y82.342 E659.28915
G0 F12000 X90.800 Y82.342
G1 F2700 X90.800 Y89.662 E659.47175
G0 F12000 X91.200 Y89.662
G1 F2700 X91.200 Y82.342 E659.65435
G0 F12000 X91.600 Y82.342
G1 F2700 X91.600 Y89.662 E659.83695
G0 F12000 X92.000 Y89.662
G1 F2700 X92.000 Y82.342 E660.01955
G0 F12000 X92.400 Y82.342
G1 F2700 X92.400 Y89.662 E660.20215
G0 F12000 X92.800 Y89.662
G1 F2700 X92.800 Y82.342 E660.38474
G0 F12000 X93.200 Y82.342
G1 F2700 X93.200 Y89.662 E660.56734
G0 F12000 X93.600 Y89.662
G1 F2700 X93.600 Y82.342 E660.74994
G0 F12000 X94.000 Y82.342
G1 F2700 X94.000 Y89.662 E660.93254
G0 F12000 X94.400 Y89.662
G1 F2700 X94.400 Y82.342 E661.11514
G0 F12000 X94.800 Y82.342
G1 F2700 X94.800 Y89.662 E661.29773
G0 F12000 X95.200 Y89.662
G1 F2700 X95.200 Y82.342 E661.48033
G0 F12000 X95.600 Y82.342
G1 F2700 X95.600 Y89.662 E661.66293
G0 F12000 X96.000 Y89.662
G1 F2700 X96.000 Y82.342 E661.84553
G0 F12000 X96.400 Y82.342
G1 F2700 X96.400 Y89.662 E662.02813
G0 F12000 X96.800 Y89.662
G1 F2700 X96.800 Y82.342 E662.21072
G0 F12000 X97.200 Y82.342
G1 F2700 X97.200 Y89.662 E662.39332
G0 F12000 X97.600 Y89.662
G1 F2700 X97.600 Y82.342 E662.57592
G0 F12000 X98.000 Y82.342
G1 F2700 X98.000 Y89.662 E662.75852
G0 F12000 X98.400 Y89.662
G1 F2700 X98.400 Y82.342 E662.94112
G0 F12000 X98.800 Y82.342
G1 F2700 X98.800 Y89.662 E663.12372
G0 F12000 X99.200 Y89.662
G1 F2700 X99.200 Y82.342 E663.30631
G0 F12000 X99.600 Y82.342
G1 F2700 X99.600 Y89.662 E663.48891
G0 F12000 X100.000 Y89.662
G1 F2700 X100.000 Y82.342 E663.67151
G0 F12000 X100.400 Y82.342
G1 F2700 X100.400 Y89.662 E663.85411
G0 F12000 X100.800 Y89.662
G1 F2700 X100.800 Y82.342 E664.03671
G0 F12000 X101.200 Y82.342
G1 F2700 X101.200 Y89.662 E664.21930
G0 F12000 X101.600 Y89.662
G1 F2700 X101.600 Y82.342 E664.40190
G0 F12000 X102.000 Y82.342
G1 F2700 X102.000 Y89.662 E664.58450
G0 F12000 X102.400 Y89.662
G1 F2700 X102.400 Y82.342 E664.76710
G0 F12000 X102.800 Y82.342
G1 F2700 X102.800 Y89.662 E664.94970
G0 F12000 X103.200 Y89.662
G1 F2700 X103.200 Y82.342 E665.13230
G0 F12000 X103.600 Y82.342
G1 F2700 X103.600 Y89.662 E665.31489
G0 F12000 X104.000 Y89.662
G1 F2700 X104.000 Y82.342 E665.49749
G0 F12000 X104.400 Y82.342
G1 F2700 X104.400 Y89.662 E665.68009
G0 F12000 X104.800 Y89.662
