;FLAVOR:Repetier
;TIME:1837
;Generated with Cura_SteamEngine 2.5.0
M190 S60
M104 S220
M109 S220
G28 ;Home
G1 Z15.0 F6000 ;Move the platform down 15mm
;Prime the extruder
G92 E0
G1 F200 E3
G92 E0
;LAYER_COUNT:146
;LAYER:0
M106 S255
G0 F3300 X3.526 Y-5.53 Z0.3
;TYPE:SUPPORT
G1 F1800 X3.172 Y-5.724 E0.02517
G1 X2.619 Y-6.004 E0.06383
G1 X2.133 Y-6.193 E0.09635
G1 X1.588 Y-6.352 E0.13175
G1 X1.042 Y-6.461 E0.16648
G1 X0.477 Y-6.536 E0.20202
G1 X0.025 Y-6.55 E0.23022
G1 X-.51 Y-6.527 E0.26362
G1 X-1.011 Y-6.473 E0.29504
G1 X-1.68 Y-6.331 E0.33769
G1 X-2.158 Y-6.178 E0.36899
G1 X-2.591 Y-6.018 E0.39778
G1 X-3.13 Y-5.76 E0.43504
G1 X-3.574 Y-5.494 E0.46732
G1 X-4.006 Y-5.178 E0.5007
G1 X-4.441 Y-4.815 E0.53603
G1 X-4.801 Y-4.453 E0.56787
G1 X-5.169 Y-4.026 E0.60302
G1 X-5.482 Y-3.576 E0.63721
G1 X-5.742 Y-3.136 E0.66908
G1 X-5.998 Y-2.624 E0.70478
G1 X-6.195 Y-2.124 E0.73829
G1 X-6.353 Y-1.608 E0.77195
G1 X-6.457 Y-1.096 E0.80453
G1 X-6.537 Y-.472 E0.84376
G1 X-6.553 Y-0.085 E0.86792
G1 X-6.524 Y0.562 E0.90831
G1 X-6.471 Y1.035 E0.93799
G1 X-6.367 Y1.562 E0.97149
G1 X-6.201 Y2.127 E1.00821
G1 X-6.009 Y2.609 E1.04057
G1 X-5.738 Y3.163 E1.07903
G1 X-5.509 Y3.54 E1.10654
G1 X-5.168 Y4.029 E1.14372
G1 X-4.807 Y4.457 E1.17863
G1 X-4.455 Y4.803 E1.20941
G1 X-4.016 Y5.176 E1.24534
G1 X-3.574 Y5.486 E1.27901
G1 X-3.123 Y5.756 E1.31179
G1 X-2.636 Y6.002 E1.34581
G1 X-2.117 Y6.201 E1.38048
G1 X-1.607 Y6.349 E1.41359
G1 X-1.083 Y6.463 E1.44704
G1 X-.521 Y6.528 E1.48232
G1 X0.00 Y6.551 E1.51484
G1 X0.467 Y6.537 E1.54398
G1 X1.106 Y6.46 E1.58412
G1 X1.587 Y6.356 E1.6148
G1 X2.186 Y6.173 E1.65386
G1 X2.574 Y6.02 E1.67987
G1 X3.187 Y5.723 E1.72235
G1 X3.596 Y5.475 E1.75218
G1 X4.006 Y5.182 E1.78361
G1 X4.458 Y4.793 E1.8208
G1 X4.819 Y4.436 E1.85246
G1 X5.184 Y4.005 E1.88768
G1 X5.491 Y3.575 E1.92063
G1 X5.763 Y3.114 E1.95401
G1 X6.012 Y2.597 E1.9898
G1 X6.194 Y2.121 E2.02158
G1 X6.34 Y1.628 E2.05364
G1 X6.466 Y1.031 E2.09169
G1 X6.526 Y0.517 E2.12397
G1 X6.552 Y0.02 E2.155
G1 X6.529 Y-.645 E2.1965
G1 X6.467 Y-1.065 E2.22298
G1 X6.341 Y-1.646 E2.26005
G1 X6.199 Y-2.112 E2.29043
G1 X6.001 Y-2.628 E2.3249
G1 X5.741 Y-3.15 E2.36127
G1 X5.48 Y-3.583 E2.39279
G1 X5.165 Y-4.026 E2.42669
G1 X4.808 Y-4.445 E2.46102
G1 X4.467 Y-4.793 E2.49141
G1 X4.021 Y-5.171 E2.52787
G1 X3.526 Y-5.53 E2.566
G0 F3300 X4.363 Y-6.912
G1 F1800 X4.83 Y-6.595 E2.6012
G1 X5.293 Y-6.229 E2.638
G1 X5.731 Y-5.827 E2.67508
G1 X6.115 Y-5.425 E2.70975
G1 X6.523 Y-4.926 E2.74995
G1 X6.843 Y-4.471 E2.78464
G1 X7.145 Y-3.968 E2.82122
G1 X7.41 Y-3.449 E2.85757
G1 X7.656 Y-2.861 E2.89731
G1 X7.844 Y-2.302 E2.93409
G1 X7.978 Y-1.783 E2.96752
G1 X8.085 Y-1.203 E3.0043
G1 X8.155 Y-.562 E3.04452
G1 X8.175 Y0.00 E3.07959
G1 X8.155 Y0.562 E3.11466
G1 X8.086 Y1.19 E3.15405
G1 X7.981 Y1.768 E3.19069
G1 X7.844 Y2.302 E3.22507
G1 X7.65 Y2.879 E3.26303
G1 X7.424 Y3.421 E3.29965
G1 X7.142 Y3.974 E3.33837
G1 X6.843 Y4.471 E3.37454
G1 X6.523 Y4.926 E3.40923
G1 X6.121 Y5.418 E3.44885
G1 X5.732 Y5.827 E3.48405
G1 X5.293 Y6.229 E3.52117
G1 X4.83 Y6.595 E3.55798
G1 X4.351 Y6.92 E3.59408
G1 X3.827 Y7.223 E3.63182
G1 X3.286 Y7.486 E3.66934
G1 X2.744 Y7.701 E3.7057
G1 X2.202 Y7.872 E3.74114
G1 X1.625 Y8.011 E3.77816
G1 X1.023 Y8.109 E3.81619
G1 X0.441 Y8.162 E3.85264
G1 X-.132 Y8.173 E3.88838
G1 X-.757 Y8.138 E3.92742
G1 X-1.326 Y8.066 E3.96318
G1 X-1.889 Y7.954 E3.99898
G1 X-2.496 Y7.784 E4.03829
G1 X-3.007 Y7.601 E4.07214
G1 X-3.565 Y7.356 E4.11015
G1 X-4.078 Y7.084 E4.14636
G1 X-4.582 Y6.769 E4.18342
G1 X-5.06 Y6.418 E4.22041
G1 X-5.534 Y6.016 E4.25916
G1 X-5.931 Y5.627 E4.29383
G1 X-6.333 Y5.17 E4.33178
G1 X-6.683 Y4.708 E4.36793
G1 X-6.996 Y4.226 E4.40377
G1 X-7.288 Y3.699 E4.44134
G1 X-7.543 Y3.15 E4.47909
G1 X-7.743 Y2.621 E4.51436
G1 X-7.921 Y2.019 E4.55351
G1 X-8.045 Y1.45 E4.58983
G1 X-8.129 Y0.883 E4.62557
G1 X-8.169 Y0.322 E4.66065
G1 X-8.169 Y-.322 E4.70081
G1 X-8.129 Y-.881 E4.73576
G1 X-8.042 Y-1.466 E4.77264
G1 X-7.921 Y-2.019 E4.80795
G1 X-7.737 Y-2.636 E4.8481
G1 X-7.543 Y-3.15 E4.88236
G1 X-7.286 Y-3.702 E4.92033
G1 X-6.99 Y-4.238 E4.95852
G1 X-6.68 Y-4.712 E4.99384
G1 X-6.317 Y-5.191 E5.03132
G1 X-5.935 Y-5.623 E5.06728
G1 X-5.534 Y-6.016 E5.1023
G1 X-5.057 Y-6.42 E5.14128
G1 X-4.577 Y-6.772 E5.1784
G1 X-4.078 Y-7.084 E5.2151
G1 X-3.57 Y-7.353 E5.25095
G1 X-3.004 Y-7.602 E5.28951
G1 X-2.496 Y-7.784 E5.32316
G1 X-1.889 Y-7.954 E5.36247
G1 X-1.326 Y-8.066 E5.39827
G1 X-.757 Y-8.138 E5.43404
G1 X-.132 Y-8.173 E5.47308
G1 X0.441 Y-8.162 E5.50882
G1 X1.023 Y-8.109 E5.54526
G1 X1.625 Y-8.011 E5.5833
G1 X2.202 Y-7.872 E5.62031
G1 X2.744 Y-7.701 E5.65575
G1 X3.286 Y-7.486 E5.69212
G1 X3.808 Y-7.232 E5.72832
G1 X4.363 Y-6.912 E5.76827
G0 F3300 X4.37 Y-6.666
G1 F1800 X1.008 Y-6.666 E5.97794
G0 F3300 X0.00 Y-6.748
G1 F1800 X0.00 Y-7.97 E6.05414
G0 F3300 X-1.063 Y-6.666
G1 F1800 X-4.368 Y-6.666 E6.26025
G1 F6600 E4.26025
G0 F3300 X-6.666 Y-4.369
G1 F6600 E6.26025
G1 F1800 X-6.666 Y-1.041 E6.46779
G0 F3300 X-6.749 Y0.00
G1 F1800 X-7.969 Y0.00 E6.54388
G0 F3300 X-6.666 Y1.084
G1 F1800 X-6.666 Y4.368 E6.74868
G1 F6600 E4.74868
G0 F3300 X-4.369 Y6.666
G1 F6600 E6.74868
G1 F1800 X-1.065 Y6.666 E6.95472
G0 F3300 X0.00 Y6.75
G1 F1800 X0.00 Y7.971 E7.03087
G0 F3300 X1.066 Y6.666
G1 F1800 X4.369 Y6.666 E7.23685
G1 F6600 E5.23685
G0 F3300 X6.666 Y4.373
G1 F6600 E7.23685
G1 F1800 X6.666 Y1.038 E7.44483
G0 F3300 X6.751 Y0.00
G1 F1800 X7.974 Y0.00 E7.5211
G0 F3300 X6.666 Y-1.093
G1 F1800 X6.666 Y-4.374 E7.72571
G0 F3300 X7.476 Y-4.874
;TYPE:WALL-OUTER
G1 F1800 X7.105 Y-5.4 E7.76586
G1 X6.697 Y-5.899 E7.80605
G1 X6.253 Y-6.367 E7.84628
G1 X5.778 Y-6.802 E7.88645
G1 X5.272 Y-7.201 E7.92664
G1 X4.738 Y-7.563 E7.96687
G1 X4.18 Y-7.885 E8.00704
G1 X3.6 Y-8.166 E8.04724
G1 X3.001 Y-8.405 E8.08746
G1 X2.387 Y-8.599 E8.12761
G1 X1.76 Y-8.749 E8.16782
G1 X1.125 Y-8.853 E8.20794
G1 X0.483 Y-8.912 E8.24815
G1 X-.161 Y-8.923 E8.28832
G1 X-.805 Y-8.888 E8.32854
G1 X-1.443 Y-8.807 E8.36865
G1 X-2.075 Y-8.68 E8.40885
G1 X-2.697 Y-8.507 E8.44911
G1 X-3.303 Y-8.29 E8.48925
G1 X-3.893 Y-8.031 E8.52943
G1 X-4.462 Y-7.729 E8.56961
G1 X-5.008 Y-7.387 E8.60978
G1 X-5.528 Y-7.006 E8.64999
G1 X-6.02 Y-6.589 E8.69021
G1 X-6.48 Y-6.137 E8.73042
G1 X-6.906 Y-5.654 E8.77059
G1 X-7.295 Y-5.141 E8.81074
G1 X-7.647 Y-4.601 E8.85094
G1 X-7.959 Y-4.037 E8.89113
G1 X-8.23 Y-3.452 E8.93134
G1 X-8.457 Y-2.849 E8.97152
G1 X-8.641 Y-2.232 E9.01167
G1 X-8.779 Y-1.602 E9.05189
G1 X-8.873 Y-.964 E9.09211
G1 X-8.919 Y-.322 E9.13225
G1 X-8.919 Y0.322 E9.17241
G1 X-8.873 Y0.964 E9.21255
G1 X-8.779 Y1.602 E9.25277
G1 X-8.641 Y2.232 E9.29299
G1 X-8.457 Y2.849 E9.33314
G1 X-8.23 Y3.452 E9.37332
G1 X-7.959 Y4.037 E9.41353
G1 X-7.647 Y4.601 E9.45372
G1 X-7.295 Y5.141 E9.49392
G1 X-6.906 Y5.654 E9.53407
G1 X-6.48 Y6.137 E9.57423
G1 X-6.02 Y6.589 E9.61445
G1 X-5.528 Y7.006 E9.65467
G1 X-5.008 Y7.387 E9.69487
G1 X-4.462 Y7.729 E9.73505
G1 X-3.893 Y8.031 E9.77523
G1 X-3.303 Y8.29 E9.81541
G1 X-2.697 Y8.507 E9.85555
G1 X-2.075 Y8.68 E9.89581
G1 X-1.443 Y8.807 E9.93601
G1 X-.805 Y8.888 E9.97612
G1 X-.161 Y8.923 E10.01634
G1 X0.483 Y8.912 E10.05651
G1 X1.125 Y8.853 E10.09671
G1 X1.76 Y8.749 E10.13684
G1 X2.387 Y8.599 E10.17705
G1 X3.001 Y8.405 E10.2172
G1 X3.6 Y8.166 E10.25742
G1 X4.18 Y7.885 E10.29761
G1 X4.738 Y7.563 E10.33779
G1 X5.272 Y7.201 E10.37802
G1 X5.778 Y6.802 E10.41821
G1 X6.253 Y6.367 E10.45838
G1 X6.697 Y5.899 E10.49861
G1 X7.105 Y5.4 E10.5388
G1 X7.476 Y4.874 E10.57894
G1 X7.808 Y4.322 E10.61912
G1 X8.1 Y3.747 E10.65933
G1 X8.349 Y3.152 E10.69956
G1 X8.555 Y2.542 E10.73971
G1 X8.716 Y1.918 E10.7799
G1 X8.832 Y1.284 E10.82009
G1 X8.902 Y0.643 E10.8603
G1 X8.925 Y0.00 E10.90043
G1 X8.902 Y-.643 E10.94055
G1 X8.832 Y-1.284 E10.98077
G1 X8.716 Y-1.918 E11.02096
G1 X8.555 Y-2.542 E11.06115
G1 X8.349 Y-3.152 E11.1013
G1 X8.1 Y-3.747 E11.14153
G1 X7.808 Y-4.322 E11.18174
G1 X7.476 Y-4.874 E11.22191
G0 F3300 X7.332 Y-5.078
G0 X8.04 Y-5.512
G1 F1800 X8.4 Y-4.949 E11.26359
G1 X8.704 Y-4.393 E11.30311
G1 X8.984 Y-3.785 E11.34485
G1 X9.211 Y-3.193 E11.38439
G1 X9.408 Y-2.554 E11.42609
G1 X9.554 Y-1.937 E11.46563
G1 X9.664 Y-1.277 E11.50736
G1 X9.728 Y-.628 E11.54803
G1 X9.75 Y0.014 E11.58809
G1 X9.727 Y0.656 E11.62815
G1 X9.659 Y1.318 E11.66965
G1 X9.553 Y1.946 E11.70937
G1 X9.401 Y2.58 E11.75003
G1 X9.203 Y3.216 E11.79157
G1 X8.973 Y3.81 E11.83129
G1 X8.692 Y4.414 E11.87284
G1 X8.382 Y4.981 E11.91314
G1 X8.035 Y5.521 E11.95317
G1 X7.647 Y6.045 E11.99383
G1 X7.219 Y6.55 E12.03511
G1 X6.763 Y7.021 E12.07599
G1 X6.283 Y7.454 E12.11631
G1 X5.769 Y7.859 E12.15712
G1 X5.235 Y8.224 E12.19745
G1 X4.671 Y8.557 E12.2383
G1 X4.098 Y8.845 E12.27829
G1 X3.489 Y9.104 E12.31956
G1 X2.876 Y9.316 E12.36001
G1 X2.247 Y9.487 E12.40066
G1 X1.613 Y9.614 E12.44099
G1 X0.953 Y9.702 E12.48251
G1 X0.319 Y9.744 E12.52214
G1 X-.345 Y9.743 E12.56354
G1 X-.98 Y9.699 E12.60324
G1 X-1.638 Y9.61 E12.64465
G1 X-2.275 Y9.479 E12.6852
G1 X-2.901 Y9.307 E12.72569
G1 X-3.514 Y9.094 E12.76616
G1 X-4.115 Y8.837 E12.80692
G1 X-4.693 Y8.544 E12.84734
G1 X-5.263 Y8.205 E12.88869
G1 X-5.791 Y7.843 E12.92862
G1 X-6.304 Y7.436 E12.96946
G1 X-6.782 Y7.003 E13.00968
G1 X-7.245 Y6.523 E13.05127
G1 X-7.664 Y6.025 E13.09185
G1 X-8.04 Y5.512 E13.13152
G1 X-8.4 Y4.949 E13.17319
G1 X-8.705 Y4.391 E13.21285
G1 X-8.984 Y3.785 E13.25446
G1 X-9.212 Y3.191 E13.29413
G1 X-9.408 Y2.554 E13.3357
G1 X-9.554 Y1.937 E13.37524
G1 X-9.664 Y1.277 E13.41696
G1 X-9.728 Y0.628 E13.45763
G1 X-9.75 Y-0.014 E13.4977
G1 X-9.727 Y-.656 E13.53776
G1 X-9.659 Y-1.32 E13.57938
G1 X-9.553 Y-1.946 E13.61898
G1 X-9.401 Y-2.58 E13.65964
G1 X-9.202 Y-3.219 E13.70137
G1 X-8.973 Y-3.81 E13.7409
G1 X-8.691 Y-4.417 E13.78264
G1 X-8.382 Y-4.981 E13.82275
G1 X-8.035 Y-5.521 E13.86277
G1 X-7.647 Y-6.045 E13.90344
G1 X-7.219 Y-6.55 E13.94472
G1 X-6.761 Y-7.023 E13.98578
G1 X-6.283 Y-7.454 E14.02592
G1 X-5.769 Y-7.859 E14.06673
G1 X-5.235 Y-8.224 E14.10706
G1 X-4.671 Y-8.557 E14.14791
G1 X-4.098 Y-8.845 E14.1879
G1 X-3.489 Y-9.104 E14.22917
G1 X-2.876 Y-9.316 E14.26962
G1 X-2.247 Y-9.487 E14.31027
G1 X-1.613 Y-9.614 E14.3506
G1 X-.953 Y-9.702 E14.39212
G1 X-.319 Y-9.744 E14.43175
G1 X0.345 Y-9.743 E14.47315
G1 X0.98 Y-9.699 E14.51285
G1 X1.638 Y-9.61 E14.55426
G1 X2.275 Y-9.479 E14.59481
G1 X2.901 Y-9.307 E14.6353
G1 X3.514 Y-9.094 E14.67577
G1 X4.115 Y-8.837 E14.71653
G1 X4.693 Y-8.544 E14.75695
G1 X5.263 Y-8.205 E14.7983
G1 X5.791 Y-7.843 E14.83823
G1 X6.304 Y-7.436 E14.87907
G1 X6.781 Y-7.004 E14.9192
G1 X7.245 Y-6.523 E14.96088
G1 X7.664 Y-6.025 E15.00146
G1 X8.04 Y-5.512 E15.04113
G0 F3300 X8.174 Y-5.302
G0 X8.164 Y-4.916
;TYPE:SKIN
G1 F1800 X4.927 Y-8.153 E15.18387
G0 F3300 X3.92 Y-8.453
G1 F1800 X3.301 Y-8.719 E15.21656
G1 X2.758 Y-8.907 E15.24451
G1 X2.267 Y-9.046 E15.26921
G1 X1.81 Y-9.149 E15.29223
G1 X1.382 Y-9.223 E15.31368
G1 X0.973 Y-9.278 E15.33365
G1 X0.588 Y-9.31 E15.35268
G1 X0.218 Y-9.326 E15.37093
G1 X-.138 Y-9.329 E15.38834
G1 X-.479 Y-9.317 E15.40519
G1 X-.81 Y-9.295 E15.42149
G1 X-1.129 Y-9.261 E15.43734
G1 X-1.441 Y-9.219 E15.45281
G1 X-1.741 Y-9.166 E15.46782
G1 X-2.036 Y-9.107 E15.48264
G1 X-2.321 Y-9.039 E15.49707
G1 X-2.598 Y-8.962 E15.5112
G1 X-2.869 Y-8.88 E15.52511
G1 X-3.132 Y-8.789 E15.53886
G1 X-3.389 Y-8.693 E15.55238
G1 X-3.64 Y-8.59 E15.56568
G1 X-3.886 Y-8.483 E15.57882
G1 X-4.127 Y-8.369 E15.59186
G1 X-4.361 Y-8.25 E15.60469
G1 X-4.59 Y-8.125 E15.61752
G1 X-4.813 Y-7.995 E15.63014
G1 X-5.031 Y-7.859 E15.64279
G1 X-5.244 Y-7.719 E15.65526
G1 X-5.452 Y-7.573 E15.66765
G1 X-5.654 Y-7.422 E15.68007
G1 X-5.853 Y-7.268 E15.69238
G1 X-6.047 Y-7.108 E15.70474
G1 X-6.235 Y-6.942 E15.71709
G1 X-6.419 Y-6.773 E15.72931
G1 X-6.598 Y-6.598 E15.74164
G1 X-6.773 Y-6.42 E15.75387
G1 X-6.942 Y-6.235 E15.76619
G1 X-7.106 Y-6.046 E15.77852
G1 X-7.268 Y-5.854 E15.79083
G1 X-7.422 Y-5.654 E15.80323
G1 X-7.573 Y-5.451 E15.8156
G1 X-7.719 Y-5.244 E15.82805
G1 X-7.858 Y-5.03 E15.84066
G1 X-7.996 Y-4.814 E15.85332
G1 X-8.124 Y-4.589 E15.8661
G1 X-8.25 Y-4.361 E15.879
G1 X-8.37 Y-4.127 E15.89202
G1 X-8.482 Y-3.886 E15.90511
G1 X-8.593 Y-3.643 E15.91831
G1 X-8.692 Y-3.389 E15.93171
G1 X-8.79 Y-3.133 E15.94525
G1 X-8.878 Y-2.868 E15.95893
G1 X-8.961 Y-2.597 E15.9729
G1 X-9.038 Y-2.321 E15.98708
G1 X-9.104 Y-2.033 E16.00157
G1 X-9.169 Y-1.745 E16.01626
G1 X-9.218 Y-1.439 E16.03137
G1 X-9.265 Y-1.133 E16.04674
G1 X-9.293 Y-.808 E16.06253
G1 X-9.32 Y-.481 E16.07886
G1 X-9.327 Y-.135 E16.09569
G1 X-9.329 Y0.215 E16.1132
G1 X-9.31 Y0.589 E16.1315
G1 X-9.277 Y0.975 E16.15054
G1 X-9.227 Y1.378 E16.1705
G1 X-9.147 Y1.812 E16.1918
G1 X-9.044 Y2.268 E16.21483
G1 X-8.906 Y2.759 E16.24009
G1 X-8.717 Y3.302 E16.26841
G1 X-8.446 Y3.926 E16.30133
G1 X-8.031 Y4.696 E16.34356
G0 F3300 X-8.163 Y4.917
G1 F1800 X-4.929 Y8.152 E16.48619
G0 F3300 X-3.924 Y8.449
G1 F1800 X-3.305 Y8.714 E16.51936
G1 X-2.764 Y8.902 E16.54765
G1 X-2.269 Y9.044 E16.57283
G1 X-1.807 Y9.152 E16.59585
G1 X-1.382 Y9.223 E16.61718
G1 X-.977 Y9.275 E16.6372
G1 X-.585 Y9.313 E16.65631
G1 X-.22 Y9.324 E16.67448
G1 X0.139 Y9.33 E16.69194
G1 X0.478 Y9.316 E16.70879
G1 X0.81 Y9.295 E16.72509
G1 X1.128 Y9.26 E16.74093
G1 X1.442 Y9.22 E16.75633
G1 X1.741 Y9.165 E16.77138
G1 X2.037 Y9.108 E16.78612
G1 X2.319 Y9.036 E16.80061
G1 X2.601 Y8.965 E16.81472
G1 X2.868 Y8.879 E16.82861
G1 X3.133 Y8.79 E16.84234
G1 X3.39 Y8.693 E16.85588
G1 X3.64 Y8.59 E16.86916
G1 X3.888 Y8.484 E16.88235
G1 X4.125 Y8.367 E16.89537
G1 X4.362 Y8.251 E16.90824
G1 X4.589 Y8.124 E16.92102
G1 X4.812 Y7.994 E16.93371
G1 X5.032 Y7.861 E16.94624
G1 X5.242 Y7.717 E16.95876
G1 X5.453 Y7.574 E16.97125
G1 X5.655 Y7.423 E16.98361
G1 X5.852 Y7.266 E16.99596
G1 X6.048 Y7.109 E17.00818
G1 X6.234 Y6.941 E17.02043
G1 X6.419 Y6.772 E17.03274
G1 X6.599 Y6.599 E17.04501
G1 X6.771 Y6.418 E17.05731
G1 X6.943 Y6.236 E17.06965
G1 X7.105 Y6.045 E17.08193
G1 X7.266 Y5.852 E17.09434
G1 X7.423 Y5.655 E17.10678
G1 X7.571 Y5.449 E17.11922
G1 X7.719 Y5.244 E17.1318
G1 X7.859 Y5.03 E17.14446
G1 X7.994 Y4.812 E17.15716
G1 X8.126 Y4.59 E17.16998
G1 X8.249 Y4.359 E17.18291
G1 X8.37 Y4.127 E17.19596
G1 X8.483 Y3.887 E17.209
G1 X8.591 Y3.641 E17.2222
G1 X8.694 Y3.391 E17.23549
G1 X8.788 Y3.131 E17.249
G1 X8.879 Y2.869 E17.26274
G1 X8.961 Y2.597 E17.27663
G1 X9.038 Y2.321 E17.29082
G1 X9.106 Y2.035 E17.3053
G1 X9.167 Y1.742 E17.32008
G1 X9.219 Y1.44 E17.33518
G1 X9.262 Y1.13 E17.35067
G1 X9.295 Y0.81 E17.36648
G1 X9.318 Y0.479 E17.38279
G1 X9.33 Y0.137 E17.39969
G1 X9.328 Y-.217 E17.41713
G1 X9.31 Y-.588 E17.43543
G1 X9.277 Y-.975 E17.45457
G1 X9.224 Y-1.382 E17.47479
G1 X9.149 Y-1.81 E17.49609
G1 X9.048 Y-2.264 E17.51888
G1 X8.906 Y-2.76 E17.54411
G1 X8.714 Y-3.305 E17.57236
G1 X8.448 Y-3.925 E17.60535
G1 X8.018 Y-4.708 E17.6478
G0 F3300 X7.232 Y-6.202
G1 F1800 X6.164 Y-7.27 E17.69489
G0 F3300 X5.256 Y-7.471
G1 F1800 X4.15 Y-8.577 E17.74366
G1 F6600 E15.74366
G0 F3300 X-5.257 Y7.47
G1 F6600 E17.74366
G1 F1800 X-4.15 Y8.577 E17.79248
G1 F6600 E15.79248
G0 F3300 X-6.164 Y7.27
G1 F6600 E17.79248
G1 F1800 X-7.232 Y6.202 E17.83957
G1 F6600 E15.83957
G0 F3300 X-12.038 Y2.596
;TYPE:WALL-INNER
G1 F6600 E17.83957
G1 F1800 X-12.143 Y2.731 E17.85024
G1 X-12.262 Y2.862 E17.86128
G1 X-12.332 Y2.94 E17.86781
G1 X-12.503 Y3.108 E17.88276
G1 X-12.524 Y3.129 E17.88461
G1 X-12.741 Y3.315 E17.90244
G1 X-12.781 Y3.345 E17.90556
G1 X-12.976 Y3.491 E17.92075
G1 X-13.064 Y3.547 E17.92725
G1 X-13.197 Y3.633 E17.93713
G1 X-13.359 Y3.724 E17.94872
G1 X-13.447 Y3.774 E17.95503
G1 X-13.671 Y3.88 E17.97048
G1 X-13.716 Y3.902 E17.97361
G1 X-13.954 Y3.996 E17.98957
G1 X-14.011 Y4.014 E17.99329
G1 X-14.237 Y4.087 E18.0081
G1 X-14.342 Y4.113 E18.01485
G1 X-14.499 Y4.152 E18.02494
G1 X-14.678 Y4.184 E18.03628
G1 X-14.79 Y4.205 E18.04338
G1 X-15.026 Y4.231 E18.05819
G1 X-15.059 Y4.235 E18.06026
G1 X-15.337 Y4.249 E18.07762
G1 X-15.392 Y4.248 E18.08105
G1 X-15.629 Y4.242 E18.09584
G1 X-15.735 Y4.234 E18.10247
G1 X-15.904 Y4.219 E18.11305
G1 X-16.078 Y4.193 E18.12402
G1 X-16.168 Y4.179 E18.1297
G1 X-16.419 Y4.122 E18.14575
G1 X-16.459 Y4.113 E18.14831
G1 X-16.713 Y4.04 E18.16479
G1 X-16.768 Y4.02 E18.16844
G1 X-16.992 Y3.938 E18.18332
G1 X-17.092 Y3.893 E18.19015
