;FLAVOR:Repetier
;TIME:2496
;Generated with Cura_SteamEngine 2.5.0
M190 S60
M104 S220
M109 S220
G28 ;Home
G1 Z15.0 F6000 ;Move the platform down 15mm
;Prime the extruder
G92 E0
G1 F200 E3
G92 E0
;LAYER_COUNT:484
;LAYER:0
M106 S255
G0 F3300 X4.402 Y-1.788 Z0.3
;TYPE:WALL-INNER
G1 F1550.2 X4.076 Y-2.44 E0.04546
G1 X3.656 Y-3.032 E0.09073
G1 X3.151 Y-3.556 E0.13611
G1 X2.571 Y-3.995 E0.18147
G1 X1.931 Y-4.341 E0.22684
G1 X1.245 Y-4.585 E0.27225
G1 X0.531 Y-4.72 E0.31757
G1 X-.194 Y-4.748 E0.36281
G1 X-.918 Y-4.661 E0.40829
G1 X-1.618 Y-4.467 E0.45359
G1 X-2.281 Y-4.168 E0.49894
G1 X-2.89 Y-3.77 E0.54432
G1 X-3.432 Y-3.284 E0.58971
G1 X-3.894 Y-2.722 E0.63508
G1 X-4.263 Y-2.095 E0.68045
G1 X-4.533 Y-1.42 E0.72579
G1 X-4.698 Y-.712 E0.77113
G1 X-4.751 Y0.014 E0.81652
G1 X-4.693 Y0.738 E0.86182
G1 X-4.526 Y1.446 E0.90718
G1 X-4.251 Y2.12 E0.95258
G1 X-3.879 Y2.744 E0.99789
G1 X-3.871 Y2.754 E0.99868
G1 X-3.448 Y3.263 E1.03996
G1 X-3.414 Y3.304 E1.04328
G1 X-2.868 Y3.787 E1.08874
G1 X-2.257 Y4.181 E1.13408
G1 X-1.593 Y4.476 E1.17939
G1 X-.892 Y4.665 E1.22467
G1 X-.169 Y4.749 E1.27006
G1 X0.558 Y4.718 E1.31544
G1 X1.271 Y4.578 E1.36075
G1 X1.956 Y4.331 E1.40616
G1 X1.981 Y4.318 E1.40792
G1 X2.563 Y3.997 E1.44937
G1 X2.594 Y3.98 E1.45157
G1 X3.171 Y3.538 E1.4969
G1 X3.674 Y3.012 E1.54229
G1 X4.091 Y2.417 E1.5876
G1 X4.412 Y1.763 E1.63303
G1 X4.629 Y1.069 E1.67838
G1 X4.738 Y0.35 E1.72373
G1 X4.736 Y-.377 E1.76907
G1 X4.623 Y-1.096 E1.81446
G1 X4.609 Y-1.142 E1.81746
G1 X4.408 Y-1.769 E1.85852
G1 X4.402 Y-1.788 E1.85976
G0 F3300 X4.847 Y-1.997
G1 F1550.2 X4.883 Y-1.921 E1.86495
G1 X5.085 Y-1.295 E1.90584
G1 X5.105 Y-1.188 E1.91257
G1 X5.207 Y-.649 E1.94678
G1 X5.221 Y-.408 E1.96183
G1 X5.248 Y0.014 E1.9882
G1 X5.224 Y0.381 E2.01114
G1 X5.205 Y0.668 E2.02908
G1 X5.11 Y1.162 E2.06045
G1 X5.082 Y1.307 E2.06966
G1 X4.883 Y1.917 E2.10967
G1 X4.874 Y1.942 E2.11132
G1 X4.86 Y1.973 E2.11343
G1 X4.592 Y2.539 E2.15249
G1 X4.503 Y2.679 E2.16283
G1 X4.243 Y3.087 E2.193
G1 X4.049 Y3.321 E2.21196
G1 X3.815 Y3.603 E2.23481
G1 X3.504 Y3.894 E2.26137
G1 X3.337 Y4.05 E2.27562
G1 X2.882 Y4.378 E2.3106
G1 X2.804 Y4.435 E2.31657
G1 X2.222 Y4.753 E2.35777
G1 X2.137 Y4.786 E2.36337
G1 X1.614 Y4.993 E2.39845
G1 X1.391 Y5.049 E2.41279
G1 X0.972 Y5.156 E2.43976
G1 X0.619 Y5.2 E2.46194
G1 X0.319 Y5.238 E2.4808
G1 X-.169 Y5.238 E2.51123
G1 X-.338 Y5.237 E2.52177
G1 X-.956 Y5.158 E2.56063
G1 X-.996 Y5.152 E2.56314
G1 X-1.016 Y5.147 E2.56442
G1 X-1.633 Y4.987 E2.60417
G1 X-1.773 Y4.932 E2.61355
G1 X-2.241 Y4.745 E2.64498
G1 X-2.492 Y4.606 E2.66288
G1 X-2.821 Y4.423 E2.68635
G1 X-3.154 Y4.181 E2.71202
G1 X-3.345 Y4.042 E2.72676
G1 X-3.749 Y3.661 E2.76139
G1 X-3.833 Y3.582 E2.76851
G1 X-4.253 Y3.072 E2.80955
G1 X-4.294 Y3.007 E2.81428
G1 X-4.601 Y2.522 E2.85007
G1 X-4.692 Y2.328 E2.86344
G1 X-4.883 Y1.921 E2.89148
G1 X-4.988 Y1.596 E2.91277
G1 X-5.085 Y1.295 E2.9325
G1 X-5.173 Y0.829 E2.96207
G1 X-5.207 Y0.649 E2.97349
G1 X-5.244 Y0.044 E3.01129
G1 X-5.248 Y-0.019 E3.01523
G1 X-5.205 Y-.666 E3.05567
G1 X-5.179 Y-.804 E3.06443
G1 X-5.08 Y-1.313 E3.09676
G1 X-4.996 Y-1.57 E3.11363
G1 X-4.875 Y-1.94 E3.1379
G1 X-4.704 Y-2.302 E3.16287
G1 X-4.592 Y-2.54 E3.17927
G1 X-4.309 Y-2.985 E3.21216
G1 X-4.24 Y-3.093 E3.22015
G1 X-3.819 Y-3.598 E3.26116
G1 X-3.771 Y-3.643 E3.26526
G1 X-3.337 Y-4.05 E3.30236
G1 X-3.177 Y-4.166 E3.31469
G1 X-2.804 Y-4.435 E3.34337
G1 X-2.514 Y-4.593 E3.36396
G1 X-2.222 Y-4.753 E3.38473
G1 X-1.797 Y-4.92 E3.4132
G1 X-1.614 Y-4.993 E3.42549
G1 X-1.039 Y-5.139 E3.46249
G1 X-.972 Y-5.156 E3.4668
G1 X-.319 Y-5.238 E3.50784
G1 X-.194 Y-5.238 E3.51564
G1 X0.338 Y-5.237 E3.54881
G1 X0.593 Y-5.205 E3.56484
G1 X0.996 Y-5.152 E3.59019
G1 X1.366 Y-5.056 E3.61403
G1 X1.633 Y-4.987 E3.63122
G1 X2.112 Y-4.797 E3.66336
G1 X2.241 Y-4.745 E3.67203
G1 X2.811 Y-4.429 E3.71268
G1 X2.821 Y-4.423 E3.71341
G1 X2.86 Y-4.395 E3.71638
G1 X3.343 Y-4.044 E3.75362
G1 X3.484 Y-3.911 E3.7657
G1 X3.833 Y-3.583 E3.79557
G1 X4.031 Y-3.342 E3.81502
G1 X4.253 Y-3.072 E3.83682
G1 X4.488 Y-2.7 E3.86426
G1 X4.601 Y-2.522 E3.87741
G1 X4.847 Y-1.997 E3.91357
G0 F3300 X5.348 Y-2.109
;TYPE:WALL-OUTER
G1 F1550.2 X5.57 Y-1.42 E3.95871
G1 X5.704 Y-.709 E4.00383
G1 X5.749 Y0.019 E4.04932
G1 X5.702 Y0.73 E4.09376
G1 X5.567 Y1.433 E4.1384
G1 X5.339 Y2.129 E4.18407
G1 X5.031 Y2.78 E4.22898
G1 X4.645 Y3.387 E4.27384
G1 X4.182 Y3.944 E4.31901
G1 X3.658 Y4.435 E4.3638
G1 X3.068 Y4.861 E4.40918
G1 X2.436 Y5.206 E4.45408
G1 X1.766 Y5.471 E4.49901
G1 X1.069 Y5.648 E4.54386
G1 X0.349 Y5.738 E4.58911
G1 X-.371 Y5.737 E4.63401
G1 X-1.089 Y5.644 E4.67916
G1 X-1.786 Y5.464 E4.72406
G1 X-2.455 Y5.197 E4.76898
G1 X-3.091 Y4.845 E4.81431
G1 X-3.668 Y4.425 E4.85882
G1 X-4.199 Y3.925 E4.9043
G1 X-4.66 Y3.365 E4.94953
G1 X-5.042 Y2.76 E4.99416
G1 X-5.348 Y2.109 E5.03901
G1 X-5.57 Y1.42 E5.08416
G1 X-5.704 Y0.709 E5.12928
G1 X-5.749 Y-0.019 E5.17477
G1 X-5.702 Y-.73 E5.2192
G1 X-5.566 Y-1.435 E5.26398
G1 X-5.339 Y-2.129 E5.30951
G1 X-5.031 Y-2.78 E5.35443
G1 X-4.645 Y-3.388 E5.39934
G1 X-4.182 Y-3.944 E5.44446
G1 X-3.658 Y-4.435 E5.48924
G1 X-3.068 Y-4.861 E5.53463
G1 X-2.436 Y-5.206 E5.57953
G1 X-1.766 Y-5.471 E5.62446
G1 X-1.069 Y-5.648 E5.66931
G1 X-.349 Y-5.738 E5.71456
G1 X0.371 Y-5.737 E5.75946
G1 X1.089 Y-5.644 E5.80461
G1 X1.786 Y-5.464 E5.8495
G1 X2.455 Y-5.197 E5.89442
G1 X3.091 Y-4.845 E5.93976
G1 X3.666 Y-4.427 E5.98409
G1 X4.199 Y-3.925 E6.02975
G1 X4.66 Y-3.365 E6.07498
G1 X5.042 Y-2.76 E6.11961
G1 X5.348 Y-2.109 E6.16446
G0 F3300 X5.424 Y-1.871
G0 X3.937 Y-1.599
G1 F1550.2 X3.646 Y-2.182 E6.2051
G1 X3.27 Y-2.712 E6.24562
G1 X2.818 Y-3.181 E6.28624
G1 X2.3 Y-3.573 E6.32676
G1 X1.727 Y-3.883 E6.36738
G1 X1.114 Y-4.101 E6.40796
G1 X0.475 Y-4.222 E6.44852
G1 X-.174 Y-4.247 E6.48902
G1 X-.821 Y-4.169 E6.52966
G1 X-1.447 Y-3.995 E6.57018
G1 X-2.04 Y-3.728 E6.61074
G1 X-2.585 Y-3.372 E6.65133
G1 X-3.07 Y-2.937 E6.69196
G1 X-3.483 Y-2.435 E6.7325
G1 X-3.813 Y-1.874 E6.77309
G1 X-4.055 Y-1.27 E6.81367
G1 X-4.202 Y-.637 E6.85419
G1 X-4.25 Y0.012 E6.89478
G1 X-4.198 Y0.66 E6.93532
G1 X-4.048 Y1.293 E6.97589
G1 X-3.802 Y1.896 E7.0165
G1 X-3.469 Y2.455 E7.05708
G1 X-3.054 Y2.955 E7.0976
G1 X-2.565 Y3.387 E7.13829
G1 X-2.019 Y3.74 E7.17884
G1 X-1.425 Y4.003 E7.21935
G1 X-.797 Y4.173 E7.25993
G1 X-.151 Y4.248 E7.30048
G1 X0.499 Y4.22 E7.34106
G1 X1.137 Y4.095 E7.3816
G1 X1.749 Y3.874 E7.42218
G1 X2.32 Y3.56 E7.46282
G1 X2.836 Y3.165 E7.50334
G1 X3.286 Y2.694 E7.54397
G1 X3.659 Y2.162 E7.58448
G1 X3.946 Y1.577 E7.62512
G1 X4.14 Y0.956 E7.66569
G1 X4.238 Y0.313 E7.70626
G1 X4.236 Y-.337 E7.74679
G1 X4.135 Y-.98 E7.78738
G1 X3.937 Y-1.599 E7.82791
G0 F3300 X3.826 Y-1.822
G1 F6600 E5.82791
G0 F3300 X-4.752 Y0.022
;TIME_ELAPSED:5.578213
;LAYER:1
M140 S60
G0 F4950 X-4.752 Y0.022 Z0.45
;TYPE:WALL-INNER
G1 F6600 E7.82791
G1 F1550.6 X-4.692 Y0.747 E7.8506
G1 X-4.522 Y1.455 E7.8733
G1 X-4.246 Y2.126 E7.89592
G1 X-3.873 Y2.751 E7.91862
G1 X-3.407 Y3.311 E7.94134
G1 X-2.861 Y3.791 E7.964
G1 X-2.249 Y4.185 E7.9867
G1 X-1.584 Y4.478 E8.00936
G1 X-.883 Y4.667 E8.032
G1 X-.159 Y4.748 E8.05471
G1 X0.567 Y4.716 E8.07737
G1 X1.279 Y4.576 E8.1
G1 X1.965 Y4.326 E8.12277
G1 X1.982 Y4.317 E8.12337
G1 X2.601 Y3.975 E8.14542
G1 X3.178 Y3.531 E8.16812
G1 X3.678 Y3.005 E8.19075
G1 X4.094 Y2.409 E8.21341
G1 X4.415 Y1.755 E8.23613
G1 X4.63 Y1.06 E8.25881
G1 X4.738 Y0.341 E8.28148
G1 X4.735 Y-.387 E8.30418
G1 X4.62 Y-1.103 E8.3268
G1 X4.609 Y-1.138 E8.32794
G1 X4.406 Y-1.771 E8.34867
G1 X4.398 Y-1.796 E8.34949
G1 X4.072 Y-2.447 E8.37219
G1 X3.65 Y-3.039 E8.39486
G1 X3.144 Y-3.561 E8.41753
G1 X2.563 Y-3.999 E8.44021
G1 X1.923 Y-4.343 E8.46287
G1 X1.236 Y-4.587 E8.4856
G1 X0.522 Y-4.721 E8.50825
G1 X-.205 Y-4.747 E8.53094
G1 X-.253 Y-4.742 E8.53244
G1 X-.907 Y-4.662 E8.55299
G1 X-.926 Y-4.659 E8.55359
G1 X-1.626 Y-4.463 E8.57625
G1 X-2.289 Y-4.163 E8.59894
G1 X-2.897 Y-3.764 E8.62162
G1 X-3.438 Y-3.277 E8.64432
G1 X-3.899 Y-2.714 E8.66701
G1 X-4.267 Y-2.086 E8.6897
G1 X-4.535 Y-1.412 E8.71232
G1 X-4.698 Y-.703 E8.735
G1 X-4.751 Y0.011 E8.75733
G1 X-4.752 Y0.022 E8.75767
G0 F4950 X-5.242 Y0.052
G1 F1550.6 X-5.247 Y-0.025 E8.76005
G1 X-5.203 Y-.675 E8.78036
G1 X-5.18 Y-.795 E8.78417
G1 X-5.08 Y-1.314 E8.80065
G1 X-4.998 Y-1.564 E8.80886
G1 X-4.87 Y-1.952 E8.8216
G1 X-4.707 Y-2.295 E8.83344
G1 X-4.59 Y-2.54 E8.8419
G1 X-4.313 Y-2.976 E8.85801
G1 X-4.235 Y-3.098 E8.86253
G1 X-3.818 Y-3.598 E8.88283
G1 X-3.775 Y-3.638 E8.88466
G1 X-3.331 Y-4.052 E8.90359
G1 X-3.183 Y-4.158 E8.90926
G1 X-2.788 Y-4.443 E8.92445
G1 X-2.522 Y-4.588 E8.9339
G1 X-2.223 Y-4.752 E8.94453
G1 X-1.804 Y-4.916 E8.95856
G1 X-1.6 Y-4.997 E8.96541
G1 X-1.046 Y-5.137 E8.98322
G1 X-.967 Y-5.157 E8.98574
G1 X-.314 Y-5.238 E9.00619
G1 X-.204 Y-5.238 E9.00959
G1 X0.343 Y-5.236 E9.02665
G1 X0.585 Y-5.205 E9.03426
G1 X1.002 Y-5.15 E9.04737
G1 X1.357 Y-5.058 E9.05881
G1 X1.639 Y-4.985 E9.06789
G1 X2.105 Y-4.799 E9.08354
G1 X2.246 Y-4.742 E9.08828
G1 X2.803 Y-4.434 E9.10813
G1 X2.827 Y-4.42 E9.10899
G1 X2.855 Y-4.4 E9.11006
G1 X3.359 Y-4.031 E9.12953
G1 X3.48 Y-3.917 E9.13472
G1 X3.834 Y-3.581 E9.14994
G1 X4.025 Y-3.349 E9.15931
G1 X4.251 Y-3.074 E9.17041
G1 X4.483 Y-2.706 E9.18397
G1 X4.61 Y-2.505 E9.19138
G1 X4.843 Y-2.004 E9.20861
G1 X4.881 Y-1.923 E9.21137
G1 X5.085 Y-1.291 E9.23202
G1 X5.103 Y-1.194 E9.23507
G1 X5.207 Y-.637 E9.25273
G1 X5.22 Y-.418 E9.25958
G1 X5.247 Y0.021 E9.27329
G1 X5.224 Y0.373 E9.28429
G1 X5.203 Y0.673 E9.29367
G1 X5.111 Y1.152 E9.30888
G1 X5.08 Y1.314 E9.31402
G1 X4.885 Y1.909 E9.33354
G1 X4.872 Y1.948 E9.33482
G1 X4.863 Y1.966 E9.33545
G1 X4.592 Y2.537 E9.35515
G1 X4.507 Y2.671 E9.3601
G1 X4.235 Y3.098 E9.37589
G1 X4.053 Y3.316 E9.38474
G1 X3.818 Y3.598 E9.39619
G1 X3.509 Y3.886 E9.40936
G1 X3.331 Y4.052 E9.41695
G1 X2.888 Y4.371 E9.43397
G1 X2.788 Y4.443 E9.43781
G1 X2.223 Y4.752 E9.45789
G1 X2.145 Y4.782 E9.46046
G1 X1.6 Y4.997 E9.47873
G1 X1.399 Y5.048 E9.4852
G1 X0.967 Y5.157 E9.49909
G1 X0.628 Y5.199 E9.50974
G1 X0.314 Y5.238 E9.51961
G1 X-.16 Y5.237 E9.53439
G1 X-.343 Y5.236 E9.5401
G1 X-.947 Y5.158 E9.55909
G1 X-1.002 Y5.15 E9.56081
G1 X-1.639 Y4.985 E9.58133
G1 X-1.766 Y4.935 E9.58559
G1 X-2.246 Y4.742 E9.60172
G1 X-2.484 Y4.611 E9.61019
G1 X-2.827 Y4.42 E9.62243
G1 X-3.148 Y4.186 E9.63482
G1 X-3.359 Y4.031 E9.64298
G1 X-3.743 Y3.667 E9.65948
G1 X-3.834 Y3.581 E9.66338
G1 X-4.256 Y3.069 E9.68407
G1 X-4.29 Y3.014 E9.68609
G1 X-4.608 Y2.509 E9.7047
G1 X-4.69 Y2.333 E9.71075
G1 X-4.882 Y1.921 E9.72492
G1 X-4.984 Y1.604 E9.73531
G1 X-5.085 Y1.291 E9.74556
G1 X-5.169 Y0.837 E9.75996
G1 X-5.207 Y0.637 E9.76631
G1 X-5.242 Y0.052 E9.78458
G0 F4950 X-5.748 Y-0.025
;TYPE:WALL-OUTER
G1 F1550.6 X-5.7 Y-.739 E9.80689
G1 X-5.565 Y-1.439 E9.82912
G1 X-5.336 Y-2.136 E9.852
G1 X-5.027 Y-2.785 E9.87441
G1 X-4.64 Y-3.393 E9.89689
G1 X-4.18 Y-3.945 E9.91929
G1 X-3.646 Y-4.442 E9.94204
G1 X-3.061 Y-4.864 E9.96453
G1 X-2.436 Y-5.205 E9.98673
G1 X-1.751 Y-5.475 E10.00969
G1 X-1.062 Y-5.649 E10.03185
G1 X-.342 Y-5.738 E10.05447
G1 X0.378 Y-5.736 E10.07692
G1 X1.095 Y-5.642 E10.09947
G1 X1.795 Y-5.461 E10.12201
G1 X2.462 Y-5.194 E10.14441
G1 X3.098 Y-4.841 E10.1671
G1 X3.674 Y-4.42 E10.18934
G1 X4.204 Y-3.919 E10.21208
G1 X4.658 Y-3.367 E10.23437
G1 X5.048 Y-2.748 E10.25718
G1 X5.349 Y-2.102 E10.2794
G1 X5.572 Y-1.412 E10.30202
G1 X5.704 Y-.703 E10.3245
G1 X5.748 Y0.025 E10.34724
G1 X5.7 Y0.739 E10.36956
G1 X5.565 Y1.439 E10.39179
G1 X5.336 Y2.136 E10.41466
G1 X5.027 Y2.785 E10.43708
G1 X4.64 Y3.393 E10.45955
G1 X4.18 Y3.945 E10.48195
G1 X3.646 Y4.442 E10.5047
G1 X3.061 Y4.864 E10.52719
G1 X2.436 Y5.205 E10.54939
G1 X1.751 Y5.475 E10.57235
G1 X1.062 Y5.649 E10.59451
G1 X0.342 Y5.738 E10.61713
G1 X-.378 Y5.736 E10.63958
G1 X-1.095 Y5.642 E10.66213
G1 X-1.795 Y5.461 E10.68468
G1 X-2.462 Y5.194 E10.70708
G1 X-3.098 Y4.841 E10.72976
G1 X-3.674 Y4.42 E10.75201
G1 X-4.204 Y3.919 E10.77475
G1 X-4.66 Y3.365 E10.79712
G1 X-5.048 Y2.748 E10.81985
G1 X-5.349 Y2.102 E10.84207
G1 X-5.572 Y1.412 E10.86468
G1 X-5.704 Y0.703 E10.88717
G1 X-5.748 Y-0.025 E10.90991
G0 F4950 X-5.732 Y-.274
G0 X-4.25 Y0.02
G1 F1550.6 X-4.197 Y0.668 E10.93018
G1 X-4.045 Y1.301 E10.95048
G1 X-3.798 Y1.902 E10.97074
G1 X-3.464 Y2.461 E10.99105
G1 X-3.048 Y2.961 E11.01133
G1 X-2.559 Y3.391 E11.03163
G1 X-2.012 Y3.743 E11.05192
G1 X-1.417 Y4.005 E11.07219
G1 X-.789 Y4.174 E11.09247
G1 X-.142 Y4.247 E11.11277
G1 X0.507 Y4.218 E11.13303
G1 X1.144 Y4.093 E11.15327
G1 X1.757 Y3.869 E11.17362
G1 X2.326 Y3.556 E11.19387
G1 X2.842 Y3.158 E11.21419
G1 X3.29 Y2.688 E11.23443
G1 X3.662 Y2.154 E11.25473
G1 X3.949 Y1.57 E11.27502
G1 X4.141 Y0.948 E11.29531
G1 X4.238 Y0.305 E11.31559
G1 X4.235 Y-.346 E11.33589
G1 X4.132 Y-.987 E11.35613
G1 X3.934 Y-1.607 E11.37643
G1 X3.642 Y-2.188 E11.3967
G1 X3.265 Y-2.718 E11.41698
G1 X2.812 Y-3.185 E11.43727
G1 X2.292 Y-3.577 E11.45758
G1 X1.72 Y-3.885 E11.47783
G1 X1.105 Y-4.103 E11.49818
G1 X0.467 Y-4.223 E11.51842
G1 X-.183 Y-4.246 E11.5387
G1 X-.828 Y-4.167 E11.55896
G1 X-1.455 Y-3.992 E11.57926
G1 X-2.047 Y-3.724 E11.59952
G1 X-2.591 Y-3.367 E11.61981
G1 X-3.075 Y-2.931 E11.64013
G1 X-3.487 Y-2.428 E11.6604
G1 X-3.816 Y-1.866 E11.68071
G1 X-4.056 Y-1.263 E11.70094
G1 X-4.202 Y-.628 E11.72126
G1 X-4.25 Y0.02 E11.74152
G0 F4950 X-4.23 Y0.269
G1 F6600 E9.74152
G0 F4950 X-3.401 Y3.316
;TIME_ELAPSED:10.730851
;LAYER:2
G0 F6600 X-3.401 Y3.316 Z0.6
;TYPE:WALL-INNER
G1 F6600 E11.74152
G1 F1523.3 X-2.854 Y3.796 E11.76421
G1 X-2.241 Y4.188 E11.7869
G1 X-1.575 Y4.481 E11.80959
G1 X-.873 Y4.668 E11.83224
G1 X-.151 Y4.748 E11.85489
G1 X0.575 Y4.715 E11.87755
G1 X1.288 Y4.572 E11.90023
G1 X1.971 Y4.321 E11.92292
G1 X2.608 Y3.97 E11.9456
G1 X3.184 Y3.525 E11.96829
G1 X3.683 Y2.997 E11.99094
G1 X4.098 Y2.401 E12.01359
G1 X4.418 Y1.746 E12.03632
G1 X4.631 Y1.051 E12.05899
G1 X4.738 Y0.334 E12.08159
G1 X4.734 Y-.395 E12.10432
G1 X4.617 Y-1.113 E12.12701
G1 X4.612 Y-1.13 E12.12756
G1 X4.394 Y-1.804 E12.14965
G1 X4.067 Y-2.455 E12.17236
G1 X3.643 Y-3.046 E12.19504
G1 X3.137 Y-3.566 E12.21767
G1 X2.556 Y-4.004 E12.24036
G1 X1.914 Y-4.347 E12.26305
G1 X1.228 Y-4.588 E12.28572
G1 X0.514 Y-4.721 E12.30837
G1 X-.212 Y-4.746 E12.33102
G1 X-.245 Y-4.742 E12.33206
G1 X-.892 Y-4.663 E12.35238
G1 X-.935 Y-4.657 E12.35374
G1 X-1.634 Y-4.459 E12.37639
G1 X-2.295 Y-4.159 E12.39902
G1 X-2.904 Y-3.758 E12.42176
G1 X-3.444 Y-3.272 E12.44441
G1 X-3.903 Y-2.706 E12.46714
G1 X-4.27 Y-2.078 E12.48982
G1 X-4.537 Y-1.403 E12.51245
G1 X-4.699 Y-.695 E12.5351
G1 X-4.748 Y0.003 E12.55692
G1 X-4.75 Y0.031 E12.55779
G1 X-4.69 Y0.756 E12.58047
G1 X-4.518 Y1.463 E12.60316
G1 X-4.242 Y2.136 E12.62584
G1 X-3.866 Y2.757 E12.64848
G1 X-3.401 Y3.316 E12.67115
G0 F6600 X-3.738 Y3.672
G1 F1523.3 X-3.842 Y3.573 E12.67563
G1 X-4.256 Y3.069 E12.69597
G1 X-4.286 Y3.021 E12.69773
G1 X-4.61 Y2.503 E12.71678
G1 X-4.684 Y2.343 E12.72228
G1 X-4.888 Y1.906 E12.73732
G1 X-4.982 Y1.612 E12.74694
G1 X-5.087 Y1.284 E12.75768
G1 X-5.169 Y0.846 E12.77158
G1 X-5.208 Y0.637 E12.77821
G1 X-5.24 Y0.059 E12.79626
G1 X-5.246 Y-0.033 E12.7991
G1 X-5.202 Y-.679 E12.81929
G1 X-5.181 Y-.787 E12.82272
G1 X-5.076 Y-1.326 E12.83985
G1 X-5.001 Y-1.555 E12.84736
G1 X-4.871 Y-1.946 E12.86021
G1 X-4.709 Y-2.286 E12.87195
G1 X-4.583 Y-2.55 E12.88107
G1 X-4.315 Y-2.969 E12.89658
G1 X-4.229 Y-3.103 E12.90155
G1 X-3.825 Y-3.588 E12.92123
G1 X-3.805 Y-3.612 E12.9222
G1 X-3.782 Y-3.633 E12.92317
G1 X-3.323 Y-4.06 E12.94272
G1 X-3.19 Y-4.155 E12.94781
G1 X-2.796 Y-4.438 E12.96294
G1 X-2.527 Y-4.584 E12.97248
G1 X-2.207 Y-4.759 E12.98385
G1 X-1.812 Y-4.914 E12.99709
G1 X-1.604 Y-4.996 E13.00406
G1 X-1.053 Y-5.133 E13.02176
G1 X-.953 Y-5.158 E13.02494
G1 X-.307 Y-5.238 E13.04517
G1 X-.21 Y-5.238 E13.04817
G1 X0.348 Y-5.235 E13.06557
G1 X0.577 Y-5.205 E13.07278
G1 X1.009 Y-5.148 E13.08636
G1 X1.35 Y-5.059 E13.09735
G1 X1.646 Y-4.982 E13.10689
G1 X2.096 Y-4.801 E13.12201
G1 X2.255 Y-4.737 E13.12736
G1 X2.796 Y-4.437 E13.14665
G1 X2.827 Y-4.419 E13.14776
G1 X2.847 Y-4.404 E13.14854
G1 X3.366 Y-4.024 E13.1686
G1 X3.473 Y-3.923 E13.17318
G1 X3.842 Y-3.573 E13.18904
G1 X4.02 Y-3.356 E13.19779
G1 X4.256 Y-3.069 E13.20938
G1 X4.478 Y-2.713 E13.22246
