;FLAVOR:Repetier
;TIME:662
;Generated with Cura_SteamEngine 2.5.0
M190 S60
M104 S220
M109 S220
G28 ;Home
G1 Z15.0 F6000 ;Move the platform down 15mm
;Prime the extruder
G92 E0
G1 F200 E3
G92 E0
;LAYER_COUNT:139
;LAYER:0
M106 S255
G0 F3300 X-3.17 Y-1.297 Z0.3
;TYPE:WALL-OUTER
G1 F1012.3 X-3.281 Y-.979 E0.021
G1 X-3.361 Y-.654 E0.04188
G1 X-3.409 Y-.322 E0.0628
G1 X-3.424 Y0.014 E0.08377
G1 X-3.406 Y0.35 E0.10476
G1 X-3.355 Y0.682 E0.1257
G1 X-3.272 Y1.008 E0.14668
G1 X-3.158 Y1.324 E0.16763
G1 X-3.013 Y1.626 E0.18852
G1 X-2.839 Y1.914 E0.20951
G1 X-2.638 Y2.183 E0.23045
G1 X-2.411 Y2.432 E0.25146
G1 X-2.161 Y2.656 E0.2724
G1 X-1.89 Y2.855 E0.29336
G1 X-1.601 Y3.027 E0.31434
G1 X-1.297 Y3.17 E0.33529
G1 X-.979 Y3.281 E0.35629
G1 X-.654 Y3.361 E0.37716
G1 X-.322 Y3.409 E0.39808
G1 X0.014 Y3.424 E0.41906
G1 X0.35 Y3.406 E0.44004
G1 X0.682 Y3.355 E0.46099
G1 X1.008 Y3.272 E0.48197
G1 X1.324 Y3.158 E0.50292
G1 X1.626 Y3.013 E0.52381
G1 X1.914 Y2.839 E0.54479
G1 X2.183 Y2.638 E0.56574
G1 X2.432 Y2.411 E0.58675
G1 X2.656 Y2.161 E0.60768
G1 X2.855 Y1.89 E0.62865
G1 X3.027 Y1.601 E0.64962
G1 X3.17 Y1.297 E0.67057
G1 X3.281 Y0.979 E0.69158
G1 X3.361 Y0.654 E0.71245
G1 X3.409 Y0.322 E0.73337
G1 X3.424 Y-0.014 E0.75435
G1 X3.406 Y-.35 E0.77533
G1 X3.355 Y-.682 E0.79628
G1 X3.272 Y-1.008 E0.81726
G1 X3.158 Y-1.324 E0.83821
G1 X3.013 Y-1.626 E0.8591
G1 X2.839 Y-1.914 E0.88008
G1 X2.638 Y-2.183 E0.90102
G1 X2.411 Y-2.432 E0.92204
G1 X2.161 Y-2.656 E0.94297
G1 X1.89 Y-2.855 E0.96394
G1 X1.601 Y-3.027 E0.98491
G1 X1.297 Y-3.17 E1.00586
G1 X0.979 Y-3.281 E1.02687
G1 X0.654 Y-3.361 E1.04774
G1 X0.321 Y-3.409 E1.06872
G1 X-0.014 Y-3.423 E1.08963
G1 X-.349 Y-3.406 E1.11055
G1 X-.682 Y-3.355 E1.13156
G1 X-1.008 Y-3.272 E1.15254
G1 X-1.324 Y-3.158 E1.17349
G1 X-1.626 Y-3.013 E1.19438
G1 X-1.914 Y-2.839 E1.21536
G1 X-2.183 Y-2.638 E1.2363
G1 X-2.432 Y-2.411 E1.25732
G1 X-2.656 Y-2.161 E1.27825
G1 X-2.855 Y-1.89 E1.29922
G1 X-3.027 Y-1.601 E1.32019
G1 X-3.17 Y-1.297 E1.34114
G0 F3300 X-3.252 Y-1.061
G0 X-3.817 Y-1.693
G1 F1012.3 X-3.664 Y-2.002 E1.36264
G1 X-3.482 Y-2.304 E1.38463
G1 X-3.277 Y-2.587 E1.40643
G1 X-3.052 Y-2.849 E1.42796
G1 X-2.809 Y-3.087 E1.44917
G1 X-2.529 Y-3.322 E1.47197
G1 X-2.246 Y-3.52 E1.49351
G1 X-1.954 Y-3.689 E1.51455
G1 X-1.637 Y-3.839 E1.53642
G1 X-1.297 Y-3.968 E1.5591
G1 X-.973 Y-4.06 E1.5801
G1 X-.633 Y-4.126 E1.6017
G1 X-.291 Y-4.164 E1.62316
G1 X0.059 Y-4.173 E1.645
G1 X0.409 Y-4.153 E1.66686
G1 X0.756 Y-4.103 E1.68872
G1 X1.1 Y-4.025 E1.71072
G1 X1.423 Y-3.922 E1.73186
G1 X1.757 Y-3.784 E1.7544
G1 X1.984 Y-3.673 E1.77016
G1 X2.283 Y-3.496 E1.79183
G1 X2.572 Y-3.289 E1.814
G1 X2.835 Y-3.065 E1.83554
G1 X3.079 Y-2.82 E1.8571
G1 X3.306 Y-2.551 E1.87905
G1 X3.504 Y-2.272 E1.90039
G1 X3.682 Y-1.967 E1.92241
G1 X3.838 Y-1.644 E1.94478
G1 X3.955 Y-1.338 E1.96521
G1 X4.055 Y-.992 E1.98767
G1 X4.124 Y-.654 E2.00919
G1 X4.163 Y-.317 E2.03034
G1 X4.174 Y0.038 E2.05249
G1 X4.156 Y0.389 E2.07441
G1 X4.108 Y0.739 E2.09644
G1 X4.036 Y1.064 E2.1172
G1 X3.927 Y1.414 E2.14006
G1 X3.799 Y1.726 E2.16109
G1 X3.64 Y2.039 E2.18299
G1 X3.458 Y2.334 E2.2046
G1 X3.245 Y2.623 E2.22699
G1 X3.078 Y2.82 E2.2431
G1 X2.834 Y3.065 E2.26466
G1 X2.571 Y3.288 E2.28616
G1 X2.287 Y3.492 E2.30797
G1 X1.987 Y3.67 E2.32972
G1 X1.673 Y3.824 E2.35153
G1 X1.344 Y3.954 E2.3736
G1 X1.015 Y4.05 E2.39497
G1 X0.671 Y4.12 E2.41686
G1 X0.33 Y4.162 E2.43829
G1 X-0.019 Y4.176 E2.46007
G1 X-.369 Y4.158 E2.48193
G1 X-.719 Y4.113 E2.50393
G1 X-1.051 Y4.04 E2.52513
G1 X-1.386 Y3.937 E2.54699
G1 X-1.705 Y3.809 E2.56842
G1 X-2.022 Y3.65 E2.59054
G1 X-2.321 Y3.47 E2.6123
G1 X-2.602 Y3.263 E2.63407
G1 X-2.872 Y3.029 E2.65635
G1 X-3.104 Y2.79 E2.67712
G1 X-3.336 Y2.509 E2.69985
G1 X-3.522 Y2.24 E2.72024
G1 X-3.7 Y1.931 E2.74248
G1 X-3.852 Y1.604 E2.76497
G1 X-3.969 Y1.289 E2.78593
G1 X-4.064 Y0.949 E2.80794
G1 X-4.116 Y0.693 E2.82423
G1 X-4.159 Y0.35 E2.84579
G1 X-4.175 Y-0.001 E2.8677
G1 X-4.16 Y-.352 E2.88961
G1 X-4.119 Y-.684 E2.91047
G1 X-4.042 Y-1.045 E2.93349
G1 X-3.945 Y-1.369 E2.95458
G1 X-3.817 Y-1.693 E2.97631
G0 F3300 X-3.706 Y-1.917
G0 X-3.418 Y-1.65
G1 F1012.3 X-3.295 Y-1.881 E2.98689
G1 X-3.162 Y-2.101 E2.99718
G1 X-3.014 Y-2.307 E3.0074
G1 X-2.854 Y-2.501 E3.01753
G1 X-2.685 Y-2.685 E3.0275
G1 X-2.501 Y-2.855 E3.03743
G1 X-2.307 Y-3.014 E3.04748
G1 X-2.1 Y-3.161 E3.05764
G1 X-1.881 Y-3.296 E3.06788
G1 X-1.649 Y-3.416 E3.07824
G1 X-1.404 Y-3.525 E3.08897
G1 X-1.143 Y-3.618 E3.10003
G1 X-.867 Y-3.695 E3.11147
G1 X-.569 Y-3.751 E3.12346
G1 X-.248 Y-3.783 E3.13621
G1 X0.099 Y-3.789 E3.15002
G1 X0.483 Y-3.759 E3.1653
G1 X0.923 Y-3.671 E3.18298
G1 X1.478 Y-3.47 E3.20603
G0 F3300 X1.759 Y-3.543
;TYPE:SKIN
G1 F1012.3 X3.54 Y-1.762 E3.28456
G0 F3300 X3.473 Y-1.475
G1 F1012.3 X3.671 Y-.924 E3.30771
G1 X3.76 Y-.481 E3.3258
G1 X3.79 Y-0.098 E3.34128
G1 X3.785 Y0.249 E3.35517
G1 X3.75 Y0.568 E3.36814
G1 X3.694 Y0.866 E3.38028
G1 X3.618 Y1.143 E3.39178
G1 X3.525 Y1.404 E3.40281
G1 X3.416 Y1.648 E3.41344
G1 X3.294 Y1.88 E3.42384
G1 X3.161 Y2.1 E3.43403
G1 X3.013 Y2.306 E3.44416
G1 X2.854 Y2.501 E3.45423
G1 X2.685 Y2.685 E3.4642
G1 X2.501 Y2.855 E3.47414
G1 X2.306 Y3.013 E3.48415
G1 X2.1 Y3.161 E3.49428
G1 X1.881 Y3.295 E3.50446
G1 X1.649 Y3.416 E3.51481
G1 X1.404 Y3.525 E3.52551
G1 X1.145 Y3.62 E3.53669
G1 X0.868 Y3.696 E3.54823
G1 X0.569 Y3.751 E3.56025
G1 X0.249 Y3.784 E3.57305
G1 X-0.098 Y3.79 E3.5869
G1 X-.481 Y3.76 E3.60218
G1 X-.923 Y3.672 E3.62006
G1 X-1.476 Y3.472 E3.64324
G0 F3300 X-1.766 Y3.536
G1 F1012.3 X-3.539 Y1.763 E3.72142
G0 F3300 X-3.473 Y1.474
G1 F1012.3 X-3.671 Y0.924 E3.74453
G1 X-3.759 Y0.482 E3.76252
G1 X-3.79 Y0.098 E3.77794
G1 X-3.784 Y-.248 E3.79184
G1 X-3.75 Y-.568 E3.80481
G1 X-3.694 Y-.866 E3.81698
G1 X-3.619 Y-1.144 E3.82858
G1 X-3.526 Y-1.405 E3.83971
G0 F3300 X-2.191 Y-2.632
;TIME_ELAPSED:4.692635
;LAYER:1
M140 S60
G0 F4950 X-2.191 Y-2.632 Z0.45
;TYPE:WALL-OUTER
G1 F1056.2 X-2.438 Y-2.404 E3.85019
G1 X-2.662 Y-2.153 E3.86068
G1 X-2.86 Y-1.882 E3.87115
G1 X-3.031 Y-1.593 E3.88162
G1 X-3.173 Y-1.288 E3.89211
G1 X-3.283 Y-.969 E3.90263
G1 X-3.362 Y-.644 E3.91306
G1 X-3.409 Y-.312 E3.92352
G1 X-3.424 Y0.024 E3.934
G1 X-3.405 Y0.36 E3.9445
G1 X-3.353 Y0.692 E3.95498
G1 X-3.269 Y1.016 E3.96541
G1 X-3.154 Y1.332 E3.9759
G1 X-3.008 Y1.635 E3.98639
G1 X-2.833 Y1.921 E3.99684
G1 X-2.632 Y2.191 E4.00734
G1 X-2.404 Y2.438 E4.01782
G1 X-2.153 Y2.662 E4.02831
G1 X-1.882 Y2.86 E4.03877
G1 X-1.593 Y3.031 E4.04924
G1 X-1.288 Y3.173 E4.05973
G1 X-.969 Y3.283 E4.07026
G1 X-.644 Y3.362 E4.08068
G1 X-.312 Y3.409 E4.09114
G1 X0.024 Y3.424 E4.10163
G1 X0.36 Y3.405 E4.11212
G1 X0.692 Y3.353 E4.1226
G1 X1.016 Y3.269 E4.13304
G1 X1.332 Y3.154 E4.14352
G1 X1.635 Y3.008 E4.15401
G1 X1.921 Y2.833 E4.16446
G1 X2.191 Y2.632 E4.17496
G1 X2.438 Y2.404 E4.18544
G1 X2.662 Y2.153 E4.19593
G1 X2.86 Y1.882 E4.2064
G1 X3.031 Y1.593 E4.21687
G1 X3.173 Y1.288 E4.22736
G1 X3.283 Y0.969 E4.23788
G1 X3.362 Y0.644 E4.24831
G1 X3.409 Y0.312 E4.25876
G1 X3.424 Y-0.024 E4.26925
G1 X3.405 Y-.36 E4.27975
G1 X3.353 Y-.692 E4.29022
G1 X3.269 Y-1.016 E4.30066
G1 X3.154 Y-1.332 E4.31115
G1 X3.008 Y-1.635 E4.32163
G1 X2.833 Y-1.921 E4.33209
G1 X2.632 Y-2.191 E4.34258
G1 X2.404 Y-2.438 E4.35307
G1 X2.153 Y-2.662 E4.36356
G1 X1.882 Y-2.86 E4.37402
G1 X1.593 Y-3.031 E4.38449
G1 X1.288 Y-3.173 E4.39498
G1 X0.969 Y-3.283 E4.4055
G1 X0.644 Y-3.362 E4.41593
G1 X0.312 Y-3.409 E4.42639
G1 X-0.024 Y-3.423 E4.43687
G1 X-.359 Y-3.405 E4.44734
G1 X-.692 Y-3.353 E4.45784
G1 X-1.016 Y-3.269 E4.46828
G1 X-1.332 Y-3.154 E4.47877
G1 X-1.635 Y-3.008 E4.48925
G1 X-1.921 Y-2.833 E4.49971
G1 X-2.191 Y-2.632 E4.5102
G0 F4950 X-2.374 Y-2.463
G0 X-2.611 Y-3.352
G1 F1056.2 X-2.316 Y-3.562 E4.5215
G1 X-2.02 Y-3.737 E4.53222
G1 X-1.699 Y-3.894 E4.54336
G1 X-1.377 Y-4.02 E4.55414
G1 X-1.038 Y-4.12 E4.56516
G1 X-.69 Y-4.193 E4.57625
G1 X-.352 Y-4.234 E4.58687
G1 X0.003 Y-4.249 E4.59795
G1 X0.358 Y-4.233 E4.60903
G1 X0.699 Y-4.191 E4.61974
G1 X1.054 Y-4.117 E4.63105
G1 X1.377 Y-4.02 E4.64156
G1 X1.707 Y-3.89 E4.65262
G1 X2.027 Y-3.734 E4.66372
G1 X2.328 Y-3.555 E4.67464
G1 X2.608 Y-3.354 E4.68539
G1 X2.881 Y-3.122 E4.69656
G1 X3.136 Y-2.867 E4.70781
G1 X3.352 Y-2.611 E4.71825
G1 X3.56 Y-2.32 E4.7294
G1 X3.737 Y-2.02 E4.74027
G1 X3.893 Y-1.701 E4.75134
G1 X4.02 Y-1.377 E4.76219
G1 X4.12 Y-1.038 E4.77321
G1 X4.194 Y-.685 E4.78446
G1 X4.234 Y-.357 E4.79476
G1 X4.249 Y0.003 E4.80599
G1 X4.233 Y0.358 E4.81707
G1 X4.191 Y0.699 E4.82779
G1 X4.118 Y1.049 E4.83894
G1 X4.021 Y1.374 E4.84951
G1 X3.89 Y1.707 E4.86067
G1 X3.734 Y2.027 E4.87177
G1 X3.555 Y2.328 E4.88269
G1 X3.354 Y2.608 E4.89344
G1 X3.122 Y2.881 E4.90461
G1 X2.87 Y3.133 E4.91572
G1 X2.611 Y3.352 E4.9263
G1 X2.32 Y3.56 E4.93745
G1 X2.02 Y3.737 E4.94831
G1 X1.699 Y3.894 E4.95945
G1 X1.377 Y4.02 E4.97024
G1 X1.038 Y4.12 E4.98126
G1 X0.69 Y4.193 E4.99234
G1 X0.352 Y4.234 E5.00296
G1 X-0.004 Y4.25 E5.01407
G1 X-.358 Y4.233 E5.02512
G1 X-.699 Y4.191 E5.03584
G1 X-1.054 Y4.117 E5.04714
G1 X-1.377 Y4.02 E5.05766
G1 X-1.707 Y3.89 E5.06872
G1 X-2.028 Y3.733 E5.07986
G1 X-2.331 Y3.553 E5.09085
G1 X-2.609 Y3.353 E5.10153
G1 X-2.881 Y3.122 E5.11266
G1 X-3.136 Y2.867 E5.1239
G1 X-3.352 Y2.611 E5.13435
G1 X-3.561 Y2.318 E5.14557
G1 X-3.739 Y2.017 E5.15647
G1 X-3.894 Y1.699 E5.1675
G1 X-4.021 Y1.374 E5.17838
G1 X-4.121 Y1.036 E5.18937
G1 X-4.194 Y0.685 E5.20055
G1 X-4.235 Y0.344 E5.21126
G1 X-4.25 Y-0.004 E5.22212
G1 X-4.233 Y-.364 E5.23336
G1 X-4.191 Y-.699 E5.24389
G1 X-4.116 Y-1.057 E5.25529
G1 X-4.021 Y-1.374 E5.26561
G1 X-3.888 Y-1.712 E5.27694
G1 X-3.733 Y-2.028 E5.28791
G1 X-3.554 Y-2.329 E5.29883
G1 X-3.354 Y-2.608 E5.30954
G1 X-3.12 Y-2.883 E5.3208
G1 X-2.87 Y-3.133 E5.33182
G1 X-2.611 Y-3.352 E5.3424
G0 F4950 X-2.408 Y-3.497
G0 X-2.463 Y-3.193
;TYPE:SKIN
G1 F1232.2 X-3.189 Y-2.467 E5.3584
G0 F4950 X-3.53 Y-1.418
G1 F1232.2 X-3.716 Y-.879 E5.37217
G1 X-3.798 Y-.443 E5.38298
G1 X-3.826 Y-0.063 E5.39225
G1 X-3.818 Y0.282 E5.40069
G1 X-3.782 Y0.6 E5.40851
G1 X-3.726 Y0.898 E5.41588
G1 X-3.647 Y1.173 E5.42293
G1 X-3.553 Y1.432 E5.42975
G1 X-3.444 Y1.677 E5.43638
G1 X-3.322 Y1.908 E5.44278
G1 X-3.187 Y2.126 E5.44906
G1 X-3.04 Y2.333 E5.45533
G1 X-2.881 Y2.527 E5.46153
G1 X-2.71 Y2.71 E5.4677
G1 X-2.526 Y2.88 E5.47387
G1 X-2.333 Y3.04 E5.48009
G1 X-2.128 Y3.188 E5.48637
G1 X-1.908 Y3.322 E5.4927
G1 X-1.677 Y3.444 E5.49911
G1 X-1.432 Y3.553 E5.50572
G1 X-1.173 Y3.648 E5.51255
G1 X-.896 Y3.725 E5.51967
G1 X-.6 Y3.782 E5.52713
G1 X-.281 Y3.817 E5.53508
G1 X0.063 Y3.825 E5.54353
G1 X0.444 Y3.798 E5.55294
G1 X0.878 Y3.716 E5.56376
G1 X1.418 Y3.53 E5.57762
G0 F4950 X1.604 Y3.698
G1 F1232.2 X3.698 Y1.604 E5.62379
G0 F4950 X3.716 Y0.879
G1 F1232.2 X3.798 Y0.443 E5.63461
G1 X3.826 Y0.063 E5.64387
G1 X3.818 Y-.282 E5.65231
G1 X3.783 Y-.601 E5.66018
G1 X3.725 Y-.897 E5.66755
G1 X3.647 Y-1.173 E5.6746
G1 X3.553 Y-1.431 E5.68138
G1 X3.444 Y-1.676 E5.68798
G1 X3.322 Y-1.908 E5.69441
G1 X3.187 Y-2.126 E5.70071
G1 X3.04 Y-2.333 E5.70699
G1 X2.881 Y-2.527 E5.71319
G1 X2.71 Y-2.71 E5.71936
G1 X2.526 Y-2.88 E5.72553
G1 X2.333 Y-3.04 E5.73175
G1 X2.128 Y-3.188 E5.73801
G1 X1.909 Y-3.323 E5.74435
G1 X1.677 Y-3.445 E5.75081
G1 X1.432 Y-3.553 E5.75742
G1 X1.173 Y-3.648 E5.76425
G1 X0.896 Y-3.725 E5.77137
G1 X0.6 Y-3.782 E5.77883
G1 X0.281 Y-3.816 E5.78675
G1 X-0.063 Y-3.825 E5.79525
G1 X-.444 Y-3.798 E5.80466
G1 X-.878 Y-3.716 E5.81548
G1 X-1.419 Y-3.529 E5.82933
G0 F4950 X-1.604 Y-3.698
G1 F1232.2 X-3.696 Y-1.606 E5.87546
G1 F6600 E3.87546
G0 F4950 X3.171 Y1.778
G1 F6600 E5.87546
G1 F1232.2 X3.889 Y1.06 E5.89129
G0 F4950 X3.189 Y2.467
G1 F1232.2 X2.468 Y3.188 E5.90719
G1 F6600 E3.90719
G0 F4950 X-.369 Y-3.403
;TIME_ELAPSED:9.306181
;LAYER:2
G0 F6600 X-.369 Y-3.403 Z0.6
;TYPE:WALL-OUTER
G1 F6600 E5.90719
G1 F992.2 X-.7 Y-3.35 E5.91764
G1 X-1.024 Y-3.266 E5.92808
G1 X-1.341 Y-3.15 E5.9386
G1 X-1.644 Y-3.003 E5.9491
G1 X-1.929 Y-2.827 E5.95955
G1 X-2.197 Y-2.625 E5.97001
G1 X-2.445 Y-2.397 E5.98052
G1 X-2.668 Y-2.145 E5.99101
G1 X-2.865 Y-1.873 E6.00148
G1 X-3.035 Y-1.584 E6.01194
G1 X-3.176 Y-1.28 E6.02239
G1 X-3.286 Y-.961 E6.03291
G1 X-3.364 Y-.634 E6.04339
G1 X-3.41 Y-.302 E6.05384
G1 X-3.423 Y0.034 E6.06432
G1 X-3.403 Y0.369 E6.07479
G1 X-3.35 Y0.7 E6.08524
G1 X-3.266 Y1.024 E6.09568
G1 X-3.15 Y1.341 E6.1062
G1 X-3.003 Y1.644 E6.11671
G1 X-2.827 Y1.929 E6.12715
G1 X-2.625 Y2.197 E6.13761
G1 X-2.397 Y2.445 E6.14812
G1 X-2.145 Y2.668 E6.15861
G1 X-1.873 Y2.865 E6.16908
G1 X-1.584 Y3.035 E6.17954
G1 X-1.28 Y3.176 E6.18999
G1 X-.961 Y3.286 E6.20051
G1 X-.634 Y3.364 E6.21099
G1 X-.302 Y3.41 E6.22144
G1 X0.034 Y3.423 E6.23193
G1 X0.369 Y3.403 E6.24239
G1 X0.7 Y3.35 E6.25284
G1 X1.024 Y3.266 E6.26328
G1 X1.341 Y3.15 E6.27381
G1 X1.644 Y3.003 E6.28431
G1 X1.929 Y2.827 E6.29475
G1 X2.197 Y2.625 E6.30522
G1 X2.445 Y2.397 E6.31572
G1 X2.668 Y2.145 E6.32621
G1 X2.865 Y1.873 E6.33669
G1 X3.035 Y1.584 E6.34714
G1 X3.176 Y1.28 E6.35759
G1 X3.286 Y0.961 E6.36811
G1 X3.364 Y0.634 E6.37859
G1 X3.41 Y0.302 E6.38905
G1 X3.423 Y-0.034 E6.39953
G1 X3.403 Y-.369 E6.40999
G1 X3.35 Y-.7 E6.42045
G1 X3.266 Y-1.024 E6.43088
G1 X3.15 Y-1.341 E6.44141
G1 X3.003 Y-1.644 E6.45191
G1 X2.827 Y-1.929 E6.46235
G1 X2.625 Y-2.197 E6.47282
G1 X2.397 Y-2.445 E6.48332
G1 X2.145 Y-2.668 E6.49382
G1 X1.873 Y-2.865 E6.50429
G1 X1.584 Y-3.035 E6.51474
G1 X1.28 Y-3.176 E6.52519
G1 X0.961 Y-3.286 E6.53571
G1 X0.634 Y-3.364 E6.5462
G1 X0.302 Y-3.41 E6.55665
G1 X-0.034 Y-3.422 E6.56713
G1 X-.369 Y-3.403 E6.57759
G0 F6600 X-.616 Y-3.364
G0 X-.344 Y-4.234
G1 F992.2 X0.011 Y-4.249 E6.58867
G1 X0.364 Y-4.232 E6.59969
G1 X0.705 Y-4.189 E6.61041
G1 X1.064 Y-4.113 E6.62185
G1 X1.384 Y-4.017 E6.63227
G1 X1.724 Y-3.883 E6.64366
G1 X2.035 Y-3.731 E6.65446
G1 X2.325 Y-3.557 E6.665
G1 X2.621 Y-3.343 E6.67639
G1 X2.887 Y-3.117 E6.68728
G1 X3.132 Y-2.871 E6.6981
G1 X3.354 Y-2.608 E6.70883
G1 X3.569 Y-2.305 E6.72042
G1 X3.737 Y-2.02 E6.73073
G1 X3.897 Y-1.692 E6.74211
G1 X4.022 Y-1.37 E6.75288
G1 X4.123 Y-1.029 E6.76397
G1 X4.194 Y-.685 E6.77493
G1 X4.234 Y-.349 E6.78548
G1 X4.249 Y0.011 E6.79671
G1 X4.233 Y0.359 E6.80757
G1 X4.19 Y0.7 E6.81829
G1 X4.113 Y1.064 E6.82989
G1 X4.018 Y1.381 E6.84021
G1 X3.883 Y1.724 E6.85171
G1 X3.731 Y2.035 E6.8625
G1 X3.557 Y2.325 E6.87304
G1 X3.343 Y2.621 E6.88443
G1 X3.117 Y2.887 E6.89532
G1 X2.871 Y3.132 E6.90614
G1 X2.604 Y3.357 E6.91703
G1 X2.308 Y3.567 E6.92835
G1 X2.02 Y3.737 E6.93878
G1 X1.692 Y3.897 E6.95016
G1 X1.37 Y4.022 E6.96093
G1 X1.029 Y4.123 E6.97201
G1 X0.685 Y4.194 E6.98297
G1 X0.343 Y4.235 E6.99371
G1 X-0.01 Y4.249 E7.00472
G1 X-.364 Y4.232 E7.01577
G1 X-.705 Y4.189 E7.02649
G1 X-1.064 Y4.113 E7.03793
G1 X-1.384 Y4.017 E7.04835
G1 X-1.724 Y3.883 E7.05975
G1 X-2.035 Y3.731 E7.07054
G1 X-2.327 Y3.556 E7.08115
G1 X-2.621 Y3.343 E7.09248
G1 X-2.887 Y3.117 E7.10336
G1 X-3.132 Y2.871 E7.11418
G1 X-3.357 Y2.604 E7.12507
G1 X-3.569 Y2.305 E7.1365
G1 X-3.737 Y2.02 E7.14682
G1 X-3.897 Y1.692 E7.1582
G1 X-4.022 Y1.37 E7.16897
G1 X-4.124 Y1.024 E7.18021
G1 X-4.194 Y0.685 E7.19101
G1 X-4.235 Y0.343 E7.20175
G1 X-4.249 Y-0.01 E7.21276
G1 X-4.232 Y-.369 E7.22397
G1 X-4.19 Y-.7 E7.23437
G1 X-4.113 Y-1.064 E7.24598
G1 X-4.018 Y-1.381 E7.25629
G1 X-3.882 Y-1.727 E7.26789
G1 X-3.731 Y-2.035 E7.27858
G1 X-3.557 Y-2.325 E7.28913
G1 X-3.343 Y-2.621 E7.30052
G1 X-3.117 Y-2.887 E7.3114
G1 X-2.871 Y-3.132 E7.32223
G1 X-2.604 Y-3.357 E7.33311
G1 X-2.308 Y-3.567 E7.34443
G1 X-2.02 Y-3.737 E7.35486
G1 X-1.692 Y-3.897 E7.36624
G1 X-1.37 Y-4.022 E7.37701
G1 X-1.029 Y-4.123 E7.3881
G1 X-.685 Y-4.194 E7.39905
G1 X-.344 Y-4.234 E7.40976
G0 F6600 X-0.094 Y-4.244
G0 X0.063 Y-3.825
G1 F1322.9 X-.281 Y-3.817 E7.41817
G1 X-.6 Y-3.782 E7.42601
G1 X-.896 Y-3.725 E7.43338
G1 X-1.172 Y-3.647 E7.44048
G1 X-1.432 Y-3.553 E7.44733
G1 X-1.676 Y-3.444 E7.45393
G1 X-1.909 Y-3.323 E7.46033
G1 X-2.126 Y-3.187 E7.46659
G1 X-2.333 Y-3.04 E7.47288
G1 X-2.527 Y-2.88 E7.47909
G1 X-2.709 Y-2.709 E7.48522
G1 X-2.88 Y-2.526 E7.49138
G1 X-3.039 Y-2.332 E7.49759
G1 X-3.188 Y-2.128 E7.50384
G1 X-3.323 Y-1.908 E7.5102
G1 X-3.444 Y-1.676 E7.51668
G1 X-3.553 Y-1.432 E7.52328
G1 X-3.648 Y-1.173 E7.53009
G1 X-3.724 Y-.895 E7.53717
