;FLAVOR:Repetier
;TIME:2497
;Generated with Cura_SteamEngine 2.5.0
M190 S60
M104 S220
M109 S220
G28 ;Home
G1 Z15.0 F6000 ;Move the platform down 15mm
;Prime the extruder
G92 E0
G1 F200 E3
G92 E0
;LAYER_COUNT:484
;LAYER:0
M106 S255
G0 F3300 X4.774 Y0.707 Z0.3
;TYPE:WALL-INNER
G1 F1561.3 X4.778 Y0.639 E0.00425
G1 X4.826 Y-0.014 E0.04508
G1 X4.78 Y-.615 E0.08267
G1 X4.77 Y-.733 E0.09006
G1 X4.663 Y-1.197 E0.11975
G1 X4.607 Y-1.436 E0.13506
G1 X4.479 Y-1.76 E0.15678
G1 X4.342 Y-2.106 E0.17999
G1 X4.227 Y-2.304 E0.19427
G1 X3.979 Y-2.73 E0.22501
G1 X3.92 Y-2.804 E0.23091
G1 X3.528 Y-3.292 E0.26995
G1 X3.053 Y-3.73 E0.31024
G1 X2.999 Y-3.78 E0.31483
G1 X2.578 Y-4.066 E0.34657
G1 X2.402 Y-4.186 E0.35986
G1 X2.054 Y-4.352 E0.3839
G1 X1.75 Y-4.497 E0.40491
G1 X1.506 Y-4.571 E0.42081
G1 X1.06 Y-4.708 E0.4499
G1 X0.934 Y-4.726 E0.45784
G1 X0.347 Y-4.813 E0.49485
G1 X-.317 Y-4.812 E0.53626
G1 X-.373 Y-4.811 E0.53975
G1 X-.907 Y-4.73 E0.57343
G1 X-1.086 Y-4.702 E0.58473
G1 X-1.484 Y-4.578 E0.61073
G1 X-1.774 Y-4.487 E0.62968
G1 X-2.033 Y-4.362 E0.64762
G1 X-2.424 Y-4.173 E0.6747
G1 X-2.559 Y-4.08 E0.68492
G1 X-3.019 Y-3.763 E0.71976
G1 X-3.046 Y-3.738 E0.72206
G1 X-3.529 Y-3.288 E0.76323
G1 X-3.546 Y-3.272 E0.76468
G1 X-3.902 Y-2.824 E0.80037
G1 X-3.995 Y-2.707 E0.80969
G1 X-4.213 Y-2.325 E0.83712
G1 X-4.353 Y-2.081 E0.85466
G1 X-4.469 Y-1.782 E0.87466
G1 X-4.615 Y-1.41 E0.89958
G1 X-4.658 Y-1.218 E0.91185
G1 X-4.774 Y-.706 E0.94459
G1 X-4.778 Y-.637 E0.9489
G1 X-4.825 Y0.014 E0.98961
G1 X-4.779 Y0.616 E1.02726
G1 X-4.77 Y0.732 E1.03451
G1 X-4.663 Y1.197 E1.06427
G1 X-4.607 Y1.436 E1.07958
G1 X-4.479 Y1.76 E1.1013
G1 X-4.342 Y2.106 E1.12451
G1 X-4.227 Y2.304 E1.13879
G1 X-3.979 Y2.73 E1.16953
G1 X-3.92 Y2.804 E1.17543
G1 X-3.528 Y3.292 E1.21447
G1 X-3.055 Y3.728 E1.25459
G1 X-2.999 Y3.78 E1.25935
G1 X-2.578 Y4.066 E1.29109
G1 X-2.402 Y4.186 E1.30438
G1 X-2.054 Y4.352 E1.32842
G1 X-1.75 Y4.497 E1.34943
G1 X-1.506 Y4.571 E1.36533
G1 X-1.06 Y4.708 E1.39442
G1 X-.934 Y4.726 E1.40236
G1 X-.347 Y4.813 E1.43937
G1 X0.317 Y4.812 E1.48078
G1 X0.373 Y4.811 E1.48427
G1 X0.907 Y4.73 E1.51795
G1 X1.086 Y4.702 E1.52925
G1 X1.484 Y4.578 E1.55525
G1 X1.774 Y4.487 E1.5742
G1 X2.033 Y4.362 E1.59214
G1 X2.424 Y4.173 E1.61922
G1 X2.559 Y4.08 E1.62944
G1 X3.019 Y3.763 E1.66428
G1 X3.045 Y3.739 E1.66649
G1 X3.524 Y3.292 E1.70735
G1 X3.546 Y3.272 E1.7092
G1 X3.906 Y2.819 E1.74529
G1 X3.995 Y2.707 E1.75421
G1 X4.214 Y2.324 E1.78172
G1 X4.353 Y2.081 E1.79918
G1 X4.469 Y1.784 E1.81906
G1 X4.615 Y1.41 E1.8441
G1 X4.659 Y1.212 E1.85675
G1 X4.774 Y0.707 E1.88905
G0 F3300 X5.183 Y0.784
G1 F1561.3 X5.082 Y1.307 E1.91676
G1 X5.007 Y1.537 E1.929
G1 X4.874 Y1.942 E1.95161
G1 X4.726 Y2.256 E1.97007
G1 X4.592 Y2.539 E1.98675
G1 X4.344 Y2.929 E2.01126
G1 X4.243 Y3.087 E2.01986
G1 X3.869 Y3.539 E2.05095
G1 X3.815 Y3.603 E2.05469
G1 X3.337 Y4.05 E2.08942
G1 X3.265 Y4.102 E2.09393
G1 X2.804 Y4.435 E2.12409
G1 X2.623 Y4.534 E2.13443
G1 X2.222 Y4.753 E2.15864
G1 X1.925 Y4.87 E2.17562
G1 X1.614 Y4.993 E2.19339
G1 X1.188 Y5.101 E2.21666
G1 X0.972 Y5.156 E2.22698
G1 X0.426 Y5.224 E2.25606
G1 X0.319 Y5.238 E2.26148
G1 X-.338 Y5.237 E2.29633
G1 X-.4 Y5.229 E2.30023
G1 X-.996 Y5.152 E2.33159
G1 X-1.163 Y5.109 E2.34022
G1 X-1.633 Y4.987 E2.36599
G1 X-1.902 Y4.88 E2.38143
G1 X-2.241 Y4.745 E2.40083
G1 X-2.601 Y4.545 E2.42266
G1 X-2.821 Y4.423 E2.43389
G1 X-3.243 Y4.116 E2.46148
G1 X-3.345 Y4.042 E2.46746
G1 X-3.816 Y3.598 E2.50167
G1 X-3.833 Y3.582 E2.50301
G1 X-3.852 Y3.559 E2.50472
G1 X-4.253 Y3.072 E2.53802
G1 X-4.329 Y2.952 E2.54509
G1 X-4.601 Y2.522 E2.57201
G1 X-4.714 Y2.281 E2.58552
G1 X-4.883 Y1.921 E2.60659
G1 X-4.998 Y1.562 E2.62657
G1 X-5.085 Y1.295 E2.64088
G1 X-5.176 Y0.809 E2.66704
G1 X-5.207 Y0.649 E2.67517
G1 X-5.244 Y0.04 E2.70747
G1 X-5.248 Y-0.019 E2.71116
G1 X-5.205 Y-.666 E2.74524
G1 X-5.183 Y-.784 E2.7507
G1 X-5.08 Y-1.313 E2.7787
G1 X-5.007 Y-1.537 E2.79058
G1 X-4.875 Y-1.94 E2.8131
G1 X-4.726 Y-2.256 E2.83169
G1 X-4.592 Y-2.54 E2.84844
G1 X-4.345 Y-2.929 E2.87293
G1 X-4.24 Y-3.093 E2.88194
G1 X-3.868 Y-3.54 E2.91277
G1 X-3.819 Y-3.598 E2.91628
G1 X-3.337 Y-4.05 E2.9513
G1 X-3.265 Y-4.102 E2.95581
G1 X-2.804 Y-4.435 E2.98596
G1 X-2.623 Y-4.534 E2.99631
G1 X-2.222 Y-4.753 E3.02052
G1 X-1.925 Y-4.87 E3.0375
G1 X-1.614 Y-4.993 E3.05527
G1 X-1.188 Y-5.101 E3.07853
G1 X-.972 Y-5.156 E3.08886
G1 X-.426 Y-5.224 E3.11794
G1 X-.319 Y-5.238 E3.12336
G1 X0.338 Y-5.237 E3.15821
G1 X0.4 Y-5.229 E3.16211
G1 X0.996 Y-5.152 E3.19347
G1 X1.163 Y-5.109 E3.2021
G1 X1.633 Y-4.987 E3.22787
G1 X1.902 Y-4.88 E3.24331
G1 X2.241 Y-4.745 E3.26271
G1 X2.601 Y-4.545 E3.28453
G1 X2.821 Y-4.423 E3.29577
G1 X3.242 Y-4.117 E3.32328
G1 X3.343 Y-4.044 E3.32861
G1 X3.816 Y-3.599 E3.36293
G1 X3.833 Y-3.583 E3.36427
G1 X3.852 Y-3.56 E3.36613
G1 X4.253 Y-3.072 E3.39952
G1 X4.329 Y-2.952 E3.40659
G1 X4.601 Y-2.522 E3.43351
G1 X4.714 Y-2.281 E3.44701
G1 X4.883 Y-1.921 E3.46809
G1 X4.998 Y-1.562 E3.48807
G1 X5.085 Y-1.295 E3.50237
G1 X5.176 Y-.81 E3.52849
G1 X5.207 Y-.649 E3.53664
G1 X5.244 Y-0.04 E3.56887
G1 X5.248 Y0.014 E3.57225
G1 X5.205 Y0.668 E3.60665
G1 X5.183 Y0.784 E3.61258
G0 F3300 X5.702 Y0.73
;TYPE:WALL-OUTER
G1 F1561.3 X5.567 Y1.433 E3.65722
G1 X5.339 Y2.129 E3.7029
G1 X5.031 Y2.78 E3.74781
G1 X4.645 Y3.387 E3.79267
G1 X4.182 Y3.944 E3.83784
G1 X3.658 Y4.435 E3.88262
G1 X3.068 Y4.861 E3.92801
G1 X2.436 Y5.206 E3.97291
G1 X1.766 Y5.471 E4.01784
G1 X1.069 Y5.648 E4.06269
G1 X0.349 Y5.738 E4.10794
G1 X-.371 Y5.737 E4.15284
G1 X-1.089 Y5.644 E4.19799
G1 X-1.786 Y5.464 E4.24288
G1 X-2.455 Y5.197 E4.2878
G1 X-3.091 Y4.845 E4.33314
G1 X-3.668 Y4.425 E4.37764
G1 X-4.199 Y3.925 E4.42313
G1 X-4.66 Y3.365 E4.46836
G1 X-5.042 Y2.76 E4.51298
G1 X-5.348 Y2.109 E4.55784
G1 X-5.57 Y1.42 E4.60298
G1 X-5.704 Y0.709 E4.64811
G1 X-5.749 Y-0.019 E4.69359
G1 X-5.702 Y-.73 E4.73803
G1 X-5.566 Y-1.435 E4.78281
G1 X-5.339 Y-2.129 E4.82834
G1 X-5.031 Y-2.78 E4.87325
G1 X-4.645 Y-3.388 E4.91817
G1 X-4.182 Y-3.944 E4.96329
G1 X-3.658 Y-4.435 E5.00807
G1 X-3.068 Y-4.861 E5.05345
G1 X-2.436 Y-5.206 E5.09836
G1 X-1.766 Y-5.471 E5.14329
G1 X-1.069 Y-5.648 E5.18814
G1 X-.349 Y-5.738 E5.23339
G1 X0.371 Y-5.737 E5.27829
G1 X1.089 Y-5.644 E5.32344
G1 X1.786 Y-5.464 E5.36833
G1 X2.455 Y-5.197 E5.41325
G1 X3.091 Y-4.845 E5.45858
G1 X3.666 Y-4.427 E5.50292
G1 X4.199 Y-3.925 E5.54858
G1 X4.66 Y-3.365 E5.59381
G1 X5.042 Y-2.76 E5.63843
G1 X5.348 Y-2.109 E5.68329
G1 X5.57 Y-1.42 E5.72843
G1 X5.704 Y-.709 E5.77356
G1 X5.749 Y0.019 E5.81904
G1 X5.702 Y0.73 E5.86348
G0 F3300 X5.655 Y0.975
G0 X4.278 Y0.633
G1 F1561.3 X4.325 Y-0.012 E5.90381
G1 X4.274 Y-.656 E5.9441
G1 X4.128 Y-1.287 E5.98449
G1 X3.891 Y-1.887 E6.02472
G1 X3.566 Y-2.446 E6.06504
G1 X3.162 Y-2.95 E6.10532
G1 X2.687 Y-3.387 E6.14558
G1 X2.152 Y-3.751 E6.18593
G1 X1.568 Y-4.03 E6.22629
G1 X0.95 Y-4.219 E6.2666
G1 X0.311 Y-4.313 E6.30687
G1 X-.334 Y-4.311 E6.3471
G1 X-.973 Y-4.213 E6.38741
G1 X-1.59 Y-4.021 E6.42771
G1 X-2.172 Y-3.74 E6.46802
G1 X-2.705 Y-3.372 E6.50841
G1 X-3.178 Y-2.932 E6.54869
G1 X-3.58 Y-2.426 E6.589
G1 X-3.901 Y-1.865 E6.6293
G1 X-4.136 Y-1.263 E6.66961
G1 X-4.278 Y-.633 E6.70988
G1 X-4.324 Y0.012 E6.75021
G1 X-4.274 Y0.656 E6.79049
G1 X-4.128 Y1.287 E6.83088
G1 X-3.891 Y1.887 E6.87111
G1 X-3.566 Y2.446 E6.91143
G1 X-3.162 Y2.95 E6.95172
G1 X-2.687 Y3.387 E6.99197
G1 X-2.152 Y3.751 E7.03232
G1 X-1.568 Y4.03 E7.07269
G1 X-.95 Y4.219 E7.11299
G1 X-.311 Y4.313 E7.15327
G1 X0.334 Y4.311 E7.19349
G1 X0.973 Y4.213 E7.23381
G1 X1.59 Y4.021 E7.2741
G1 X2.172 Y3.74 E7.31441
G1 X2.705 Y3.372 E7.3548
G1 X3.178 Y2.932 E7.39509
G1 X3.58 Y2.426 E7.43539
G1 X3.901 Y1.865 E7.4757
G1 X4.136 Y1.263 E7.516
G1 X4.278 Y0.633 E7.55627
G0 F3300 X4.296 Y0.384
G1 F6600 E5.55627
G0 F3300 X-4.825 Y0.022
;TIME_ELAPSED:5.587237
;LAYER:1
M140 S60
G0 F4950 X-4.825 Y0.022 Z0.45
;TYPE:WALL-INNER
G1 F6600 E7.55627
G1 F1563 X-4.779 Y0.603 E7.57445
G1 X-4.768 Y0.741 E7.57876
G1 X-4.663 Y1.191 E7.59317
G1 X-4.603 Y1.444 E7.60128
G1 X-4.478 Y1.761 E7.6119
G1 X-4.338 Y2.114 E7.62375
G1 X-4.235 Y2.289 E7.63008
G1 X-3.973 Y2.736 E7.64623
G1 X-3.922 Y2.8 E7.64878
G1 X-3.522 Y3.298 E7.6687
G1 X-3.068 Y3.714 E7.6879
G1 X-2.99 Y3.786 E7.69121
G1 X-2.585 Y4.06 E7.70646
G1 X-2.394 Y4.19 E7.71366
G1 X-2.059 Y4.349 E7.72523
G1 X-1.741 Y4.501 E7.73622
G1 X-1.514 Y4.569 E7.74361
G1 X-1.051 Y4.709 E7.75869
G1 X-.941 Y4.725 E7.76215
G1 X-.338 Y4.813 E7.78116
G1 X0.312 Y4.811 E7.80142
G1 X0.383 Y4.81 E7.80364
G1 X0.9 Y4.729 E7.81995
G1 X1.095 Y4.698 E7.82611
G1 X1.47 Y4.582 E7.83835
G1 X1.782 Y4.484 E7.84855
G1 X2.032 Y4.362 E7.85722
G1 X2.433 Y4.167 E7.87113
G1 X2.544 Y4.091 E7.87532
G1 X3.025 Y3.758 E7.89356
G1 X3.041 Y3.743 E7.89425
G1 X3.528 Y3.288 E7.91503
G1 X3.553 Y3.265 E7.91609
G1 X3.895 Y2.831 E7.93332
G1 X3.999 Y2.699 E7.93856
G1 X4.215 Y2.322 E7.9521
G1 X4.357 Y2.074 E7.96102
G1 X4.466 Y1.792 E7.97044
G1 X4.617 Y1.402 E7.98348
G1 X4.657 Y1.221 E7.98926
G1 X4.774 Y0.698 E8.00597
G1 X4.777 Y0.644 E8.00766
G1 X4.825 Y-0.011 E8.02814
G1 X4.826 Y-0.022 E8.02848
G1 X4.78 Y-.602 E8.04663
G1 X4.768 Y-.742 E8.05101
G1 X4.663 Y-1.19 E8.06535
G1 X4.603 Y-1.444 E8.07349
G1 X4.477 Y-1.763 E8.08419
G1 X4.338 Y-2.114 E8.09596
G1 X4.238 Y-2.285 E8.10214
G1 X3.973 Y-2.736 E8.11845
G1 X3.918 Y-2.805 E8.1212
G1 X3.522 Y-3.298 E8.14092
G1 X3.068 Y-3.714 E8.16012
G1 X2.99 Y-3.786 E8.16343
G1 X2.585 Y-4.06 E8.17867
G1 X2.394 Y-4.19 E8.18588
G1 X2.059 Y-4.349 E8.19744
G1 X1.741 Y-4.501 E8.20843
G1 X1.514 Y-4.569 E8.21582
G1 X1.051 Y-4.709 E8.2309
G1 X0.941 Y-4.725 E8.23437
G1 X0.338 Y-4.813 E8.25337
G1 X-.312 Y-4.811 E8.27364
G1 X-.383 Y-4.81 E8.27585
G1 X-.9 Y-4.729 E8.29217
G1 X-1.095 Y-4.698 E8.29833
G1 X-1.47 Y-4.582 E8.31057
G1 X-1.782 Y-4.484 E8.32076
G1 X-2.032 Y-4.362 E8.32944
G1 X-2.433 Y-4.167 E8.34334
G1 X-2.544 Y-4.091 E8.34753
G1 X-3.025 Y-3.758 E8.36578
G1 X-3.041 Y-3.743 E8.36646
G1 X-3.528 Y-3.288 E8.38724
G1 X-3.553 Y-3.265 E8.3883
G1 X-3.895 Y-2.831 E8.40553
G1 X-3.999 Y-2.699 E8.41077
G1 X-4.213 Y-2.325 E8.42421
G1 X-4.357 Y-2.074 E8.43323
G1 X-4.464 Y-1.796 E8.44252
G1 X-4.617 Y-1.401 E8.45573
G1 X-4.657 Y-1.221 E8.46148
G1 X-4.774 Y-.697 E8.47822
G1 X-4.777 Y-.647 E8.47978
G1 X-4.823 Y0.006 E8.50019
G1 X-4.825 Y0.022 E8.50069
G0 F4950 X-5.242 Y0.047
G1 F1563 X-5.247 Y-0.025 E8.50255
G1 X-5.203 Y-.675 E8.51972
G1 X-5.184 Y-.775 E8.52204
G1 X-5.08 Y-1.314 E8.53662
G1 X-5.009 Y-1.529 E8.54233
G1 X-4.87 Y-1.952 E8.55413
G1 X-4.729 Y-2.25 E8.56289
G1 X-4.59 Y-2.54 E8.57143
G1 X-4.348 Y-2.92 E8.58336
G1 X-4.235 Y-3.098 E8.58798
G1 X-3.874 Y-3.531 E8.60291
G1 X-3.818 Y-3.598 E8.60483
G1 X-3.331 Y-4.052 E8.62241
G1 X-3.27 Y-4.096 E8.62433
G1 X-2.788 Y-4.443 E8.64
G1 X-2.631 Y-4.529 E8.64406
G1 X-2.223 Y-4.752 E8.65637
G1 X-1.933 Y-4.866 E8.66465
G1 X-1.6 Y-4.997 E8.67414
G1 X-1.197 Y-5.099 E8.68517
G1 X-.967 Y-5.157 E8.69077
G1 X-.436 Y-5.222 E8.70494
G1 X-.314 Y-5.238 E8.70803
G1 X0.343 Y-5.236 E8.72546
G1 X0.391 Y-5.23 E8.72685
G1 X1.002 Y-5.15 E8.74318
G1 X1.154 Y-5.111 E8.74709
G1 X1.639 Y-4.985 E8.76012
G1 X1.893 Y-4.884 E8.7671
G1 X2.246 Y-4.742 E8.77722
G1 X2.593 Y-4.55 E8.78774
G1 X2.827 Y-4.42 E8.79386
G1 X3.234 Y-4.122 E8.80723
G1 X3.359 Y-4.031 E8.81055
G1 X3.81 Y-3.604 E8.82703
G1 X3.834 Y-3.581 E8.82798
G1 X3.846 Y-3.566 E8.82858
G1 X4.251 Y-3.074 E8.84544
G1 X4.324 Y-2.958 E8.84887
G1 X4.61 Y-2.505 E8.86305
G1 X4.71 Y-2.289 E8.86905
G1 X4.881 Y-1.923 E8.87976
G1 X4.994 Y-1.571 E8.88956
G1 X5.085 Y-1.291 E8.89739
G1 X5.173 Y-.818 E8.91012
G1 X5.207 Y-.637 E8.9147
G1 X5.242 Y-0.048 E8.93025
G1 X5.247 Y0.021 E8.932
G1 X5.203 Y0.673 E8.94917
G1 X5.184 Y0.776 E8.95156
G1 X5.08 Y1.314 E8.96611
G1 X5.009 Y1.53 E8.97185
G1 X4.872 Y1.948 E8.9835
G1 X4.729 Y2.249 E8.99236
G1 X4.592 Y2.537 E9.00083
G1 X4.348 Y2.921 E9.01288
G1 X4.235 Y3.098 E9.01748
G1 X3.874 Y3.531 E9.03241
G1 X3.818 Y3.598 E9.03432
G1 X3.331 Y4.052 E9.0519
G1 X3.27 Y4.096 E9.05382
G1 X2.788 Y4.443 E9.06949
G1 X2.631 Y4.529 E9.07355
G1 X2.223 Y4.752 E9.08586
G1 X1.933 Y4.866 E9.09414
G1 X1.6 Y4.997 E9.10363
G1 X1.197 Y5.099 E9.11467
G1 X0.967 Y5.157 E9.12026
G1 X0.436 Y5.222 E9.13443
G1 X0.314 Y5.238 E9.13752
G1 X-.343 Y5.236 E9.15495
G1 X-.391 Y5.23 E9.15634
G1 X-1.002 Y5.15 E9.17267
G1 X-1.154 Y5.111 E9.17658
G1 X-1.639 Y4.985 E9.18961
G1 X-1.893 Y4.884 E9.19659
G1 X-2.246 Y4.742 E9.20671
G1 X-2.593 Y4.55 E9.21723
G1 X-2.827 Y4.42 E9.22335
G1 X-3.234 Y4.122 E9.23673
G1 X-3.359 Y4.031 E9.24005
G1 X-3.81 Y3.604 E9.25652
G1 X-3.834 Y3.581 E9.25748
G1 X-3.846 Y3.567 E9.258
G1 X-4.256 Y3.069 E9.2751
G1 X-4.325 Y2.959 E9.27835
G1 X-4.608 Y2.509 E9.29245
G1 X-4.711 Y2.288 E9.29862
G1 X-4.882 Y1.921 E9.30935
G1 X-4.995 Y1.571 E9.31911
G1 X-5.085 Y1.291 E9.32695
G1 X-5.173 Y0.817 E9.3397
G1 X-5.207 Y0.637 E9.34426
G1 X-5.242 Y0.047 E9.35988
G0 F4950 X-5.748 Y-0.025
;TYPE:WALL-OUTER
G1 F1563 X-5.7 Y-.739 E9.38219
G1 X-5.565 Y-1.439 E9.40442
G1 X-5.336 Y-2.136 E9.4273
G1 X-5.027 Y-2.785 E9.44971
G1 X-4.64 Y-3.393 E9.47218
G1 X-4.18 Y-3.945 E9.49459
G1 X-3.646 Y-4.442 E9.51733
G1 X-3.061 Y-4.864 E9.53983
G1 X-2.436 Y-5.205 E9.56203
G1 X-1.751 Y-5.475 E9.58498
G1 X-1.062 Y-5.649 E9.60714
G1 X-.342 Y-5.738 E9.62976
G1 X0.378 Y-5.736 E9.65221
G1 X1.095 Y-5.642 E9.67476
G1 X1.795 Y-5.461 E9.69731
G1 X2.462 Y-5.194 E9.71971
G1 X3.098 Y-4.841 E9.74239
G1 X3.674 Y-4.42 E9.76464
G1 X4.204 Y-3.919 E9.78738
G1 X4.658 Y-3.367 E9.80966
G1 X5.048 Y-2.748 E9.83248
G1 X5.349 Y-2.102 E9.8547
G1 X5.572 Y-1.412 E9.87731
G1 X5.704 Y-.703 E9.8998
G1 X5.748 Y0.025 E9.92254
G1 X5.7 Y0.739 E9.94485
G1 X5.565 Y1.439 E9.96708
G1 X5.336 Y2.136 E9.98996
G1 X5.027 Y2.785 E10.01237
G1 X4.64 Y3.393 E10.03485
G1 X4.18 Y3.945 E10.05725
G1 X3.646 Y4.442 E10.08
G1 X3.061 Y4.864 E10.10249
G1 X2.436 Y5.205 E10.12469
G1 X1.751 Y5.475 E10.14765
G1 X1.062 Y5.649 E10.16981
G1 X0.342 Y5.738 E10.19243
G1 X-.378 Y5.736 E10.21488
G1 X-1.095 Y5.642 E10.23743
G1 X-1.795 Y5.461 E10.25997
G1 X-2.462 Y5.194 E10.28237
G1 X-3.098 Y4.841 E10.30506
G1 X-3.674 Y4.42 E10.3273
G1 X-4.204 Y3.919 E10.35004
G1 X-4.66 Y3.365 E10.37242
G1 X-5.048 Y2.748 E10.39514
G1 X-5.349 Y2.102 E10.41737
G1 X-5.572 Y1.412 E10.43998
G1 X-5.704 Y0.703 E10.46246
G1 X-5.748 Y-0.025 E10.48521
G0 F4950 X-5.732 Y-.274
G0 X-4.324 Y0.02
G1 F1563 X-4.273 Y0.664 E10.50535
G1 X-4.125 Y1.294 E10.52553
G1 X-3.887 Y1.894 E10.54566
G1 X-3.56 Y2.452 E10.56582
G1 X-3.156 Y2.955 E10.58594
G1 X-2.679 Y3.393 E10.60613
G1 X-2.145 Y3.755 E10.62625
G1 X-1.56 Y4.033 E10.64644
G1 X-.942 Y4.22 E10.66658
G1 X-.303 Y4.313 E10.68671
G1 X0.343 Y4.31 E10.70686
G1 X0.981 Y4.21 E10.72699
G1 X1.597 Y4.018 E10.74711
G1 X2.18 Y3.734 E10.76733
G1 X2.711 Y3.367 E10.78746
G1 X3.184 Y2.926 E10.80762
G1 X3.583 Y2.419 E10.82774
G1 X3.904 Y1.858 E10.8479
G1 X4.137 Y1.256 E10.86802
G1 X4.278 Y0.625 E10.88818
G1 X4.325 Y-0.02 E10.90835
G1 X4.273 Y-.664 E10.9285
G1 X4.125 Y-1.294 E10.94867
G1 X3.887 Y-1.894 E10.9688
G1 X3.56 Y-2.452 E10.98897
G1 X3.156 Y-2.955 E11.00908
G1 X2.679 Y-3.393 E11.02928
G1 X2.145 Y-3.755 E11.04939
G1 X1.56 Y-4.033 E11.06959
G1 X0.942 Y-4.22 E11.08972
G1 X0.303 Y-4.313 E11.10986
G1 X-.343 Y-4.31 E11.13
G1 X-.981 Y-4.21 E11.15014
G1 X-1.597 Y-4.018 E11.17026
G1 X-2.18 Y-3.734 E11.19048
G1 X-2.711 Y-3.367 E11.2106
G1 X-3.184 Y-2.926 E11.23077
G1 X-3.583 Y-2.419 E11.25089
G1 X-3.904 Y-1.858 E11.27104
G1 X-4.137 Y-1.256 E11.29117
G1 X-4.278 Y-.624 E11.31136
G1 X-4.324 Y0.02 E11.33149
G0 F4950 X-4.305 Y0.269
G1 F6600 E9.33149
G0 F4950 X4.825 Y-0.031
;TIME_ELAPSED:10.807252
;LAYER:2
G0 F6600 X4.825 Y-0.031 Z0.6
;TYPE:WALL-INNER
G1 F6600 E11.33149
G1 F1551.3 X4.779 Y-.602 E11.34935
G1 X4.766 Y-.751 E11.35402
G1 X4.664 Y-1.183 E11.36786
G1 X4.6 Y-1.452 E11.37648
G1 X4.484 Y-1.745 E11.38631
G1 X4.334 Y-2.121 E11.39893
G1 X4.238 Y-2.284 E11.40483
G1 X3.969 Y-2.744 E11.42144
G1 X3.924 Y-2.8 E11.42368
G1 X3.516 Y-3.305 E11.44393
G1 X3.077 Y-3.706 E11.46247
G1 X2.983 Y-3.791 E11.46642
G1 X2.585 Y-4.059 E11.48138
G1 X2.385 Y-4.194 E11.4889
G1 X2.069 Y-4.344 E11.49981
G1 X1.733 Y-4.503 E11.5114
G1 X1.522 Y-4.566 E11.51827
G1 X1.042 Y-4.711 E11.5339
G1 X0.949 Y-4.724 E11.53683
G1 X0.329 Y-4.813 E11.55636
