;-- START GCODE --
;Sliced for Type A Machines Series 1
;Sliced at: Fri 23-06-2017 14:40:39
;Basic settings:
;	Layer height: 0.15
;	Walls: 1.6
;	Fill: 5
;	Print Speed: 60
;	Support: 0
;	Retraction Speed: 35
;	Retraction Distance: 0.4
;Print time: 6 hours 28 minutes
;Filament used: 26.747m 79.0g
;Settings based on: Generic PLA
G21        ;metric values
G90        ;absolute positioning
G28     ;move to endstops
G29		;allows for auto-levelling
G1 Z15.0 F12000 ;move the platform down 15mm
G1 X150 Y5 F12000 ;center
M109 S220 ;Heat To temp
G1 X150 Y5 Z0.3 ;move the platform to purge extrusion
G92 E0 ;zero the extruded length
G1 F200 X250 E30 ;extrude 30mm of feed stock
G92 E0 ;zero the extruded length again
G1 X150 Y150  Z25 F12000 ;recenter and begin
G1 F12000

;Layer count: 46
;LAYER:0
M107
G0 F12000 X97.198 Y96.381 Z0.200
G0 X96.986 Y96.603
;TYPE:SKIRT
G1 F1800 X97.198 Y96.381 E0.01021
G1 X100.654 Y93.174 E0.16702
G1 X104.146 Y90.302 E0.31740
G1 X107.949 Y87.523 E0.47406
G1 X111.917 Y84.975 E0.63091
G1 X116.197 Y82.576 E0.79410
G1 X120.276 Y80.612 E0.94467
G1 X124.528 Y78.857 E1.09767
G1 X124.810 Y78.741 E1.10781
G1 X128.979 Y77.317 E1.25434
G1 X129.268 Y77.218 E1.26450
G1 X133.632 Y76.013 E1.41508
G1 X138.130 Y75.045 E1.56810
G1 X138.430 Y74.981 E1.57831
G1 X142.795 Y74.324 E1.72512
G1 X142.795 Y74.325 E1.72516
G1 X143.091 Y74.280 E1.73511
G1 X147.596 Y73.874 E1.88556
G1 X152.496 Y73.715 E2.04862
G1 X156.916 Y73.847 E2.19569
G1 X157.218 Y73.856 E2.20574
G1 X161.716 Y74.262 E2.35596
G1 X166.269 Y74.936 E2.50904
G1 X166.571 Y74.982 E2.51920
G1 X170.889 Y75.899 E2.66602
G1 X171.183 Y75.962 E2.67602
G1 X175.541 Y77.165 E2.82639
G1 X179.905 Y78.643 E2.97964
G1 X180.193 Y78.743 E2.98978
G1 X184.274 Y80.414 E3.13645
G1 X184.552 Y80.528 E3.14644
G1 X188.626 Y82.489 E3.29682
G1 X192.654 Y84.722 E3.45000
G1 X192.921 Y84.872 E3.46019
G1 X196.729 Y87.305 E3.61049
G1 X200.545 Y90.064 E3.76711
G1 X204.194 Y93.049 E3.92391
G1 X207.577 Y96.172 E4.07704
G1 X207.802 Y96.380 E4.08723
G1 X211.060 Y99.788 E4.24405
G1 X213.985 Y103.238 E4.39449
G1 X216.818 Y107.000 E4.55112
G1 X219.426 Y110.927 E4.70791
G1 X221.736 Y114.906 E4.86094
G1 X221.890 Y115.171 E4.87114
G1 X223.914 Y119.219 E5.02166
G1 X225.852 Y123.723 E5.18475
G1 X227.336 Y127.865 E5.33109
G1 X227.442 Y128.157 E5.34142
G1 X228.712 Y132.506 E5.49211
G1 X229.772 Y137.095 E5.64876
G1 X230.556 Y141.744 E5.80557
G1 X231.081 Y146.623 E5.96878
G1 X231.277 Y151.024 E6.11530
G1 X231.278 Y151.024 E6.11534
G1 X231.292 Y151.331 E6.12556
G1 X231.227 Y155.753 E6.27265
G1 X231.222 Y156.053 E6.28263
G1 X230.884 Y160.561 E6.43299
G1 X230.264 Y165.229 E6.58961
G1 X229.365 Y169.858 E6.74645
G1 X228.215 Y174.327 E6.89993
G1 X228.136 Y174.623 E6.91012
G1 X226.775 Y178.814 E7.05668
G1 X226.681 Y179.100 E7.06669
G1 X225.069 Y183.209 E7.21350
G1 X224.959 Y183.490 E7.22353
G1 X223.059 Y187.591 E7.37386
G1 X220.837 Y191.744 E7.53052
G1 X218.425 Y195.668 E7.68372
G1 X218.264 Y195.928 E7.69389
G1 X215.724 Y199.539 E7.84073
G1 X215.550 Y199.785 E7.85075
G1 X212.732 Y203.318 E8.00106
G1 X209.589 Y206.827 E8.15774
G1 X206.316 Y210.067 E8.31092
G1 X206.098 Y210.282 E8.32110
G1 X202.773 Y213.187 E8.46795
G1 X202.546 Y213.385 E8.47797
G1 X198.969 Y216.150 E8.62834
G1 X195.086 Y218.812 E8.78493
G1 X191.045 Y221.242 E8.94176
G1 X186.864 Y223.423 E9.09860
G1 X182.563 Y225.351 E9.25537
G1 X178.154 Y227.020 E9.41217
G1 X173.651 Y228.419 E9.56900
G1 X169.075 Y229.549 E9.72577
G1 X164.552 Y230.381 E9.87873
G1 X164.251 Y230.437 E9.88891
G1 X159.755 Y230.977 E10.03953
G1 X155.055 Y231.271 E10.19615
G1 X150.449 Y231.283 E10.34935
G1 X150.143 Y231.283 E10.35953
G1 X145.629 Y231.013 E10.50993
G1 X140.951 Y230.462 E10.66660
G1 X136.411 Y229.650 E10.82000
G1 X136.111 Y229.594 E10.83015
G1 X131.724 Y228.524 E10.98034
G1 X127.219 Y227.148 E11.13701
G1 X122.802 Y225.501 E11.29380
G1 X118.490 Y223.596 E11.45059
G1 X114.298 Y221.434 E11.60747
G1 X110.246 Y219.025 E11.76426
G1 X106.345 Y216.379 E11.92103
G1 X102.608 Y213.504 E12.07785
G1 X99.133 Y210.484 E12.23098
G1 X98.903 Y210.283 E12.24114
G1 X95.543 Y206.973 E12.39801
G1 X92.517 Y203.612 E12.54843
G1 X89.571 Y199.938 E12.70506
G1 X86.912 Y196.179 E12.85821
G1 X86.737 Y195.929 E12.86835
G1 X84.415 Y192.174 E13.01520
G1 X84.416 Y192.173 E13.01524
G1 X84.257 Y191.918 E13.02524
G1 X82.113 Y187.935 E13.17569
G1 X80.123 Y183.666 E13.33234
G1 X78.431 Y179.386 E13.48542
G1 X78.319 Y179.101 E13.49560
G1 X76.954 Y174.900 E13.64252
G1 X76.861 Y174.615 E13.65249
G1 X75.751 Y170.341 E13.79936
G1 X75.676 Y170.060 E13.80903
G1 X74.802 Y165.613 E13.95977
G1 X74.157 Y160.949 E14.11637
G1 X73.793 Y156.248 E14.27320
G1 X73.713 Y151.645 E14.42631
G1 X73.708 Y151.340 E14.43646
G1 X73.905 Y146.922 E14.58355
G1 X73.920 Y146.621 E14.59357
G1 X74.380 Y142.233 E14.74032
G1 X74.412 Y141.934 E14.75032
G1 X75.152 Y137.477 E14.90059
G1 X76.189 Y132.883 E15.05723
G1 X77.499 Y128.354 E15.21404
G1 X79.079 Y123.912 E15.37085
G1 X80.881 Y119.668 E15.52420
G1 X81.002 Y119.387 E15.53438
G1 X83.022 Y115.347 E15.68461
G1 X85.366 Y111.262 E15.84126
G1 X87.954 Y107.321 E15.99807
G1 X90.772 Y103.542 E16.15486
G1 X93.813 Y99.938 E16.31170
G1 X96.986 Y96.603 E16.46481
G0 F12000 X97.275 Y96.879
G1 F1800 X97.479 Y96.666 E16.47462
G1 X100.917 Y93.476 E16.63061
G1 X104.392 Y90.618 E16.78025
G1 X108.176 Y87.853 E16.93613
G1 X112.123 Y85.318 E17.09215
G1 X116.382 Y82.931 E17.25454
G1 X120.439 Y80.977 E17.40431
G1 X124.680 Y79.227 E17.55690
G1 X124.951 Y79.116 E17.56664
G1 X129.118 Y77.692 E17.71311
G1 X129.118 Y77.693 E17.71314
G1 X129.387 Y77.600 E17.72261
G1 X133.727 Y76.402 E17.87235
G1 X138.214 Y75.436 E18.02501
G1 X138.501 Y75.375 E18.03477
G1 X142.852 Y74.720 E18.18112
G1 X143.139 Y74.677 E18.19077
G1 X147.620 Y74.273 E18.34041
G1 X152.497 Y74.115 E18.50271
G1 X156.904 Y74.247 E18.64935
G1 X157.193 Y74.256 E18.65897
G1 X161.669 Y74.659 E18.80844
G1 X166.209 Y75.331 E18.96109
G1 X166.499 Y75.375 E18.97084
G1 X170.806 Y76.290 E19.11729
G1 X171.088 Y76.351 E19.12689
G1 X175.424 Y77.548 E19.27650
G1 X179.775 Y79.022 E19.42929
G1 X180.052 Y79.117 E19.43903
G1 X184.122 Y80.784 E19.58531
G1 X184.389 Y80.894 E19.59492
G1 X188.442 Y82.845 E19.74453
G1 X192.459 Y85.071 E19.89728
G1 X192.715 Y85.215 E19.90704
G1 X196.504 Y87.635 E20.05658
G1 X200.301 Y90.381 E20.21243
G1 X203.932 Y93.351 E20.36845
G1 X207.305 Y96.466 E20.52116
G1 X207.521 Y96.666 E20.53095
G1 X210.763 Y100.056 E20.68697
G1 X213.673 Y103.488 E20.83662
G1 X216.492 Y107.231 E20.99248
G1 X219.086 Y111.138 E21.14846
G1 X221.391 Y115.107 E21.30111
G1 X221.538 Y115.361 E21.31087
G1 X223.552 Y119.387 E21.46060
G1 X225.480 Y123.870 E21.62291
G1 X226.966 Y128.017 E21.76943
G1 X227.062 Y128.281 E21.77877
G1 X228.325 Y132.607 E21.92866
G1 X229.380 Y137.173 E22.08453
G1 X230.160 Y141.799 E22.24056
G1 X230.682 Y146.653 E22.40294
G1 X230.879 Y151.055 E22.54949
G1 X230.892 Y151.338 E22.55892
G1 X230.827 Y155.747 E22.70558
G1 X230.822 Y156.035 E22.71516
G1 X230.486 Y160.520 E22.86475
G1 X229.869 Y165.165 E23.02060
G1 X228.974 Y169.769 E23.17659
G1 X227.828 Y174.226 E23.32965
G1 X227.752 Y174.510 E23.33943
G1 X226.394 Y178.690 E23.48561
G1 X226.305 Y178.965 E23.49523
G1 X224.697 Y183.062 E23.64161
G1 X224.591 Y183.332 E23.65126
G1 X222.701 Y187.413 E23.80084
G1 X220.490 Y191.545 E23.95671
G1 X218.085 Y195.458 E24.10948
G1 X217.931 Y195.707 E24.11921
G1 X215.397 Y199.308 E24.26567
G1 X215.230 Y199.545 E24.27531
G1 X212.426 Y203.060 E24.42486
G1 X209.299 Y206.552 E24.58077
G1 X206.035 Y209.782 E24.73350
G1 X205.826 Y209.989 E24.74328
G1 X202.510 Y212.885 E24.88971
G1 X202.292 Y213.075 E24.89933
G1 X198.734 Y215.826 E25.04892
G1 X194.870 Y218.476 E25.20475
G1 X190.849 Y220.893 E25.36079
G1 X186.690 Y223.063 E25.51682
G1 X182.410 Y224.981 E25.67281
G1 X178.023 Y226.641 E25.82882
G1 X173.544 Y228.034 E25.98483
G1 X168.991 Y229.157 E26.14080
G1 X164.477 Y229.988 E26.29346
G1 X164.190 Y230.041 E26.30317
G1 X159.718 Y230.578 E26.45298
G1 X155.042 Y230.871 E26.60881
G1 X150.449 Y230.883 E26.76157
G1 X150.155 Y230.883 E26.77135
G1 X145.664 Y230.614 E26.92099
G1 X141.009 Y230.066 E27.07688
G1 X136.483 Y229.256 E27.22981
G1 X136.195 Y229.203 E27.23955
G1 X131.830 Y228.138 E27.38899
G1 X127.348 Y226.769 E27.54486
G1 X122.953 Y225.131 E27.70086
G1 X118.662 Y223.235 E27.85689
G1 X114.492 Y221.084 E28.01295
G1 X110.460 Y218.687 E28.16896
G1 X106.580 Y216.055 E28.32490
G1 X102.861 Y213.195 E28.48095
G1 X99.396 Y210.182 E28.63367
G1 X99.175 Y209.989 E28.64343
G1 X95.832 Y206.697 E28.79948
G1 X92.822 Y203.353 E28.94912
G1 X89.890 Y199.697 E29.10499
G1 X87.239 Y195.948 E29.25771
G1 X87.070 Y195.709 E29.26745
G1 X84.756 Y191.963 E29.41389
G1 X84.604 Y191.718 E29.42348
G1 X82.471 Y187.755 E29.57317
G1 X80.490 Y183.507 E29.72907
G1 X78.804 Y179.239 E29.88170
G1 X78.696 Y178.966 E29.89146
G1 X77.334 Y174.777 E30.03797
G1 X77.245 Y174.503 E30.04755
G1 X76.138 Y170.241 E30.19401
G1 X76.066 Y169.970 E30.20333
G1 X75.196 Y165.547 E30.35326
G1 X74.555 Y160.906 E30.50909
G1 X74.192 Y156.229 E30.66511
G1 X74.112 Y151.638 E30.81783
G1 X74.108 Y151.345 E30.82758
G1 X74.305 Y146.940 E30.97424
G1 X74.319 Y146.652 E30.98383
G1 X74.778 Y142.276 E31.13017
G1 X74.809 Y141.989 E31.13977
G1 X75.545 Y137.554 E31.28930
G1 X76.577 Y132.982 E31.44519
G1 X77.880 Y128.477 E31.60117
G1 X79.452 Y124.057 E31.75720
G1 X81.249 Y119.825 E31.91012
G1 X81.364 Y119.556 E31.91985
G1 X83.375 Y115.536 E32.06935
G1 X85.707 Y111.471 E32.22522
G1 X88.282 Y107.551 E32.38122
G1 X91.085 Y103.791 E32.53720
G1 X94.111 Y100.205 E32.69326
G1 X97.275 Y96.879 E32.84595
G0 F12000 X97.565 Y97.155
G1 F1800 X97.759 Y96.951 E32.85531
G1 X101.180 Y93.777 E33.01052
G1 X104.637 Y90.934 E33.15939
G1 X108.402 Y88.183 E33.31448
G1 X112.329 Y85.661 E33.46971
G1 X116.566 Y83.286 E33.63126
G1 X120.602 Y81.343 E33.78025
G1 X124.832 Y79.597 E33.93245
G1 X125.092 Y79.490 E33.94180
G1 X129.247 Y78.071 E34.08783
G1 X129.247 Y78.072 E34.08787
G1 X129.505 Y77.982 E34.09696
G1 X133.823 Y76.790 E34.24594
G1 X138.298 Y75.827 E34.39819
G1 X138.573 Y75.769 E34.40754
G1 X142.914 Y75.115 E34.55355
G1 X142.914 Y75.116 E34.55358
G1 X143.187 Y75.074 E34.56277
G1 X147.645 Y74.672 E34.71165
G1 X152.497 Y74.516 E34.87311
G1 X156.892 Y74.646 E35.01935
G1 X157.169 Y74.655 E35.02857
G1 X161.622 Y75.057 E35.17728
G1 X166.150 Y75.727 E35.32952
G1 X166.428 Y75.769 E35.33887
G1 X170.722 Y76.682 E35.48488
G1 X170.993 Y76.739 E35.49409
G1 X175.306 Y77.930 E35.64291
G1 X179.646 Y79.400 E35.79532
G1 X179.911 Y79.492 E35.80465
G1 X183.970 Y81.154 E35.95053
G1 X184.226 Y81.259 E35.95973
G1 X188.258 Y83.200 E36.10857
G1 X192.264 Y85.421 E36.26091
G1 X192.510 Y85.559 E36.27030
G1 X196.279 Y87.966 E36.41904
G1 X200.057 Y90.698 E36.57410
G1 X203.669 Y93.653 E36.72932
G1 X207.034 Y96.759 E36.88163
G1 X207.240 Y96.951 E36.89100
G1 X210.465 Y100.323 E37.04619
G1 X213.360 Y103.738 E37.19509
G1 X216.165 Y107.462 E37.35016
G1 X218.746 Y111.350 E37.50537
G1 X221.185 Y115.550 E37.66691
G1 X223.189 Y119.556 E37.81589
G1 X225.108 Y124.016 E37.97738
G1 X226.584 Y128.139 E38.12304
G1 X226.682 Y128.406 E38.13250
G1 X227.938 Y132.708 E38.28155
G1 X228.987 Y137.251 E38.43663
G1 X229.763 Y141.854 E38.59189
G1 X230.283 Y146.683 E38.75343
G1 X230.479 Y151.063 E38.89925
G1 X230.492 Y151.344 E38.90861
G1 X230.427 Y155.740 E39.05484
G1 X230.422 Y156.017 E39.06405
G1 X230.088 Y160.479 E39.21287
G1 X229.474 Y165.100 E39.36792
G1 X228.584 Y169.681 E39.52313
G1 X227.441 Y174.125 E39.67575
G1 X227.369 Y174.397 E39.68511
G1 X226.014 Y178.566 E39.83091
G1 X225.928 Y178.829 E39.84012
G1 X224.325 Y182.916 E39.98613
G1 X224.223 Y183.175 E39.99539
G1 X222.343 Y187.234 E40.14417
G1 X220.143 Y191.345 E40.29925
G1 X217.745 Y195.248 E40.45161
G1 X217.597 Y195.487 E40.46096
G1 X215.070 Y199.078 E40.60700
G1 X214.910 Y199.305 E40.61624
G1 X212.121 Y202.802 E40.76501
G1 X209.009 Y206.276 E40.92014
G1 X205.754 Y209.498 E41.07247
G1 X205.553 Y209.695 E41.08183
G1 X202.247 Y212.584 E41.22786
G1 X202.038 Y212.766 E41.23708
G1 X198.498 Y215.503 E41.38590
G1 X194.654 Y218.139 E41.54093
G1 X190.653 Y220.544 E41.69619
G1 X186.516 Y222.703 E41.85140
G1 X182.257 Y224.611 E42.00662
G1 X177.893 Y226.263 E42.16182
G1 X173.436 Y227.648 E42.31705
G1 X168.906 Y228.766 E42.47224
G1 X164.407 Y229.594 E42.62439
G1 X164.130 Y229.645 E42.63376
G1 X159.682 Y230.180 E42.78277
G1 X155.029 Y230.471 E42.93783
G1 X150.448 Y230.483 E43.09020
G1 X150.167 Y230.483 E43.09954
G1 X145.700 Y230.215 E43.24838
G1 X141.068 Y229.670 E43.40351
G1 X136.554 Y228.863 E43.55602
G1 X136.278 Y228.812 E43.56536
G1 X131.936 Y227.752 E43.71401
G1 X127.476 Y226.390 E43.86912
G1 X123.104 Y224.760 E44.02431
G1 X118.835 Y222.874 E44.17954
G1 X114.687 Y220.734 E44.33478
G1 X110.675 Y218.349 E44.49001
G1 X106.814 Y215.731 E44.64517
G1 X103.115 Y212.885 E44.80040
G1 X99.659 Y209.880 E44.95272
G1 X99.447 Y209.696 E44.96206
G1 X96.122 Y206.420 E45.11731
G1 X93.127 Y203.094 E45.26617
G1 X90.210 Y199.456 E45.42127
G1 X87.566 Y195.717 E45.57358
G1 X87.404 Y195.488 E45.58291
G1 X85.096 Y191.753 E45.72894
G1 X84.950 Y191.518 E45.73814
G1 X82.828 Y187.576 E45.88704
G1 X80.858 Y183.349 E46.04215
G1 X79.176 Y179.093 E46.19436
G1 X79.072 Y178.831 E46.20373
G1 X77.715 Y174.653 E46.34984
G1 X77.629 Y174.391 E46.35901
G1 X76.525 Y170.140 E46.50509
G1 X76.456 Y169.880 E46.51404
G1 X75.591 Y165.481 E46.66315
G1 X74.953 Y160.864 E46.81817
G1 X74.592 Y156.210 E46.97343
G1 X74.512 Y151.631 E47.12575
G1 X74.508 Y151.351 E47.13507
G1 X74.704 Y146.959 E47.28129
G1 X74.718 Y146.682 E47.29051
G1 X75.176 Y142.318 E47.43646
G1 X75.205 Y142.043 E47.44566
G1 X75.938 Y137.631 E47.59441
G1 X76.964 Y133.082 E47.74951
G1 X78.261 Y128.600 E47.90470
G1 X79.824 Y124.202 E48.05994
G1 X81.616 Y119.982 E48.21243
G1 X81.727 Y119.724 E48.22177
G1 X83.727 Y115.725 E48.37049
G1 X86.048 Y111.681 E48.52557
G1 X88.610 Y107.780 E48.68080
G1 X91.399 Y104.039 E48.83599
G1 X94.409 Y100.472 E48.99123
G1 X97.565 Y97.155 E49.14351
G0 F12000 X97.854 Y97.431
G1 F1800 X98.040 Y97.236 E49.15247
G1 X101.443 Y94.078 E49.30689
G1 X104.882 Y91.251 E49.45495
G1 X108.628 Y88.514 E49.60926
G1 X112.536 Y86.004 E49.76374
G1 X116.751 Y83.641 E49.92446
G1 X120.765 Y81.708 E50.07264
G1 X124.984 Y79.967 E50.22444
G1 X125.232 Y79.865 E50.23336
G1 X129.370 Y78.452 E50.37880
G1 X129.624 Y78.364 E50.38774
G1 X133.918 Y77.179 E50.53589
G1 X138.382 Y76.219 E50.68776
G1 X138.644 Y76.163 E50.69667
G1 X142.972 Y75.511 E50.84225
G1 X143.234 Y75.472 E50.85106
G1 X147.669 Y75.072 E50.99916
G1 X152.498 Y74.916 E51.15986
G1 X156.879 Y75.046 E51.30564
G1 X157.145 Y75.055 E51.31449
G1 X161.574 Y75.454 E51.46240
G1 X166.091 Y76.123 E51.61427
G1 X166.356 Y76.163 E51.62318
G1 X170.639 Y77.073 E51.76882
G1 X170.898 Y77.128 E51.77762
G1 X175.189 Y78.313 E51.92569
G1 X179.517 Y79.779 E52.07767
G1 X179.770 Y79.866 E52.08657
G1 X183.818 Y81.524 E52.23206
G1 X184.063 Y81.625 E52.24087
G1 X188.074 Y83.556 E52.38894
G1 X192.069 Y85.770 E52.54085
G1 X192.304 Y85.902 E52.54982
G1 X196.054 Y88.297 E52.69781
G1 X199.813 Y91.015 E52.85209
G1 X203.406 Y93.955 E53.00650
G1 X206.762 Y97.053 E53.15841
G1 X206.959 Y97.236 E53.16736
G1 X210.168 Y100.591 E53.32177
G1 X213.048 Y103.988 E53.46990
G1 X215.838 Y107.694 E53.62418
G1 X218.406 Y111.561 E53.77858
G1 X220.833 Y115.741 E53.93934
G1 X222.826 Y119.725 E54.08750
G1 X224.735 Y124.163 E54.24819
G1 X226.213 Y128.287 E54.39390
G1 X226.212 Y128.287 E54.39393
G1 X226.301 Y128.531 E54.40257
G1 X227.551 Y132.809 E54.55080
G1 X228.595 Y137.330 E54.70513
G1 X229.367 Y141.908 E54.85955
G1 X229.884 Y146.714 E55.02032
G1 X230.079 Y151.082 E55.16574
G1 X230.092 Y151.351 E55.17470
G1 X230.027 Y155.734 E55.32049
G1 X230.022 Y155.999 E55.32931
G1 X229.690 Y160.438 E55.47736
G1 X229.079 Y165.036 E55.63164
G1 X228.193 Y169.593 E55.78604
G1 X227.054 Y174.024 E55.93821
G1 X226.985 Y174.284 E55.94716
G1 X225.633 Y178.442 E56.09258
G1 X225.551 Y178.694 E56.10139
G1 X223.953 Y182.770 E56.24701
G1 X223.855 Y183.017 E56.25585
G1 X221.985 Y187.056 E56.40388
G1 X219.796 Y191.146 E56.55817
G1 X217.404 Y195.038 E56.71012
G1 X217.263 Y195.266 E56.71903
G1 X214.743 Y198.848 E56.86470
G1 X214.590 Y199.065 E56.87353
G1 X211.815 Y202.543 E57.02152
G1 X208.720 Y206.000 E57.17585
G1 X205.473 Y209.213 E57.32778
G1 X205.281 Y209.402 E57.33674
G1 X201.984 Y212.283 E57.48236
G1 X201.784 Y212.457 E57.49118
G1 X198.263 Y215.179 E57.63921
G1 X194.437 Y217.802 E57.79349
G1 X190.457 Y220.195 E57.94795
G1 X186.341 Y222.343 E58.10237
G1 X182.105 Y224.241 E58.25676
G1 X177.763 Y225.884 E58.41117
G1 X173.329 Y227.263 E58.56561
G1 X168.822 Y228.375 E58.72001
G1 X164.334 Y229.201 E58.87179
G1 X164.070 Y229.250 E58.88072
G1 X159.645 Y229.781 E59.02895
G1 X155.016 Y230.071 E59.18321
G1 X150.447 Y230.083 E59.33518
G1 X150.179 Y230.083 E59.34409
G1 X145.735 Y229.817 E59.49217
G1 X141.127 Y229.274 E59.64649
G1 X136.626 Y228.469 E59.79857
G1 X136.362 Y228.420 E59.80750
G1 X132.041 Y227.366 E59.95543
G1 X127.604 Y226.011 E60.10973
G1 X123.255 Y224.389 E60.26411
G1 X119.008 Y222.513 E60.41854
G1 X114.881 Y220.384 E60.57299
G1 X110.890 Y218.011 E60.72742
G1 X107.048 Y215.406 E60.88181
G1 X103.368 Y212.575 E61.03624
G1 X99.921 Y209.579 E61.18814
G1 X99.720 Y209.403 E61.19702
G1 X96.411 Y206.144 E61.35150
G1 X93.432 Y202.834 E61.49961
G1 X90.530 Y199.215 E61.65390
G1 X87.893 Y195.486 E61.80580
G1 X87.738 Y195.267 E61.81473
G1 X85.436 Y191.543 E61.96034
G1 X85.297 Y191.317 E61.96917
G1 X83.186 Y187.396 E62.11728
G1 X81.226 Y183.191 E62.27158
G1 X79.548 Y178.946 E62.42340
G1 X79.449 Y178.695 E62.43238
G1 X78.095 Y174.529 E62.57807
G1 X78.013 Y174.278 E62.58686
G1 X76.912 Y170.040 E62.73249
G1 X76.913 Y170.040 E62.73253
G1 X76.846 Y169.790 E62.74113
G1 X75.986 Y165.415 E62.88943
G1 X75.351 Y160.821 E63.04368
G1 X74.992 Y156.191 E63.19814
G1 X74.912 Y151.624 E63.35006
G1 X74.908 Y151.357 E63.35894
G1 X75.104 Y146.977 E63.50477
G1 X75.117 Y146.713 E63.51356
G1 X75.574 Y142.360 E63.65914
G1 X75.602 Y142.097 E63.66793
G1 X76.330 Y137.708 E63.81591
G1 X77.352 Y133.182 E63.97023
G1 X78.642 Y128.723 E64.12462
G1 X80.197 Y124.348 E64.27905
G1 X81.984 Y120.139 E64.43114
G1 X82.090 Y119.893 E64.44005
G1 X84.080 Y115.915 E64.58799
G1 X86.389 Y111.890 E64.74232
G1 X88.937 Y108.010 E64.89671
G1 X91.712 Y104.288 E65.05113
G1 X94.707 Y100.739 E65.20558
G1 X97.854 Y97.431 E65.35744
G0 F12000 X98.144 Y97.707
G1 F1800 X98.321 Y97.521 E65.36598
G1 X101.707 Y94.380 E65.51959
G1 X105.127 Y91.567 E65.66688
G1 X108.855 Y88.844 E65.82043
G1 X112.742 Y86.347 E65.97408
G1 X116.936 Y83.996 E66.13400
G1 X120.928 Y82.073 E66.28138
G1 X125.137 Y80.337 E66.43281
G1 X125.373 Y80.240 E66.44129
G1 X129.506 Y78.828 E66.58656
G1 X129.742 Y78.747 E66.59486
G1 X134.013 Y77.568 E66.74223
G1 X138.465 Y76.610 E66.89369
G1 X138.716 Y76.556 E66.90223
G1 X143.032 Y75.907 E67.04739
G1 X143.282 Y75.869 E67.05580
G1 X147.694 Y75.471 E67.20314
G1 X152.498 Y75.316 E67.36301
G1 X156.867 Y75.446 E67.50839
G1 X157.120 Y75.454 E67.51680
G1 X161.527 Y75.852 E67.66398
G1 X166.032 Y76.518 E67.81544
G1 X166.285 Y76.557 E67.82396
G1 X170.556 Y77.464 E67.96918
G1 X170.803 Y77.517 E67.97758
G1 X175.071 Y78.695 E68.12484
G1 X179.387 Y80.157 E68.27641
G1 X179.629 Y80.240 E68.28492
G1 X183.667 Y81.894 E68.43005
G1 X183.901 Y81.990 E68.43846
G1 X187.890 Y83.911 E68.58572
G1 X191.874 Y86.120 E68.73724
G1 X192.098 Y86.245 E68.74577
G1 X195.829 Y88.628 E68.89301
G1 X199.569 Y91.333 E69.04653
G1 X203.144 Y94.257 E69.20014
G1 X206.490 Y97.346 E69.35160
G1 X206.678 Y97.521 E69.36015
G1 X209.870 Y100.859 E69.51376
G1 X212.735 Y104.238 E69.66111
G1 X215.512 Y107.925 E69.81463
G1 X218.066 Y111.772 E69.96821
G1 X220.481 Y115.931 E70.12817
G1 X222.463 Y119.893 E70.27552
G1 X224.363 Y124.310 E70.43544
G1 X225.832 Y128.412 E70.58036
G1 X225.833 Y128.412 E70.58039
G1 X225.921 Y128.655 E70.58899
G1 X227.163 Y132.911 E70.73645
G1 X228.202 Y137.408 E70.88996
G1 X228.970 Y141.963 E71.04360
G1 X229.485 Y146.744 E71.20353
G1 X229.680 Y151.109 E71.34886
G1 X229.679 Y151.109 E71.34889
G1 X229.692 Y151.357 E71.35715
G1 X229.627 Y155.728 E71.50255
G1 X229.623 Y155.981 E71.51096
G1 X229.292 Y160.396 E71.65822
G1 X228.684 Y164.971 E71.81172
G1 X227.803 Y169.505 E71.96534
G1 X226.667 Y173.923 E72.11707
G1 X226.601 Y174.170 E72.12557
G1 X225.253 Y178.319 E72.27067
G1 X225.175 Y178.559 E72.27906
G1 X223.580 Y182.623 E72.42427
G1 X223.487 Y182.859 E72.43271
G1 X221.627 Y186.877 E72.57997
G1 X219.449 Y190.947 E72.73350
G1 X217.064 Y194.828 E72.88501
G1 X216.929 Y195.046 E72.89354
G1 X214.416 Y198.617 E73.03877
G1 X214.270 Y198.824 E73.04720
G1 X211.510 Y202.285 E73.19443
G1 X208.430 Y205.724 E73.34798
G1 X205.192 Y208.928 E73.49949
G1 X205.009 Y209.108 E73.50803
G1 X201.721 Y211.981 E73.65325
G1 X201.530 Y212.148 E73.66169
G1 X198.027 Y214.856 E73.80896
G1 X194.221 Y217.466 E73.96245
G1 X190.262 Y219.846 E74.11609
G1 X186.167 Y221.983 E74.26972
G1 X181.952 Y223.871 E74.42333
G1 X177.633 Y225.506 E74.57693
G1 X173.222 Y226.877 E74.73056
G1 X168.738 Y227.984 E74.88418
G1 X164.260 Y228.808 E75.03562
G1 X164.260 Y228.807 E75.03565
G1 X164.009 Y228.854 E75.04415
G1 X159.609 Y229.383 E75.19155
G1 X155.003 Y229.671 E75.34504
G1 X150.447 Y229.683 E75.49657
G1 X150.191 Y229.683 E75.50509
G1 X145.770 Y229.418 E75.65240
G1 X141.185 Y228.878 E75.80595
G1 X136.697 Y228.076 E75.95758
G1 X136.446 Y228.029 E75.96608
G1 X132.147 Y226.980 E76.11326
G1 X127.733 Y225.632 E76.26676
G1 X123.405 Y224.019 E76.42038
G1 X119.180 Y222.152 E76.57402
G1 X115.075 Y220.034 E76.72765
G1 X111.104 Y217.674 E76.88129
G1 X107.283 Y215.082 E77.03486
G1 X103.621 Y212.266 E77.18851
G1 X100.184 Y209.277 E77.34000
G1 X99.992 Y209.109 E77.34849
G1 X96.700 Y205.867 E77.50216
G1 X93.737 Y202.575 E77.64947
G1 X90.849 Y198.975 E77.80298
G1 X88.219 Y195.255 E77.95450
G1 X88.072 Y195.047 E77.96298
G1 X85.777 Y191.334 E78.10816
G1 X85.643 Y191.117 E78.11664
G1 X83.544 Y187.217 E78.26395
G1 X81.593 Y183.033 E78.41749
G1 X79.920 Y178.799 E78.56891
G1 X79.826 Y178.560 E78.57745
G1 X78.477 Y174.408 E78.72266
G1 X78.476 Y174.408 E78.72269
G1 X78.397 Y174.166 E78.73116
G1 X77.300 Y169.939 E78.87640
G1 X77.236 Y169.700 E78.88463
G1 X76.380 Y165.349 E79.03212
G1 X75.749 Y160.778 E79.18560
G1 X75.391 Y156.172 E79.33925
G1 X75.312 Y151.618 E79.49074
G1 X75.308 Y151.363 E79.49923
G1 X75.503 Y146.996 E79.64462
G1 X75.516 Y146.743 E79.65304
G1 X75.971 Y142.403 E79.79818
G1 X75.998 Y142.151 E79.80661
G1 X76.723 Y137.784 E79.95385
G1 X77.739 Y133.282 E80.10735
G1 X79.023 Y128.845 E80.26098
G1 X80.570 Y124.493 E80.41460
G1 X82.352 Y120.296 E80.56626
G1 X82.453 Y120.061 E80.57476
G1 X84.432 Y116.104 E80.72192
G1 X86.730 Y112.100 E80.87547
G1 X89.265 Y108.239 E81.02909
G1 X92.026 Y104.537 E81.18269
G1 X95.005 Y101.006 E81.33635
G1 X98.144 Y97.707 E81.48780
G0 F12000 X98.433 Y97.983
G1 F1800 X98.602 Y97.806 E81.49594
G1 X101.970 Y94.681 E81.64876
G1 X105.373 Y91.883 E81.79529
G1 X109.081 Y89.174 E81.94802
G1 X112.948 Y86.690 E82.10089
G1 X117.121 Y84.351 E82.26000
G1 X121.092 Y82.439 E82.40659
G1 X125.289 Y80.706 E82.55761
G1 X125.514 Y80.614 E82.56570
G1 X129.631 Y79.208 E82.71039
G1 X129.861 Y79.129 E82.71848
G1 X134.109 Y77.956 E82.86506
G1 X138.549 Y77.001 E83.01611
G1 X138.787 Y76.950 E83.02421
G1 X143.092 Y76.302 E83.16900
G1 X143.330 Y76.266 E83.17701
G1 X147.718 Y75.871 E83.32355
G1 X152.499 Y75.716 E83.48265
G1 X156.855 Y75.846 E83.62759
G1 X157.096 Y75.854 E83.63561
G1 X161.480 Y76.249 E83.78202
G1 X165.972 Y76.914 E83.93305
G1 X166.213 Y76.950 E83.94115
G1 X170.473 Y77.855 E84.08600
G1 X170.708 Y77.906 E84.09400
G1 X174.954 Y79.078 E84.24050
G1 X179.258 Y80.536 E84.39165
G1 X179.488 Y80.615 E84.39974
G1 X183.515 Y82.265 E84.54448
G1 X183.738 Y82.356 E84.55249
G1 X187.706 Y84.267 E84.69898
G1 X191.680 Y86.469 E84.85009
G1 X191.893 Y86.588 E84.85820
G1 X195.604 Y88.959 E85.00467
G1 X199.325 Y91.650 E85.15740
G1 X202.881 Y94.559 E85.31021
G1 X206.219 Y97.640 E85.46130
G1 X206.398 Y97.806 E85.46942
G1 X209.573 Y101.127 E85.62223
G1 X212.423 Y104.488 E85.76880
G1 X215.185 Y108.156 E85.92152
G1 X217.726 Y111.983 E86.07430
G1 X220.129 Y116.121 E86.23346
G1 X222.100 Y120.062 E86.38002
G1 X223.991 Y124.456 E86.53912
G1 X225.457 Y128.549 E86.68372
G1 X225.541 Y128.780 E86.69190
G1 X226.776 Y133.012 E86.83853
G1 X227.810 Y137.486 E86.99125
G1 X228.574 Y142.018 E87.14412
G1 X229.086 Y146.774 E87.30322
G1 X229.280 Y151.120 E87.44791
G1 X229.292 Y151.364 E87.45603
G1 X229.227 Y155.722 E87.60100
G1 X229.223 Y155.963 E87.60901
G1 X228.894 Y160.355 E87.75550
G1 X228.289 Y164.907 E87.90823
G1 X227.413 Y169.417 E88.06104
G1 X226.280 Y173.822 E88.21232
G1 X226.217 Y174.057 E88.22041
G1 X224.873 Y178.195 E88.36512
G1 X224.798 Y178.424 E88.37313
G1 X223.208 Y182.477 E88.51794
G1 X223.119 Y182.702 E88.52599
G1 X221.269 Y186.699 E88.67248
G1 X219.102 Y190.748 E88.82522
G1 X216.723 Y194.618 E88.97631
G1 X216.595 Y194.825 E88.98441
G1 X214.089 Y198.387 E89.12926
G1 X213.950 Y198.584 E89.13728
G1 X211.204 Y202.027 E89.28376
G1 X208.140 Y205.448 E89.43651
G1 X204.911 Y208.644 E89.58761
G1 X204.737 Y208.815 E89.59573
G1 X201.458 Y211.680 E89.74055
G1 X201.276 Y211.838 E89.74857
G1 X197.791 Y214.532 E89.89508
G1 X194.005 Y217.129 E90.04778
G1 X190.066 Y219.497 E90.20064
G1 X185.992 Y221.623 E90.35348
G1 X181.799 Y223.502 E90.50631
G1 X177.502 Y225.128 E90.65911
G1 X173.114 Y226.492 E90.81195
G1 X168.654 Y227.593 E90.96474
G1 X164.189 Y228.414 E91.11574
G1 X163.949 Y228.458 E91.12385
G1 X159.573 Y228.984 E91.27045
G1 X154.990 Y229.271 E91.42318
G1 X150.446 Y229.283 E91.57431
G1 X150.203 Y229.283 E91.58239
G1 X145.806 Y229.020 E91.72890
G1 X141.244 Y228.482 E91.88168
G1 X136.769 Y227.682 E92.03288
G1 X136.530 Y227.638 E92.04097
G1 X132.253 Y226.595 E92.18739
G1 X127.861 Y225.253 E92.34013
G1 X123.556 Y223.648 E92.49295
G1 X119.353 Y221.791 E92.64578
G1 X115.269 Y219.684 E92.79862
G1 X111.319 Y217.336 E92.95146
G1 X107.517 Y214.758 E93.10424
G1 X103.875 Y211.956 E93.25708
G1 X100.447 Y208.975 E93.40817
G1 X100.264 Y208.816 E93.41624
G1 X96.989 Y205.590 E93.56913
G1 X94.042 Y202.316 E93.71564
G1 X91.169 Y198.734 E93.86837
G1 X88.546 Y195.025 E94.01946
G1 X88.406 Y194.826 E94.02756
G1 X85.990 Y190.917 E94.18040
G1 X83.901 Y187.038 E94.32693
G1 X81.961 Y182.875 E94.47969
G1 X80.292 Y178.652 E94.63072
G1 X80.202 Y178.425 E94.63884
G1 X78.856 Y174.282 E94.78373
G1 X78.782 Y174.054 E94.79170
G1 X77.687 Y169.839 E94.93655
G1 X77.626 Y169.610 E94.94443
G1 X76.775 Y165.283 E95.09110
G1 X76.147 Y160.735 E95.24380
G1 X75.791 Y156.153 E95.39666
G1 X75.712 Y151.611 E95.54775
G1 X75.708 Y151.368 E95.55584
G1 X75.903 Y147.015 E95.70076
G1 X75.915 Y146.774 E95.70879
G1 X76.369 Y142.445 E95.85356
G1 X76.395 Y142.205 E95.86159
G1 X77.116 Y137.861 E96.00805
G1 X78.127 Y133.381 E96.16080
G1 X79.404 Y128.968 E96.31360
G1 X80.943 Y124.638 E96.46644
G1 X82.720 Y120.454 E96.61763
G1 X82.816 Y120.230 E96.62574
G1 X84.785 Y116.293 E96.77215
G1 X87.071 Y112.309 E96.92492
G1 X89.593 Y108.469 E97.07772
G1 X92.339 Y104.786 E97.23052
G1 X95.303 Y101.273 E97.38339
G1 X98.433 Y97.983 E97.53443
G0 F12000 X98.723 Y98.259
G1 F1800 X98.883 Y98.091 E97.54215
G1 X102.233 Y94.982 E97.69416
G1 X105.618 Y92.199 E97.83991
G1 X109.307 Y89.504 E97.99186
G1 X113.154 Y87.033 E98.14393
G1 X117.305 Y84.706 E98.30221
G1 X121.255 Y82.804 E98.44802
G1 X125.441 Y81.076 E98.59865
G1 X125.655 Y80.989 E98.60633
G1 X129.761 Y79.586 E98.75065
G1 X129.979 Y79.511 E98.75832
G1 X134.204 Y78.345 E98.90409
G1 X138.633 Y77.392 E99.05478
G1 X138.859 Y77.344 E99.06246
G1 X143.151 Y76.698 E99.20682
G1 X143.378 Y76.663 E99.21446
G1 X147.742 Y76.270 E99.36019
G1 X152.499 Y76.116 E99.51850
G1 X156.842 Y76.246 E99.66301
G1 X157.071 Y76.253 E99.67063
G1 X161.432 Y76.646 E99.81626
G1 X165.913 Y77.309 E99.96693
G1 X166.141 Y77.344 E99.97460
G1 X170.613 Y78.294 E100.12666
G1 X174.836 Y79.460 E100.27237
G1 X179.129 Y80.914 E100.42312
G1 X179.347 Y80.989 E100.43079
G1 X183.575 Y82.721 E100.58276
G1 X187.523 Y84.622 E100.72850
G1 X191.485 Y86.818 E100.87916
G1 X191.687 Y86.932 E100.88688
G1 X195.379 Y89.290 E101.03258
G1 X199.081 Y91.967 E101.18453
G1 X202.619 Y94.861 E101.33656
G1 X205.947 Y97.933 E101.48719
G1 X206.117 Y98.091 E101.49491
G1 X209.276 Y101.395 E101.64695
G1 X212.110 Y104.737 E101.79269
G1 X214.858 Y108.387 E101.94465
G1 X217.387 Y112.195 E102.09669
G1 X219.777 Y116.311 E102.25500
G1 X221.737 Y120.231 E102.40077
G1 X223.618 Y124.603 E102.55907
G1 X225.081 Y128.686 E102.70332
G1 X225.160 Y128.904 E102.71103
G1 X226.389 Y133.113 E102.85687
G1 X227.418 Y137.565 E103.00885
G1 X228.177 Y142.073 E103.16090
G1 X228.687 Y146.805 E103.31920
G1 X228.881 Y151.144 E103.46366
G1 X228.880 Y151.144 E103.46369
G1 X228.892 Y151.371 E103.47125
G1 X228.827 Y155.716 E103.61578
G1 X228.823 Y155.945 E103.62340
G1 X228.496 Y160.314 E103.76912
G1 X227.894 Y164.842 E103.92105
G1 X227.022 Y169.329 E104.07308
G1 X225.893 Y173.721 E104.22390
G1 X225.833 Y173.944 E104.23158
G1 X224.492 Y178.071 E104.37591
G1 X224.421 Y178.289 E104.38354
G1 X222.836 Y182.330 E104.52791
G1 X222.751 Y182.544 E104.53557
G1 X220.910 Y186.520 E104.68130
G1 X218.755 Y190.548 E104.83324
G1 X216.383 Y194.408 E104.98393
G1 X216.261 Y194.605 E104.99164
G1 X213.762 Y198.156 E105.13606
G1 X213.630 Y198.344 E105.14370
G1 X210.899 Y201.768 E105.28937
G1 X207.850 Y205.172 E105.44136
G1 X204.630 Y208.359 E105.59205
G1 X204.465 Y208.522 E105.59976
G1 X201.195 Y211.379 E105.74419
G1 X201.022 Y211.529 E105.75180
G1 X197.556 Y214.209 E105.89752
G1 X193.788 Y216.792 E106.04947
G1 X189.870 Y219.148 E106.20153
G1 X185.818 Y221.262 E106.35354
G1 X181.646 Y223.132 E106.50560
G1 X177.372 Y224.749 E106.65759
G1 X173.007 Y226.106 E106.80962
G1 X168.570 Y227.201 E106.96162
G1 X164.116 Y228.021 E107.11225
G1 X163.889 Y228.063 E107.11993
G1 X159.536 Y228.586 E107.26575
G1 X154.977 Y228.871 E107.41768
G1 X150.446 Y228.883 E107.56839
G1 X150.215 Y228.883 E107.57607
G1 X145.841 Y228.621 E107.72181
G1 X141.303 Y228.086 E107.87379
G1 X136.841 Y227.288 E108.02455
G1 X136.614 Y227.246 E108.03223
G1 X132.359 Y226.209 E108.17789
G1 X127.990 Y224.874 E108.32984
G1 X123.707 Y223.277 E108.48187
G1 X119.526 Y221.430 E108.63390
G1 X115.463 Y219.334 E108.78596
G1 X111.534 Y216.998 E108.93799
G1 X107.752 Y214.433 E109.08998
G1 X104.128 Y211.646 E109.24203
G1 X100.710 Y208.674 E109.39268
G1 X100.536 Y208.522 E109.40037
G1 X97.279 Y205.314 E109.55242
G1 X94.347 Y202.057 E109.69818
G1 X91.488 Y198.493 E109.85014
G1 X88.873 Y194.794 E110.00081
G1 X88.740 Y194.605 E110.00850
G1 X86.336 Y190.716 E110.16056
G1 X84.259 Y186.858 E110.30629
G1 X82.328 Y182.717 E110.45826
G1 X80.664 Y178.505 E110.60889
G1 X80.579 Y178.290 E110.61658
G1 X79.237 Y174.159 E110.76105
G1 X79.166 Y173.941 E110.76867
G1 X78.074 Y169.738 E110.91311
G1 X78.016 Y169.520 E110.92061
G1 X77.170 Y165.217 E111.06647
G1 X76.544 Y160.692 E111.21840
G1 X76.191 Y156.134 E111.37046
G1 X76.112 Y151.604 E111.52115
G1 X76.108 Y151.374 E111.52880
G1 X76.303 Y147.033 E111.67333
G1 X76.314 Y146.804 E111.68095
G1 X76.767 Y142.487 E111.82532
G1 X76.791 Y142.259 E111.83295
G1 X77.508 Y137.938 E111.97863
G1 X78.515 Y133.481 E112.13061
G1 X79.785 Y129.091 E112.28261
G1 X81.316 Y124.783 E112.43467
G1 X83.088 Y120.611 E112.58543
G1 X83.179 Y120.399 E112.59310
G1 X85.138 Y116.482 E112.73877
G1 X87.412 Y112.519 E112.89074
G1 X89.921 Y108.699 E113.04274
G1 X92.653 Y105.034 E113.19478
G1 X95.601 Y101.540 E113.34683
G1 X98.723 Y98.259 E113.49747
G0 F12000 X99.012 Y98.535
G1 F1800 X99.164 Y98.376 E113.50478
G1 X102.497 Y95.284 E113.65600
G1 X105.863 Y92.515 E113.80096
G1 X109.533 Y89.834 E113.95213
G1 X113.360 Y87.376 E114.10341
G1 X117.490 Y85.061 E114.26088
G1 X121.418 Y83.170 E114.40588
G1 X125.593 Y81.446 E114.55611
G1 X125.795 Y81.363 E114.56338
G1 X129.894 Y79.964 E114.70743
G1 X130.098 Y79.893 E114.71462
G1 X134.300 Y78.733 E114.85960
G1 X138.717 Y77.783 E115.00987
G1 X138.930 Y77.738 E115.01711
G1 X143.427 Y77.061 E115.16837
G1 X147.767 Y76.669 E115.31331
G1 X152.500 Y76.517 E115.47081
G1 X156.830 Y76.645 E115.61489
G1 X157.047 Y76.652 E115.62211
G1 X161.385 Y77.044 E115.76698
G1 X165.854 Y77.705 E115.91723
G1 X166.070 Y77.738 E115.92450
G1 X170.518 Y78.683 E116.07575
G1 X174.719 Y79.843 E116.22070
G1 X178.999 Y81.293 E116.37100
G1 X179.206 Y81.364 E116.37828
G1 X183.412 Y83.087 E116.52945
G1 X187.339 Y84.977 E116.67441
G1 X191.290 Y87.168 E116.82467
G1 X191.481 Y87.275 E116.83195
G1 X195.154 Y89.621 E116.97691
G1 X198.837 Y92.284 E117.12807
G1 X202.356 Y95.163 E117.27930
G1 X205.675 Y98.227 E117.42953
G1 X205.836 Y98.376 E117.43683
G1 X208.978 Y101.662 E117.58804
G1 X211.797 Y104.987 E117.73303
G1 X214.532 Y108.618 E117.88423
G1 X217.047 Y112.406 E118.03546
G1 X219.424 Y116.501 E118.19294
G1 X221.374 Y120.399 E118.33790
G1 X223.246 Y124.749 E118.49541
G1 X224.704 Y128.822 E118.63930
G1 X224.705 Y128.822 E118.63933
G1 X224.780 Y129.029 E118.64666
G1 X226.002 Y133.214 E118.79166
G1 X227.025 Y137.643 E118.94285
G1 X227.781 Y142.127 E119.09409
G1 X228.288 Y146.835 E119.25159
G1 X228.481 Y151.159 E119.39555
G1 X228.491 Y151.377 E119.40281
G1 X228.427 Y155.709 E119.54691
G1 X228.423 Y155.926 E119.55412
G1 X228.098 Y160.272 E119.69908
G1 X227.499 Y164.777 E119.85023
G1 X226.632 Y169.241 E120.00148
G1 X225.506 Y173.620 E120.15186
G1 X225.450 Y173.831 E120.15912
G1 X224.045 Y178.153 E120.31028
G1 X222.464 Y182.184 E120.45429
G1 X222.384 Y182.387 E120.46155
G1 X220.552 Y186.341 E120.60649
G1 X218.408 Y190.349 E120.75767
G1 X216.042 Y194.198 E120.90794
G1 X215.927 Y194.384 E120.91522
G1 X213.435 Y197.926 E121.05926
G1 X213.310 Y198.104 E121.06649
G1 X210.593 Y201.510 E121.21141
G1 X207.560 Y204.897 E121.36263
G1 X204.349 Y208.075 E121.51289
G1 X204.192 Y208.228 E121.52018
G1 X200.768 Y211.220 E121.67141
G1 X197.320 Y213.886 E121.81638
G1 X193.572 Y216.456 E121.96753
G1 X189.674 Y218.799 E122.11879
G1 X185.643 Y220.902 E122.27001
G1 X181.494 Y222.762 E122.42124
G1 X177.242 Y224.371 E122.57245
G1 X172.899 Y225.721 E122.72372
G1 X168.485 Y226.810 E122.87493
G1 X163.828 Y227.667 E123.03242
G1 X159.500 Y228.187 E123.17741
G1 X154.964 Y228.471 E123.32857
G1 X150.445 Y228.483 E123.47888
G1 X150.227 Y228.483 E123.48613
G1 X145.877 Y228.222 E123.63107
G1 X141.361 Y227.691 E123.78231
G1 X136.912 Y226.895 E123.93263
G1 X136.697 Y226.855 E123.93990
G1 X132.465 Y225.823 E124.08479
G1 X128.118 Y224.495 E124.23596
G1 X123.858 Y222.907 E124.38718
G1 X119.698 Y221.069 E124.53844
G1 X115.657 Y218.984 E124.68968
G1 X111.748 Y216.660 E124.84094
G1 X107.986 Y214.109 E124.99212
G1 X104.382 Y211.336 E125.14336
G1 X100.972 Y208.372 E125.29363
G1 X100.808 Y208.229 E125.30087
G1 X97.568 Y205.037 E125.45215
G1 X94.652 Y201.798 E125.59710
G1 X91.808 Y198.252 E125.74829
G1 X89.074 Y194.385 E125.90581
G1 X86.683 Y190.516 E126.05708
G1 X84.617 Y186.679 E126.20202
G1 X82.696 Y182.558 E126.35325
G1 X80.956 Y178.155 E126.51071
G1 X79.550 Y173.828 E126.66204
G1 X78.461 Y169.637 E126.80606
G1 X78.406 Y169.430 E126.81318
G1 X77.564 Y165.151 E126.95823
G1 X76.942 Y160.649 E127.10939
G1 X76.591 Y156.115 E127.26064
G1 X76.512 Y151.598 E127.41090
G1 X76.509 Y151.380 E127.41815
G1 X76.702 Y147.052 E127.56225
G1 X76.713 Y146.835 E127.56947
G1 X77.165 Y142.529 E127.71348
G1 X77.188 Y142.314 E127.72067
G1 X77.901 Y138.015 E127.86561
G1 X78.902 Y133.581 E128.01679
G1 X80.166 Y129.213 E128.16804
G1 X81.689 Y124.929 E128.31926
G1 X83.455 Y120.768 E128.46960
G1 X83.542 Y120.567 E128.47689
G1 X85.490 Y116.671 E128.62176
G1 X87.753 Y112.728 E128.77297
G1 X90.249 Y108.928 E128.92419
G1 X92.966 Y105.283 E129.07540
G1 X95.899 Y101.807 E129.22667
G1 X99.012 Y98.535 E129.37688
G0 F12000 X99.302 Y98.811
G1 F1800 X99.445 Y98.661 E129.38377
G1 X102.760 Y95.585 E129.53418
G1 X106.108 Y92.832 E129.67835
G1 X109.760 Y90.164 E129.82878
G1 X113.566 Y87.719 E129.97923
G1 X117.675 Y85.416 E130.13590
G1 X121.581 Y83.535 E130.28010
G1 X125.746 Y81.816 E130.42996
G1 X125.936 Y81.738 E130.43679
G1 X130.023 Y80.342 E130.58044
G1 X130.023 Y80.343 E130.58047
G1 X130.216 Y80.276 E130.58726
G1 X134.395 Y79.122 E130.73146
G1 X138.800 Y78.174 E130.88133
G1 X139.002 Y78.131 E130.88819
G1 X143.474 Y77.458 E131.03861
G1 X147.791 Y77.069 E131.18277
G1 X152.500 Y76.917 E131.33948
G1 X156.818 Y77.045 E131.48316
G1 X157.023 Y77.052 E131.48998
G1 X161.338 Y77.441 E131.63408
G1 X165.795 Y78.101 E131.78394
G1 X165.998 Y78.131 E131.79076
G1 X170.423 Y79.072 E131.94123
G1 X174.601 Y80.225 E132.08538
G1 X178.870 Y81.671 E132.23530
G1 X179.065 Y81.738 E132.24215
G1 X183.249 Y83.453 E132.39255
G1 X187.155 Y85.333 E132.53673
G1 X191.095 Y87.517 E132.68656
G1 X191.276 Y87.618 E132.69345
G1 X194.929 Y89.952 E132.83764
G1 X198.593 Y92.601 E132.98802
G1 X202.094 Y95.465 E133.13846
G1 X205.404 Y98.521 E133.28830
G1 X205.555 Y98.661 E133.29514
G1 X208.681 Y101.930 E133.44558
G1 X211.485 Y105.237 E133.58979
G1 X214.205 Y108.849 E133.74018
G1 X216.707 Y112.617 E133.89062
G1 X219.072 Y116.691 E134.04729
G1 X221.011 Y120.568 E134.19147
G1 X222.874 Y124.896 E134.34819
G1 X224.329 Y128.959 E134.49173
G1 X224.400 Y129.153 E134.49860
G1 X225.615 Y133.315 E134.64281
G1 X226.633 Y137.721 E134.79321
G1 X227.385 Y142.182 E134.94368
G1 X227.889 Y146.865 E135.10034
G1 X228.081 Y151.178 E135.24393
G1 X228.091 Y151.384 E135.25079
G1 X228.024 Y155.908 E135.40128
G1 X227.700 Y160.231 E135.54546
G1 X227.104 Y164.713 E135.69585
G1 X226.242 Y169.153 E135.84628
G1 X225.119 Y173.519 E135.99622
G1 X225.066 Y173.718 E136.00307
G1 X223.668 Y178.018 E136.15346
G1 X222.091 Y182.038 E136.29708
G1 X222.016 Y182.229 E136.30391
G1 X220.194 Y186.163 E136.44810
G1 X218.061 Y190.150 E136.59850
G1 X215.702 Y193.988 E136.74833
G1 X215.593 Y194.164 E136.75522
G1 X212.990 Y197.863 E136.90566
G1 X210.287 Y201.252 E137.04984
G1 X207.270 Y204.621 E137.20025
G1 X204.068 Y207.790 E137.35009
G1 X203.920 Y207.935 E137.35698
G1 X200.514 Y210.911 E137.50742
G1 X197.084 Y213.562 E137.65160
G1 X193.356 Y216.119 E137.80196
G1 X189.479 Y218.450 E137.95242
G1 X185.469 Y220.542 E138.10286
G1 X181.341 Y222.392 E138.25331
G1 X177.111 Y223.993 E138.40374
G1 X172.792 Y225.335 E138.55417
G1 X168.401 Y226.419 E138.70460
G1 X163.768 Y227.271 E138.86127
G1 X159.464 Y227.789 E139.00546
G1 X154.951 Y228.071 E139.15585
G1 X150.445 Y228.083 E139.30572
G1 X150.239 Y228.083 E139.31258
G1 X145.912 Y227.824 E139.45675
G1 X141.420 Y227.295 E139.60719
G1 X136.984 Y226.501 E139.75707
G1 X136.781 Y226.464 E139.76394
G1 X132.571 Y225.437 E139.90807
G1 X128.246 Y224.116 E140.05848
G1 X124.009 Y222.536 E140.20888
G1 X119.871 Y220.708 E140.35934
G1 X115.851 Y218.634 E140.50980
G1 X111.963 Y216.323 E140.66023
G1 X108.220 Y213.785 E140.81064
G1 X104.635 Y211.027 E140.96108
G1 X101.080 Y207.936 E141.11777
G1 X97.857 Y204.761 E141.26824
G1 X94.957 Y201.539 E141.41242
G1 X92.128 Y198.011 E141.56283
G1 X89.407 Y194.164 E141.71955
G1 X87.029 Y190.316 E141.87000
G1 X84.974 Y186.499 E142.01419
G1 X83.064 Y182.400 E142.16460
G1 X81.332 Y178.019 E142.32128
G1 X79.934 Y173.716 E142.47176
G1 X78.848 Y169.537 E142.61538
G1 X78.796 Y169.340 E142.62215
G1 X77.959 Y165.085 E142.76639
G1 X77.340 Y160.606 E142.91677
G1 X76.990 Y156.096 E143.06723
G1 X76.909 Y151.386 E143.22391
G1 X77.102 Y147.070 E143.36760
G1 X77.112 Y146.865 E143.37443
G1 X77.562 Y142.572 E143.51800
G1 X77.584 Y142.368 E143.52482
G1 X78.294 Y138.092 E143.66899
G1 X79.290 Y133.680 E143.81942
G1 X80.547 Y129.336 E143.96983
G1 X82.062 Y125.074 E144.12028
G1 X83.823 Y120.925 E144.27019
G1 X83.905 Y120.736 E144.27704
G1 X85.843 Y116.860 E144.42117
G1 X88.094 Y112.938 E144.57158
G1 X90.576 Y109.158 E144.72198
G1 X93.280 Y105.532 E144.87243
G1 X96.197 Y102.074 E145.02289
G1 X99.302 Y98.811 E145.17271
G0 F12000 X99.725 Y98.947
G1 F1800 X103.023 Y95.886 E145.32236
G1 X106.353 Y93.148 E145.46575
G1 X109.986 Y90.494 E145.61539
G1 X113.772 Y88.062 E145.76506
G1 X117.860 Y85.771 E145.92092
G1 X121.744 Y83.900 E146.06431
G1 X126.076 Y82.113 E146.22017
G1 X130.335 Y80.658 E146.36987
G1 X134.490 Y79.511 E146.51323
G1 X139.073 Y78.525 E146.66915
G1 X143.522 Y77.855 E146.81879
G1 X147.816 Y77.468 E146.96219
G1 X152.501 Y77.317 E147.11809
G1 X156.998 Y77.451 E147.26773
G1 X161.291 Y77.838 E147.41110
G1 X165.926 Y78.525 E147.56694
G1 X170.328 Y79.461 E147.71663
G1 X174.484 Y80.608 E147.86002
G1 X178.741 Y82.050 E148.00951
G1 X178.924 Y82.113 E148.01595
G1 X183.086 Y83.818 E148.16554
G1 X186.971 Y85.688 E148.30895
G1 X190.900 Y87.866 E148.45836
G1 X191.070 Y87.961 E148.46484
G1 X194.704 Y90.283 E148.60828
G1 X198.349 Y92.918 E148.75787
G1 X201.831 Y95.767 E148.90751
G1 X205.274 Y98.946 E149.06337
G1 X208.384 Y102.198 E149.21303
G1 X211.172 Y105.487 E149.35644
G1 X213.878 Y109.080 E149.50604
G1 X216.367 Y112.828 E149.65569
G1 X218.720 Y116.881 E149.81156
G1 X220.648 Y120.737 E149.95495
G1 X222.501 Y125.043 E150.11087
G1 X224.019 Y129.278 E150.26050
G1 X225.228 Y133.416 E150.40388
G1 X226.240 Y137.800 E150.55353
G1 X226.988 Y142.237 E150.70319
G1 X227.490 Y146.896 E150.85904
G1 X227.691 Y151.391 E151.00870
G1 X227.624 Y155.890 E151.15835
G1 X227.302 Y160.190 E151.30177
G1 X226.709 Y164.648 E151.45135
G1 X225.851 Y169.065 E151.60101
G1 X224.732 Y173.418 E151.75049
G1 X224.682 Y173.605 E151.75693
G1 X223.291 Y177.883 E151.90655
G1 X221.648 Y182.072 E152.05621
G1 X219.836 Y185.984 E152.19961
G1 X217.714 Y189.951 E152.34924
G1 X215.259 Y193.943 E152.50511
G1 X212.670 Y197.623 E152.65477
G1 X209.982 Y200.993 E152.79814
G1 X206.980 Y204.345 E152.94780
G1 X203.648 Y207.642 E153.10371
G1 X200.260 Y210.602 E153.25334
G1 X196.849 Y213.239 E153.39674
G1 X193.139 Y215.782 E153.54634
G1 X189.283 Y218.101 E153.69600
G1 X185.294 Y220.182 E153.84564
G1 X181.188 Y222.022 E153.99530
G1 X176.981 Y223.614 E154.14490
G1 X172.685 Y224.950 E154.29454
G1 X168.317 Y226.028 E154.44418
G1 X163.708 Y226.876 E154.60005
G1 X159.427 Y227.390 E154.74346
G1 X154.938 Y227.671 E154.89305
G1 X150.251 Y227.683 E155.04895
G1 X145.947 Y227.425 E155.19235
G1 X141.479 Y226.899 E155.34199
G1 X137.055 Y226.108 E155.49146
G1 X136.865 Y226.073 E155.49789
G1 X132.677 Y225.051 E155.64127
G1 X128.375 Y223.737 E155.79088
G1 X124.160 Y222.165 E155.94050
G1 X120.044 Y220.347 E156.09016
G1 X116.045 Y218.284 E156.23983
G1 X112.178 Y215.985 E156.38946
G1 X108.455 Y213.460 E156.53908
G1 X104.888 Y210.717 E156.68874
G1 X101.352 Y207.642 E156.84460
G1 X98.146 Y204.484 E156.99427
G1 X95.262 Y201.280 E157.13765
G1 X92.447 Y197.770 E157.28730
G1 X89.741 Y193.943 E157.44319
G1 X87.376 Y190.116 E157.59282
G1 X85.332 Y186.320 E157.73622
G1 X83.431 Y182.242 E157.88586
G1 X81.709 Y177.884 E158.04172
G1 X80.318 Y173.604 E158.19140
G1 X79.235 Y169.436 E158.33463
G1 X79.236 Y169.436 E158.33467
G1 X79.186 Y169.250 E158.34107
G1 X78.354 Y165.019 E158.48449
G1 X77.738 Y160.563 E158.63411
G1 X77.390 Y156.077 E158.78376
G1 X77.309 Y151.391 E158.93964
G1 X77.510 Y146.896 E159.08929
G1 X77.981 Y142.422 E159.23892
G1 X78.687 Y138.169 E159.38231
G1 X79.677 Y133.780 E159.53196
G1 X80.928 Y129.459 E159.68158
G1 X82.435 Y125.219 E159.83124
G1 X84.267 Y120.905 E159.98713
G1 X86.196 Y117.049 E160.13053
G1 X88.435 Y113.147 E160.28016
G1 X90.904 Y109.387 E160.42977
G1 X93.593 Y105.781 E160.57938
G1 X96.495 Y102.341 E160.72907
G1 X99.725 Y98.947 E160.88491
G0 F12000 X149.733 Y149.916
G1 F1800 X149.171 Y150.687 E160.91664
G1 X148.821 Y151.573 E160.94833
G1 X148.702 Y152.516 E160.97994
G1 X148.821 Y153.459 E161.01155
G1 X149.171 Y154.345 E161.04324
G1 X149.733 Y155.116 E161.07497
G1 X150.466 Y155.723 E161.10662
G1 X151.328 Y156.129 E161.13831
G1 X152.258 Y156.307 E161.16981
G1 X153.214 Y156.246 E161.20167
G1 X154.118 Y155.953 E161.23328
G1 X154.921 Y155.443 E161.26492
G1 X155.574 Y154.748 E161.29663
G1 X156.032 Y153.917 E161.32819
G1 X156.269 Y152.990 E161.36002
G1 X156.269 Y152.042 E161.39155
G1 X156.031 Y151.115 E161.42338
G1 X155.575 Y150.285 E161.45488
G1 X154.921 Y149.589 E161.48664
G1 X154.118 Y149.079 E161.51828
G1 X153.214 Y148.786 E161.54989
G1 X152.258 Y148.725 E161.58175
G1 X151.328 Y148.903 E161.61324
G1 X150.466 Y149.309 E161.64493
G1 X149.733 Y149.916 E161.67659
G0 F12000 X150.025 Y150.193
G1 F1800 X149.526 Y150.879 E161.70480
G1 X149.211 Y151.673 E161.73321
G1 X149.105 Y152.516 E161.76147
G1 X149.211 Y153.359 E161.78973
G1 X149.526 Y154.153 E161.81814
G1 X150.025 Y154.839 E161.84636
G1 X150.681 Y155.382 E161.87468
G1 X151.454 Y155.746 E161.90310
G1 X152.284 Y155.904 E161.93120
G1 X153.137 Y155.851 E161.95963
G1 X153.945 Y155.588 E161.98789
G1 X154.667 Y155.130 E162.01633
G1 X155.246 Y154.514 E162.04444
G1 X155.658 Y153.765 E162.07288
G1 X155.869 Y152.942 E162.10113
G1 X155.869 Y152.090 E162.12947
G1 X155.658 Y151.268 E162.15770
G1 X155.247 Y150.520 E162.18608
G1 X154.667 Y149.902 E162.21427
G1 X153.945 Y149.444 E162.24271
G1 X153.137 Y149.181 E162.27097
G1 X152.284 Y149.128 E162.29940
G1 X151.454 Y149.286 E162.32750
G1 X150.681 Y149.650 E162.35592
G1 X150.025 Y150.193 E162.38424
G0 F12000 X150.320 Y150.468
G1 F1800 X149.878 Y151.075 E162.40922
G1 X149.602 Y151.773 E162.43418
G1 X149.509 Y152.516 E162.45909
G1 X149.602 Y153.259 E162.48399
G1 X149.878 Y153.957 E162.50896
G1 X150.320 Y154.564 E162.53393
G1 X150.896 Y155.041 E162.55880
G1 X151.578 Y155.362 E162.58387
G1 X152.311 Y155.502 E162.60869
G1 X153.061 Y155.455 E162.63369
G1 X153.775 Y155.223 E162.65866
G1 X154.406 Y154.823 E162.68351
G1 X154.923 Y154.273 E162.70861
G1 X155.282 Y153.619 E162.73343
G1 X155.469 Y152.890 E162.75846
G1 X155.469 Y152.142 E162.78334
G1 X155.282 Y151.413 E162.80837
G1 X154.923 Y150.759 E162.83318
G1 X154.406 Y150.209 E162.85829
G1 X153.775 Y149.809 E162.88314
G1 X153.061 Y149.577 E162.90811
G1 X152.311 Y149.530 E162.93310
G1 X151.578 Y149.670 E162.95792
G1 X150.896 Y149.991 E162.98299
G1 X150.320 Y150.468 E163.00787
G0 F12000 X150.614 Y150.743
G1 F1800 X150.232 Y151.269 E163.02949
G1 X149.993 Y151.872 E163.05106
G1 X149.912 Y152.516 E163.07265
G1 X149.993 Y153.160 E163.09424
G1 X150.232 Y153.763 E163.11581
G1 X150.614 Y154.289 E163.13743
G1 X151.112 Y154.701 E163.15893
G1 X151.702 Y154.979 E163.18062
G1 X152.338 Y155.100 E163.20216
G1 X152.986 Y155.059 E163.22375
G1 X153.602 Y154.859 E163.24529
G1 X154.150 Y154.511 E163.26689
G1 X154.595 Y154.038 E163.28849
G1 X154.908 Y153.470 E163.31006
G1 X155.069 Y152.842 E163.33162
G1 X155.069 Y152.191 E163.35327
G1 X154.908 Y151.563 E163.37483
G1 X154.596 Y150.995 E163.39639
G1 X154.150 Y150.521 E163.41803
G1 X153.602 Y150.173 E163.43963
G1 X152.986 Y149.973 E163.46117
G1 X152.338 Y149.932 E163.48276
G1 X151.702 Y150.053 E163.50430
G1 X151.112 Y150.331 E163.52599
G1 X150.614 Y150.743 E163.54749
G1 F2100 E163.14749
G0 F12000 X148.557 Y148.812
;TYPE:WALL-INNER
G1 F2100 E163.54749
G1 F1800 X147.759 Y149.909 E163.59260
G1 X147.259 Y151.171 E163.63775
G1 X147.090 Y152.516 E163.68284
G1 X147.259 Y153.861 E163.72793
G1 X147.759 Y155.123 E163.77307
G1 X148.557 Y156.220 E163.81819
G1 X149.601 Y157.084 E163.86327
G1 X150.828 Y157.662 E163.90838
G1 X152.160 Y157.916 E163.95348
G1 X153.514 Y157.831 E163.99860
G1 X154.805 Y157.412 E164.04375
G1 X155.949 Y156.685 E164.08883
G1 X156.885 Y155.690 E164.13426
G1 X157.532 Y154.508 E164.17908
G1 X157.869 Y153.193 E164.22423
G1 X157.869 Y151.838 E164.26930
G1 X157.532 Y150.525 E164.31438
G1 X156.879 Y149.335 E164.35953
G1 X155.949 Y148.347 E164.40466
G1 X154.805 Y147.620 E164.44974
G1 X153.514 Y147.201 E164.49489
G1 X152.160 Y147.116 E164.54001
G1 X150.828 Y147.370 E164.58511
G1 X149.601 Y147.948 E164.63022
G1 X148.557 Y148.812 E164.67529
G1 F2100 E164.27529
G0 F12000 X97.691 Y103.406
G1 F2100 E164.67529
G1 F1800 X100.748 Y100.192 E164.82283
G1 X104.077 Y97.091 E164.97414
G1 X107.333 Y94.414 E165.11434
G1 X110.883 Y91.819 E165.26060
G1 X114.600 Y89.433 E165.40751
G1 X118.606 Y87.186 E165.56027
G1 X122.391 Y85.364 E165.69999
G1 X126.506 Y83.666 E165.84805
G1 X130.671 Y82.234 E165.99454
G1 X134.878 Y81.064 E166.13977
G1 X139.220 Y80.130 E166.28749
G1 X143.570 Y79.466 E166.43385
G1 X147.913 Y79.066 E166.57891
G1 X152.504 Y78.917 E166.73169
G1 X156.754 Y79.044 E166.87311
G1 X156.901 Y79.049 E166.87800
G1 X161.094 Y79.427 E167.01802
G1 X165.501 Y80.079 E167.16620
G1 X169.933 Y81.012 E167.31684
G1 X174.024 Y82.141 E167.45799
G1 X178.220 Y83.563 E167.60535
G1 X182.452 Y85.288 E167.75735
G1 X186.232 Y87.108 E167.89688
G1 X190.118 Y89.262 E168.04466
G1 X193.805 Y91.607 E168.18999
G1 X197.376 Y94.189 E168.33656
G1 X200.775 Y96.970 E168.48263
G1 X204.046 Y99.990 E168.63070
G1 X204.142 Y100.078 E168.63503
G1 X207.200 Y103.276 E168.78220
G1 X209.925 Y106.490 E168.92235
G1 X212.573 Y110.006 E169.06875
G1 X215.001 Y113.663 E169.21475
G1 X217.315 Y117.648 E169.36801
G1 X219.196 Y121.410 E169.50791
G1 X221.011 Y125.628 E169.66063
G1 X222.448 Y129.639 E169.80234
G1 X223.679 Y133.823 E169.94740
G1 X224.668 Y138.103 E170.09351
G1 X225.403 Y142.463 E170.24057
G1 X225.893 Y147.012 E170.39274
G1 X226.084 Y151.272 E170.53457
G1 X226.090 Y151.408 E170.53910
G1 X226.027 Y155.672 E170.68094
G1 X226.025 Y155.821 E170.68589
G1 X225.710 Y160.021 E170.82598
G1 X225.129 Y164.397 E170.97280
G1 X224.292 Y168.705 E171.11877
G1 X223.185 Y173.008 E171.26655
G1 X223.146 Y173.155 E171.27160
G1 X221.830 Y177.204 E171.41321
G1 X220.231 Y181.304 E171.55958
G1 X218.407 Y185.264 E171.70459
G1 X216.328 Y189.149 E171.85114
G1 X214.000 Y192.936 E171.99900
G1 X211.474 Y196.543 E172.14546
G1 X211.386 Y196.667 E172.15051
G1 X208.765 Y199.954 E172.29034
G1 X205.820 Y203.241 E172.43713
G1 X202.661 Y206.368 E172.58497
G1 X199.354 Y209.269 E172.73128
G1 X195.911 Y211.941 E172.87624
G1 X192.266 Y214.440 E173.02323
G1 X188.501 Y216.704 E173.16935
G1 X184.599 Y218.740 E173.31573
G1 X180.572 Y220.545 E173.46251
G1 X176.466 Y222.098 E173.60852
G1 X172.246 Y223.410 E173.75550
G1 X167.986 Y224.462 E173.90145
G1 X163.608 Y225.267 E174.04950
G1 X159.277 Y225.797 E174.19463
G1 X154.890 Y226.071 E174.34082
G1 X150.440 Y226.083 E174.48883
G1 X150.291 Y226.083 E174.49379
G1 X146.091 Y225.832 E174.63373
G1 X141.716 Y225.316 E174.78025
G1 X137.345 Y224.534 E174.92794
G1 X133.103 Y223.508 E175.07310
G1 X128.890 Y222.221 E175.21961
G1 X124.768 Y220.684 E175.36593
G1 X120.726 Y218.898 E175.51291
G1 X116.814 Y216.881 E175.65930
G1 X113.050 Y214.642 E175.80497
G1 X109.394 Y212.164 E175.95186
G1 X105.904 Y209.479 E176.09832
G1 X102.548 Y206.561 E176.24623
G1 X99.317 Y203.392 E176.39676
G1 X96.474 Y200.234 E176.53809
G1 X93.724 Y196.805 E176.68428
G1 X91.159 Y193.178 E176.83204
G1 X91.077 Y193.062 E176.83676
G1 X88.765 Y189.321 E176.98303
G1 X86.762 Y185.600 E177.12358
G1 X84.901 Y181.607 E177.27011
G1 X83.268 Y177.476 E177.41785
G1 X81.899 Y173.293 E177.56424
G1 X80.783 Y169.031 E177.71077
G1 X79.932 Y164.754 E177.85581
G1 X79.330 Y160.391 E178.00230
G1 X78.989 Y156.002 E178.14872
G1 X78.912 Y151.557 E178.29659
G1 X78.910 Y151.418 E178.30121
G1 X79.100 Y147.161 E178.44294
G1 X79.106 Y147.018 E178.44770
G1 X79.551 Y142.785 E178.58927
G1 X80.256 Y138.483 E178.73426
G1 X81.228 Y134.176 E178.88111
G1 X82.452 Y129.946 E179.02757
G1 X83.924 Y125.806 E179.17372
G1 X85.661 Y121.714 E179.32157
G1 X87.605 Y117.807 E179.46672
G1 X89.796 Y113.989 E179.61313
G1 X92.218 Y110.301 E179.75988
G1 X94.844 Y106.780 E179.90597
G1 X97.691 Y103.406 E180.05280
G0 F12000 X97.393 Y103.137
G1 F1800 X100.459 Y99.916 E180.20071
G1 X103.816 Y96.788 E180.35332
G1 X107.088 Y94.097 E180.49422
G1 X110.668 Y91.482 E180.64168
G1 X114.386 Y89.094 E180.78865
G1 X118.409 Y86.838 E180.94206
G1 X122.238 Y84.995 E181.08340
G1 X126.354 Y83.296 E181.23150
G1 X126.505 Y83.234 E181.23693
G1 X130.542 Y81.856 E181.37881
G1 X134.772 Y80.678 E181.52485
G1 X139.136 Y79.739 E181.67332
G1 X143.667 Y79.047 E181.82577
G1 X147.899 Y78.666 E181.96709
G1 X152.487 Y78.517 E182.11977
G1 X156.769 Y78.645 E182.26226
G1 X156.916 Y78.649 E182.26715
G1 X161.155 Y79.031 E182.40871
G1 X165.556 Y79.682 E182.55668
G1 X165.719 Y79.708 E182.56217
G1 X170.041 Y80.626 E182.70913
G1 X174.133 Y81.756 E182.85032
G1 X178.355 Y83.186 E182.99858
G1 X182.591 Y84.912 E183.15072
G1 X186.414 Y86.752 E183.29183
G1 X190.318 Y88.916 E183.44029
G1 X194.033 Y91.278 E183.58671
G1 X197.615 Y93.868 E183.73373
G1 X201.043 Y96.672 E183.88103
G1 X204.316 Y99.694 E184.02920
G1 X204.429 Y99.799 E184.03433
G1 X207.488 Y102.998 E184.18155
G1 X210.234 Y106.237 E184.32278
G1 X212.904 Y109.782 E184.47039
G1 X215.345 Y113.458 E184.61715
G1 X217.668 Y117.459 E184.77103
G1 X219.554 Y121.230 E184.91127
G1 X221.389 Y125.494 E185.06566
G1 X222.824 Y129.503 E185.20729
G1 X224.068 Y133.726 E185.35371
G1 X225.062 Y138.031 E185.50066
G1 X225.799 Y142.403 E185.64813
G1 X226.292 Y146.983 E185.80134
G1 X226.483 Y151.253 E185.94350
G1 X226.491 Y151.411 E185.94877
G1 X226.427 Y155.678 E186.09070
G1 X226.424 Y155.841 E186.09612
G1 X226.108 Y160.067 E186.23707
G1 X225.526 Y164.444 E186.38394
G1 X224.677 Y168.815 E186.53203
G1 X223.572 Y173.111 E186.67957
G1 X222.162 Y177.478 E186.83220
G1 X220.603 Y181.451 E186.97415
G1 X218.768 Y185.436 E187.12007
G1 X216.671 Y189.354 E187.26787
G1 X214.339 Y193.149 E187.41602
G1 X214.260 Y193.278 E187.42105
G1 X211.801 Y196.773 E187.56319
G1 X209.059 Y200.225 E187.70981
G1 X206.109 Y203.519 E187.85689
G1 X202.944 Y206.651 E188.00498
G1 X199.499 Y209.673 E188.15740
G1 X196.147 Y212.264 E188.29831
G1 X192.481 Y214.778 E188.44616
G1 X188.706 Y217.047 E188.59265
G1 X184.768 Y219.102 E188.74039
G1 X180.720 Y220.916 E188.88793
G1 X176.596 Y222.477 E189.03459
G1 X172.364 Y223.793 E189.18200
G1 X168.053 Y224.857 E189.32969
G1 X163.537 Y225.688 E189.48241
G1 X159.315 Y226.195 E189.62384
G1 X154.900 Y226.471 E189.77097
G1 X150.441 Y226.483 E189.91928
G1 X150.284 Y226.483 E189.92450
G1 X146.055 Y226.230 E190.06541
G1 X141.650 Y225.711 E190.21294
G1 X137.273 Y224.928 E190.36083
G1 X132.980 Y223.889 E190.50773
G1 X128.764 Y222.601 E190.65436
G1 X124.617 Y221.055 E190.80156
G1 X120.559 Y219.262 E190.94912
G1 X116.632 Y217.236 E191.09609
G1 X112.819 Y214.970 E191.24361
G1 X109.163 Y212.490 E191.39055
G1 X105.645 Y209.784 E191.53817
G1 X102.285 Y206.863 E191.68625
G1 X102.166 Y206.759 E191.69151
G1 X99.013 Y203.654 E191.83869
G1 X96.180 Y200.507 E191.97952
G1 X93.398 Y197.038 E192.12742
G1 X90.752 Y193.295 E192.27988
G1 X88.416 Y189.515 E192.42767
G1 X86.401 Y185.773 E192.56903
G1 X84.536 Y181.772 E192.71585
G1 X82.837 Y177.474 E192.86957
G1 X81.471 Y173.269 E193.01662
G1 X80.396 Y169.132 E193.15879
G1 X79.540 Y164.832 E193.30461
G1 X78.931 Y160.427 E193.45252
G1 X78.590 Y156.024 E193.59940
G1 X78.512 Y151.564 E193.74776
G1 X78.509 Y151.406 E193.75302
G1 X78.700 Y147.146 E193.89485
G1 X78.707 Y146.992 E193.89998
G1 X79.154 Y142.739 E194.04221
G1 X79.868 Y138.382 E194.18906
G1 X80.836 Y134.094 E194.33527
G1 X82.073 Y129.817 E194.48335
G1 X83.554 Y125.653 E194.63034
G1 X85.293 Y121.556 E194.77838
G1 X87.251 Y117.622 E194.92453
G1 X89.455 Y113.780 E195.07185
G1 X91.885 Y110.080 E195.21908
G1 X94.539 Y106.520 E195.36677
G1 X97.393 Y103.137 E195.51398
G1 F2100 E195.11398
G0 F12000 X148.850 Y149.088
G1 F2100 E195.51398
G1 F1800 X148.112 Y150.103 E195.55572
G1 X147.650 Y151.271 E195.59750
G1 X147.493 Y152.516 E195.63924
G1 X147.650 Y153.761 E195.68097
G1 X148.112 Y154.929 E195.72275
G1 X148.850 Y155.944 E195.76449
G1 X149.817 Y156.744 E195.80623
G1 X150.952 Y157.279 E195.84796
G1 X152.186 Y157.514 E195.88974
G1 X153.439 Y157.435 E195.93150
G1 X154.633 Y157.047 E195.97326
G1 X155.692 Y156.375 E196.01497
G1 X156.557 Y155.455 E196.05697
G1 X157.157 Y154.360 E196.09850
G1 X157.469 Y153.143 E196.14029
G1 X157.469 Y151.889 E196.18200
G1 X157.157 Y150.673 E196.22375
G1 X156.552 Y149.572 E196.26554
G1 X155.692 Y148.657 E196.30730
G1 X154.633 Y147.985 E196.34902
G1 X153.439 Y147.597 E196.39077
G1 X152.186 Y147.518 E196.43253
G1 X150.952 Y147.753 E196.47431
G1 X149.817 Y148.288 E196.51605
G1 X148.850 Y149.088 E196.55779
G0 F12000 X149.144 Y149.364
G1 F1800 X148.465 Y150.297 E196.59617
G1 X148.040 Y151.371 E196.63459
G1 X147.896 Y152.516 E196.67297
G1 X148.040 Y153.661 E196.71135
G1 X148.465 Y154.735 E196.74977
G1 X149.144 Y155.668 E196.78815
G1 X150.033 Y156.404 E196.82653
G1 X151.077 Y156.895 E196.86491
G1 X152.211 Y157.112 E196.90331
G1 X153.363 Y157.039 E196.94170
G1 X154.462 Y156.682 E196.98013
G1 X155.435 Y156.064 E197.01847
G1 X156.229 Y155.220 E197.05701
G1 X156.270 Y155.141 E197.05997
G1 X156.782 Y154.212 E197.09525
G1 X157.069 Y153.093 E197.13368
G1 X157.069 Y151.939 E197.17206
G1 X156.782 Y150.822 E197.21042
G1 X156.226 Y149.809 E197.24885
G1 X155.435 Y148.968 E197.28725
G1 X154.462 Y148.350 E197.32559
G1 X153.363 Y147.993 E197.36402
G1 X152.211 Y147.920 E197.40241
G1 X151.077 Y148.137 E197.44081
G1 X150.033 Y148.628 E197.47919
G1 X149.144 Y149.364 E197.51757
G1 F2100 E197.11757
G0 F12000 X97.090 Y102.878
G1 F2100 E197.51757
G1 F1800 X100.170 Y99.640 E197.66621
G1 X103.555 Y96.484 E197.82014
G1 X106.843 Y93.780 E197.96173
G1 X110.433 Y91.157 E198.10961
G1 X114.191 Y88.744 E198.25815
G1 X118.218 Y86.486 E198.41170
G1 X122.068 Y84.632 E198.55383
G1 X126.203 Y82.926 E198.70261
G1 X130.412 Y81.478 E198.85065
G1 X134.670 Y80.291 E198.99767
G1 X139.052 Y79.348 E199.14675
G1 X143.604 Y78.652 E199.29991
G1 X147.867 Y78.267 E199.44228
G1 X152.502 Y78.118 E199.59652
G1 X156.780 Y78.245 E199.73887
G1 X156.947 Y78.250 E199.74443
G1 X161.195 Y78.633 E199.88629
G1 X165.618 Y79.288 E200.03500
G1 X170.146 Y80.240 E200.18890
G1 X174.246 Y81.372 E200.33037
G1 X178.483 Y82.807 E200.47915
G1 X182.752 Y84.545 E200.63246
G1 X186.603 Y86.399 E200.77461
G1 X190.512 Y88.566 E200.92327
G1 X194.257 Y90.947 E201.07087
G1 X197.865 Y93.556 E201.21896
G1 X201.302 Y96.367 E201.36664
G1 X204.588 Y99.401 E201.51539
G1 X207.791 Y102.737 E201.66921
G1 X210.552 Y105.993 E201.81120
G1 X213.221 Y109.537 E201.95876
G1 X215.688 Y113.252 E202.10709
G1 X218.014 Y117.258 E202.26116
G1 X219.925 Y121.080 E202.40328
G1 X221.755 Y125.333 E202.55728
G1 X223.201 Y129.368 E202.69984
G1 X223.259 Y129.528 E202.70550
G1 X224.451 Y133.612 E202.84700
G1 X225.455 Y137.956 E202.99529
G1 X226.195 Y142.346 E203.14336
G1 X226.693 Y146.975 E203.29821
G1 X226.883 Y151.235 E203.44004
G1 X226.891 Y151.394 E203.44534
G1 X226.824 Y155.860 E203.59389
G1 X226.508 Y160.090 E203.73498
G1 X225.919 Y164.524 E203.88375
G1 X225.070 Y168.891 E204.03171
G1 X223.958 Y173.213 E204.18015
G1 X222.538 Y177.611 E204.33386
G1 X220.974 Y181.599 E204.47634
G1 X219.123 Y185.621 E204.62360
G1 X217.018 Y189.555 E204.77199
G1 X214.681 Y193.357 E204.92043
G1 X212.027 Y197.146 E205.07429
G1 X209.370 Y200.477 E205.21601
G1 X206.398 Y203.796 E205.36419
G1 X203.225 Y206.936 E205.51266
G1 X203.112 Y207.048 E205.51795
G1 X199.751 Y209.983 E205.66637
G1 X196.373 Y212.595 E205.80839
G1 X192.703 Y215.111 E205.95638
G1 X188.899 Y217.398 E206.10401
G1 X184.945 Y219.461 E206.25235
G1 X180.874 Y221.286 E206.40073
G1 X176.725 Y222.856 E206.54828
G1 X172.478 Y224.176 E206.69620
G1 X168.140 Y225.247 E206.84481
G1 X163.593 Y226.084 E206.99859
G1 X159.351 Y226.593 E207.14069
G1 X154.909 Y226.871 E207.28872
G1 X150.442 Y226.883 E207.43729
G1 X150.276 Y226.883 E207.44281
G1 X146.018 Y226.628 E207.58469
G1 X141.602 Y226.108 E207.73258
G1 X137.197 Y225.320 E207.88142
G1 X132.890 Y224.279 E208.02879
G1 X128.630 Y222.978 E208.17694
G1 X124.468 Y221.427 E208.32467
G1 X120.380 Y219.620 E208.47333
G1 X116.443 Y217.589 E208.62067
G1 X112.608 Y215.310 E208.76905
G1 X108.923 Y212.811 E208.91714
G1 X105.394 Y210.096 E209.06523
G1 X101.887 Y207.046 E209.21981
G1 X98.726 Y203.933 E209.36737
G1 X95.871 Y200.761 E209.50931
G1 X93.088 Y197.291 E209.65726
G1 X90.399 Y193.488 E209.81217
G1 X88.069 Y189.717 E209.95961
G1 X86.054 Y185.974 E210.10099
G1 X84.165 Y181.922 E210.24969
G1 X82.462 Y177.614 E210.40376
G1 X81.087 Y173.381 E210.55179
G1 X80.009 Y169.234 E210.69431
G1 X79.140 Y164.870 E210.84230
G1 X78.534 Y160.480 E210.98970
G1 X78.190 Y156.045 E211.13765
G1 X78.109 Y151.394 E211.29237
G1 X78.300 Y147.127 E211.43443
G1 X78.307 Y146.974 E211.43953
G1 X78.756 Y142.699 E211.58250
G1 X78.775 Y142.524 E211.58835
G1 X79.473 Y138.316 E211.73022
G1 X80.452 Y133.980 E211.87807
G1 X81.689 Y129.703 E212.02615
G1 X83.181 Y125.508 E212.17424
G1 X84.926 Y121.398 E212.32275
G1 X86.904 Y117.423 E212.47042
G1 X89.113 Y113.572 E212.61808
G1 X91.560 Y109.846 E212.76635
G1 X94.219 Y106.281 E212.91427
G1 X97.090 Y102.878 E213.06235
G0 F12000 X96.789 Y102.613
;TYPE:WALL-OUTER
G1 F1800 X100.002 Y99.236 E213.21739
G1 X103.291 Y96.184 E213.36662
G1 X106.594 Y93.467 E213.50887
G1 X110.207 Y90.827 E213.65770
G1 X113.978 Y88.405 E213.80677
G1 X118.039 Y86.128 E213.96162
G1 X121.906 Y84.266 E214.10437
G1 X126.220 Y82.486 E214.25959
G1 X130.447 Y81.042 E214.40816
G1 X134.580 Y79.901 E214.55076
G1 X139.148 Y78.919 E214.70617
G1 X143.576 Y78.252 E214.85510
G1 X147.835 Y77.868 E214.99733
G1 X152.501 Y77.717 E215.15261
G1 X156.979 Y77.851 E215.30161
G1 X161.238 Y78.235 E215.44384
G1 X165.850 Y78.918 E215.59891
G1 X170.239 Y79.851 E215.74815
G1 X174.372 Y80.992 E215.89076
G1 X178.611 Y82.428 E216.03962
G1 X182.925 Y84.184 E216.19453
G1 X186.782 Y86.041 E216.33691
G1 X190.706 Y88.216 E216.48613
G1 X194.483 Y90.617 E216.63499
G1 X198.100 Y93.232 E216.78344
G1 X201.573 Y96.073 E216.93268
G1 X204.998 Y99.236 E217.08774
G1 X208.090 Y102.470 E217.23655
G1 X210.863 Y105.741 E217.37918
G1 X213.548 Y109.307 E217.52765
G1 X216.030 Y113.045 E217.67689
G1 X218.365 Y117.065 E217.83151
G1 X220.283 Y120.900 E217.97413
G1 X222.131 Y125.195 E218.12964
G1 X223.637 Y129.396 E218.27807
G1 X224.839 Y133.512 E218.42069
G1 X225.849 Y137.884 E218.56993
G1 X226.591 Y142.285 E218.71838
G1 X227.090 Y146.920 E218.87343
G1 X227.291 Y151.403 E219.02268
G1 X227.224 Y155.878 E219.17154
G1 X226.905 Y160.143 E219.31379
G1 X226.316 Y164.578 E219.46259
G1 X225.462 Y168.971 E219.61144
G1 X224.344 Y173.317 E219.76069
G1 X222.917 Y177.743 E219.91537
G1 X221.279 Y181.919 E220.06456
G1 X219.481 Y185.801 E220.20686
G1 X217.370 Y189.746 E220.35567
G1 X214.928 Y193.718 E220.51075
G1 X212.346 Y197.388 E220.66000
G1 X209.674 Y200.737 E220.80250
G1 X206.694 Y204.065 E220.95108
G1 X203.380 Y207.344 E221.10614
G1 X200.001 Y210.296 E221.25537
G1 X196.618 Y212.912 E221.39760
G1 X192.918 Y215.449 E221.54682
G1 X189.092 Y217.749 E221.69529
G1 X185.125 Y219.819 E221.84412
G1 X181.030 Y221.654 E221.99337
G1 X176.849 Y223.236 E222.14205
G1 X172.576 Y224.565 E222.29089
G1 X168.239 Y225.635 E222.43946
G1 X163.651 Y226.479 E222.59462
G1 X159.389 Y226.991 E222.73739
G1 X154.919 Y227.271 E222.88636
G1 X150.268 Y227.283 E223.04105
G1 X145.982 Y227.026 E223.18386
G1 X141.533 Y226.502 E223.33286
G1 X137.127 Y225.714 E223.48173
G1 X136.943 Y225.680 E223.48795
G1 X132.783 Y224.665 E223.63037
G1 X128.504 Y223.358 E223.77918
G1 X124.316 Y221.797 E223.92784
G1 X120.220 Y219.987 E224.07678
G1 X116.234 Y217.931 E224.22595
G1 X112.396 Y215.650 E224.37445
G1 X108.692 Y213.137 E224.52332
G1 X105.137 Y210.403 E224.67248
G1 X101.619 Y207.344 E224.82754
G1 X98.440 Y204.212 E224.97597
G1 X95.563 Y201.016 E225.11899
G1 X92.763 Y197.525 E225.26784
G1 X90.078 Y193.727 E225.42254
G1 X87.724 Y189.919 E225.57144
G1 X85.687 Y186.135 E225.71437
G1 X83.800 Y182.087 E225.86292
G1 X82.083 Y177.742 E226.01831
G1 X80.704 Y173.497 E226.16676
G1 X79.622 Y169.335 E226.30979
G1 X79.576 Y169.163 E226.31571
G1 X78.747 Y164.947 E226.45862
G1 X78.135 Y160.515 E226.60743
G1 X77.790 Y156.063 E226.75595
G1 X77.709 Y151.403 E226.91097
G1 X77.909 Y146.932 E227.05982
G1 X78.378 Y142.470 E227.20904
G1 X79.078 Y138.251 E227.35129
G1 X80.063 Y133.886 E227.50012
G1 X81.310 Y129.576 E227.64935
G1 X82.805 Y125.370 E227.79782
G1 X84.628 Y121.078 E227.95291
G1 X86.545 Y117.244 E228.09548
G1 X88.772 Y113.362 E228.24434
G1 X91.228 Y109.622 E228.39315
G1 X93.903 Y106.034 E228.54200
G1 X96.789 Y102.613 E228.69087
G1 F2100 E228.29087
G0 F12000 X149.438 Y149.640
G1 F2100 E228.69087
G1 F1800 X148.818 Y150.492 E228.72592
G1 X148.431 Y151.471 E228.76093
G1 X148.299 Y152.516 E228.79596
G1 X148.431 Y153.561 E228.83099
G1 X148.818 Y154.540 E228.86601
G1 X149.438 Y155.392 E228.90105
G1 X150.249 Y156.063 E228.93606
G1 X151.202 Y156.512 E228.97110
G1 X152.236 Y156.709 E229.00611
G1 X153.288 Y156.643 E229.04117
G1 X154.290 Y156.317 E229.07622
G1 X155.178 Y155.753 E229.11121
G1 X155.901 Y154.985 E229.14629
G1 X156.407 Y154.063 E229.18127
G1 X156.669 Y153.042 E229.21633
G1 X156.669 Y151.990 E229.25132
G1 X156.407 Y150.970 E229.28634
G1 X155.900 Y150.046 E229.32140
G1 X155.178 Y149.279 E229.35643
G1 X154.290 Y148.715 E229.39142
G1 X153.288 Y148.389 E229.42647
G1 X152.236 Y148.323 E229.46153
G1 X151.202 Y148.520 E229.49654
G1 X150.249 Y148.969 E229.53157
G1 X149.438 Y149.640 E229.56658
G0 F12000 X148.400 Y148.791
;TYPE:SKIN
G1 F1800 X148.400 Y79.190 E231.88152
G0 F12000 X148.000 Y79.203
G1 F1800 X148.000 Y149.340 E234.21429
G0 F12000 X147.600 Y149.930
G1 F1800 X147.600 Y79.235 E236.56561
G0 F12000 X147.200 Y79.271
G1 F1800 X147.200 Y150.941 E238.94937
G1 F2100 E238.54937
G0 F12000 X148.800 Y148.429
G1 F2100 E238.94937
G1 F1800 X148.800 Y79.177 E241.25270
G0 F12000 X149.200 Y79.164
G1 F1800 X149.200 Y148.098 E243.54545
G0 F12000 X149.600 Y147.794
G1 F1800 X149.600 Y79.151 E245.82853
G0 F12000 X150.000 Y79.138
G1 F1800 X150.000 Y147.605 E248.10575
G0 F12000 X150.400 Y147.417
G1 F1800 X150.400 Y79.125 E250.37715
G0 F12000 X150.800 Y79.112
G1 F1800 X150.800 Y147.233 E252.64286
G0 F12000 X151.200 Y147.157
G1 F1800 X151.200 Y79.099 E254.90648
G0 F12000 X151.600 Y79.086
G1 F1800 X151.600 Y147.081 E257.16801
G0 F12000 X152.000 Y147.004
G1 F1800 X152.000 Y79.073 E259.42740
G0 F12000 X152.400 Y79.060
G1 F1800 X152.400 Y146.990 E261.68676
G0 F12000 X152.800 Y147.016
G1 F1800 X152.800 Y79.066 E263.94679
G0 F12000 X153.200 Y79.078
G1 F1800 X153.200 Y147.041 E266.20725
G0 F12000 X153.600 Y147.082
G1 F1800 X153.600 Y79.090 E268.46867
G0 F12000 X154.000 Y79.102
G1 F1800 X154.000 Y147.212 E270.73402
G0 F12000 X154.400 Y147.341
G1 F1800 X154.400 Y79.114 E273.00326
G0 F12000 X154.800 Y79.126
G1 F1800 X154.800 Y147.471 E275.27642
G0 F12000 X155.200 Y147.705
G1 F1800 X155.200 Y79.138 E277.55697
G0 F12000 X155.600 Y79.151
G1 F1800 X155.600 Y147.960 E279.84556
G0 F12000 X156.000 Y148.214
G1 F1800 X156.000 Y79.163 E282.14221
G0 F12000 X156.400 Y79.175
G1 F1800 X156.400 Y148.622 E284.45203
G0 F12000 X156.800 Y149.047
G1 F1800 X156.800 Y79.187 E286.77558
G0 F12000 X157.200 Y79.217
G1 F1800 X157.200 Y149.630 E289.11753
G0 F12000 X157.600 Y150.360
G1 F1800 X157.600 Y79.253 E291.48255
G0 F12000 X158.000 Y79.289
G1 F1800 X158.000 Y151.785 E293.89378
G0 F12000 X158.000 Y153.246
G1 F1800 X158.000 Y225.736 E296.30481
G0 F12000 X157.600 Y225.761
G1 F1800 X157.600 Y154.674 E298.66917
G0 F12000 X157.200 Y155.404
G1 F1800 X157.200 Y225.786 E301.01009
G0 F12000 X156.800 Y225.811
G1 F1800 X156.800 Y155.983 E303.33257
G0 F12000 X156.400 Y156.409
G1 F1800 X156.400 Y225.836 E305.64173
G0 F12000 X156.000 Y225.861
G1 F1800 X156.000 Y156.817 E307.93814
G0 F12000 X155.600 Y157.071
G1 F1800 X155.600 Y225.886 E310.22694
G0 F12000 X155.200 Y225.911
G1 F1800 X155.200 Y157.326 E312.50808
G0 F12000 X154.800 Y157.560
G1 F1800 X154.800 Y225.932 E314.78214
G0 F12000 X154.400 Y225.933
G1 F1800 X154.400 Y157.690 E317.05191
G0 F12000 X154.000 Y157.819
G1 F1800 X154.000 Y225.934 E319.31743
G0 F12000 X153.600 Y225.935
G1 F1800 X153.600 Y157.949 E321.57865
G0 F12000 X153.200 Y157.990
G1 F1800 X153.200 Y225.936 E323.83855
G0 F12000 X152.800 Y225.937
G1 F1800 X152.800 Y158.015 E326.09764
G0 F12000 X152.400 Y158.041
G1 F1800 X152.400 Y225.938 E328.35590
G0 F12000 X152.000 Y225.939
G1 F1800 X152.000 Y158.029 E330.61460
G0 F12000 X151.600 Y157.952
G1 F1800 X151.600 Y225.940 E332.87589
G0 F12000 X151.200 Y225.941
G1 F1800 X151.200 Y157.876 E335.13974
G0 F12000 X150.800 Y157.800
G1 F1800 X150.800 Y225.942 E337.40615
G0 F12000 X150.400 Y225.943
G1 F1800 X150.400 Y157.616 E339.67872
G0 F12000 X150.000 Y157.428
G1 F1800 X150.000 Y225.925 E341.95694
G0 F12000 X149.600 Y225.901
G1 F1800 X149.600 Y157.239 E344.24064
G0 F12000 X149.200 Y156.935
G1 F1800 X149.200 Y225.877 E346.53367
G0 F12000 X148.800 Y225.853
G1 F1800 X148.800 Y156.604 E348.83690
G0 F12000 X148.400 Y156.242
G1 F1800 X148.400 Y225.829 E351.15137
G0 F12000 X148.000 Y225.805
G1 F1800 X148.000 Y155.693 E353.48330
G0 F12000 X147.600 Y155.103
G1 F1800 X147.600 Y225.781 E355.83406
G0 F12000 X147.200 Y225.757
G1 F1800 X147.200 Y154.092 E358.21765
G1 F2100 E357.81765
G0 F12000 X82.800 Y175.596
G1 F2100 E358.21765
G1 F1800 X82.800 Y129.384 E359.75467
G0 F12000 X83.200 Y128.259
G1 F1800 X83.200 Y176.817 E361.36971
G0 F12000 X83.600 Y177.933
G1 F1800 X83.600 Y127.133 E363.05933
G0 F12000 X84.000 Y126.008
G1 F1800 X84.000 Y178.945 E364.82002
G0 F12000 X84.400 Y179.957
G1 F1800 X84.400 Y125.041 E366.64653
G0 F12000 X84.800 Y124.099
G1 F1800 X84.800 Y180.969 E368.53804
G0 F12000 X85.200 Y181.917
G1 F1800 X85.200 Y123.156 E370.49244
G0 F12000 X85.600 Y122.213
G1 F1800 X85.600 Y182.776 E372.50677
G0 F12000 X86.000 Y183.634
G1 F1800 X86.000 Y121.346 E374.57848
G0 F12000 X86.400 Y120.542
G1 F1800 X86.400 Y184.493 E376.70550
G0 F12000 X86.800 Y185.351
G1 F1800 X86.800 Y119.738 E378.88779
G0 F12000 X87.200 Y118.934
G1 F1800 X87.200 Y186.118 E381.12234
G0 F12000 X87.600 Y186.861
G1 F1800 X87.600 Y118.131 E383.40831
G0 F12000 X88.000 Y117.399
G1 F1800 X88.000 Y187.604 E385.74334
G0 F12000 X88.400 Y188.347
G1 F1800 X88.400 Y116.702 E388.12626
G0 F12000 X88.800 Y116.005
G1 F1800 X88.800 Y189.090 E390.55708
G0 F12000 X89.200 Y189.758
G1 F1800 X89.200 Y115.308 E393.03330
G0 F12000 X89.600 Y114.611
G1 F1800 X89.600 Y190.405 E395.55421
G0 F12000 X90.000 Y191.052
G1 F1800 X90.000 Y113.933 E398.11920
G0 F12000 X90.400 Y113.324
G1 F1800 X90.400 Y191.699 E400.72597
G0 F12000 X90.800 Y192.346
G1 F1800 X90.800 Y112.715 E403.37450
G0 F12000 X91.200 Y112.106
G1 F1800 X91.200 Y192.993 E406.06482
G0 F12000 X91.600 Y193.559
G1 F1800 X91.600 Y111.497 E408.79421
G0 F12000 X92.000 Y110.888
G1 F1800 X92.000 Y194.124 E411.56265
G0 F12000 X92.400 Y194.690
G1 F1800 X92.400 Y110.291 E414.36977
G0 F12000 X92.800 Y109.755
G1 F1800 X92.800 Y195.256 E417.21355
G0 F12000 X93.200 Y195.822
G1 F1800 X93.200 Y109.218 E420.09401
G0 F12000 X93.600 Y108.682
G1 F1800 X93.600 Y196.387 E423.01109
G0 F12000 X94.000 Y196.925
G1 F1800 X94.000 Y108.146 E425.96389
G0 F12000 X94.400 Y107.609
G1 F1800 X94.400 Y197.424 E428.95115
G0 F12000 X94.800 Y197.923
G1 F1800 X94.800 Y107.073 E431.97283
G0 F12000 X95.200 Y106.575
G1 F1800 X95.200 Y198.421 E435.02764
G0 F12000 X95.600 Y198.920
G1 F1800 X95.600 Y106.101 E438.11482
G0 F12000 X96.000 Y105.627
G1 F1800 X96.000 Y199.419 E441.23435
G0 F12000 X96.400 Y199.918
G1 F1800 X96.400 Y105.153 E444.38625
G0 F12000 X96.800 Y104.678
G1 F1800 X96.800 Y200.386 E447.56951
G0 F12000 X97.200 Y200.830
G1 F1800 X97.200 Y104.204 E450.78330
G0 F12000 X97.600 Y103.730
G1 F1800 X97.600 Y201.275 E454.02766
G0 F12000 X98.000 Y201.719
G1 F1800 X98.000 Y103.284 E457.30162
G0 F12000 X98.400 Y102.863
G1 F1800 X98.400 Y202.163 E460.60435
G0 F12000 X98.800 Y202.608
G1 F1800 X98.800 Y102.443 E463.93586
G0 F12000 X99.200 Y102.022
G1 F1800 X99.200 Y203.052 E467.29613
G0 F12000 X99.600 Y203.473
G1 F1800 X99.600 Y101.602 E470.68437
G0 F12000 X100.000 Y101.181
G1 F1800 X100.000 Y203.865 E474.09965
G0 F12000 X100.400 Y204.258
G1 F1800 X100.400 Y100.761 E477.54198
G0 F12000 X100.800 Y100.340
G1 F1800 X100.800 Y204.650 E481.01134
G0 F12000 X101.200 Y205.042
G1 F1800 X101.200 Y99.961 E484.50635
G0 F12000 X101.600 Y99.589
G1 F1800 X101.600 Y205.435 E488.02680
G0 F12000 X102.000 Y205.827
G1 F1800 X102.000 Y99.216 E491.57270
G0 F12000 X102.400 Y98.843
G1 F1800 X102.400 Y206.219 E495.14404
G0 F12000 X102.800 Y206.594
G1 F1800 X102.800 Y98.470 E498.74026
G0 F12000 X103.200 Y98.098
G1 F1800 X103.200 Y206.942 E502.36042
G0 F12000 X103.600 Y207.290
G1 F1800 X103.600 Y97.725 E506.00457
G0 F12000 X104.000 Y97.352
G1 F1800 X104.000 Y207.637 E509.67267
G0 F12000 X104.400 Y207.985
G1 F1800 X104.400 Y97.005 E513.36387
G0 F12000 X104.800 Y96.677
G1 F1800 X104.800 Y208.333 E517.07757
G0 F12000 X105.200 Y208.681
G1 F1800 X105.200 Y96.348 E520.81378
G0 F12000 X105.600 Y96.019
G1 F1800 X105.600 Y209.028 E524.57247
G0 F12000 X106.000 Y209.375
G1 F1800 X106.000 Y95.690 E528.35365
G0 F12000 X106.400 Y95.361
G1 F1800 X106.400 Y209.682 E532.15598
G0 F12000 X106.800 Y209.990
G1 F1800 X106.800 Y95.032 E535.97950
G0 F12000 X107.200 Y94.703
G1 F1800 X107.200 Y210.298 E539.82421
G0 F12000 X107.600 Y210.606
G1 F1800 X107.600 Y94.391 E543.68953
G0 F12000 X108.000 Y94.099
G1 F1800 X108.000 Y210.914 E547.57482
G0 F12000 X108.400 Y211.221
G1 F1800 X108.400 Y93.806 E551.48006
G0 F12000 X108.800 Y93.514
G1 F1800 X108.800 Y211.529 E555.40525
G0 F12000 X109.200 Y211.837
G1 F1800 X109.200 Y93.221 E559.35044
G0 F12000 X109.600 Y92.929
G1 F1800 X109.600 Y212.134 E563.31521
G0 F12000 X110.000 Y212.405
G1 F1800 X110.000 Y92.636 E567.29874
G0 F12000 X110.400 Y92.344
G1 F1800 X110.400 Y212.676 E571.30100
G0 F12000 X110.800 Y212.947
G1 F1800 X110.800 Y92.051 E575.32202
G0 F12000 X111.200 Y91.781
G1 F1800 X111.200 Y213.218 E579.36103
G0 F12000 X111.600 Y213.490
G1 F1800 X111.600 Y91.524 E583.41764
G0 F12000 X112.000 Y91.267
G1 F1800 X112.000 Y213.761 E587.49180
G0 F12000 X112.400 Y214.032
G1 F1800 X112.400 Y91.010 E591.58353
G0 F12000 X112.800 Y90.754
G1 F1800 X112.800 Y214.303 E595.69279
G0 F12000 X113.200 Y214.569
G1 F1800 X113.200 Y90.497 E599.81944
G0 F12000 X113.600 Y90.240
G1 F1800 X113.600 Y214.806 E603.96252
G0 F12000 X114.000 Y215.044
G1 F1800 X114.000 Y89.984 E608.12203
G0 F12000 X114.400 Y89.727
G1 F1800 X114.400 Y215.282 E612.29801
G0 F12000 X114.800 Y215.520
G1 F1800 X114.800 Y89.481 E616.49008
G0 F12000 X115.200 Y89.256
G1 F1800 X115.200 Y215.758 E620.69756
G0 F12000 X115.600 Y215.995
G1 F1800 X115.600 Y89.032 E624.92036
G0 F12000 X116.000 Y88.808
G1 F1800 X116.000 Y216.233 E629.15854
G0 F12000 X116.400 Y216.471
G1 F1800 X116.400 Y88.583 E633.41211
G0 F12000 X116.800 Y88.359
G1 F1800 X116.800 Y216.709 E637.68105
G0 F12000 X117.200 Y216.921
G1 F1800 X117.200 Y88.134 E641.96452
G0 F12000 X117.600 Y87.910
G1 F1800 X117.600 Y217.127 E646.26229
G0 F12000 X118.000 Y217.334
G1 F1800 X118.000 Y87.686 E650.57440
G0 F12000 X118.400 Y87.461
G1 F1800 X118.400 Y217.540 E654.90085
G0 F12000 X118.800 Y217.746
G1 F1800 X118.800 Y87.247 E659.24126
G0 F12000 X119.200 Y87.055
G1 F1800 X119.200 Y217.953 E663.59495
G0 F12000 X119.600 Y218.159
G1 F1800 X119.600 Y86.862 E667.96191
G0 F12000 X120.000 Y86.670
G1 F1800 X120.000 Y218.365 E672.34210
G0 F12000 X120.400 Y218.571
G1 F1800 X120.400 Y86.477 E676.73556
G0 F12000 X120.800 Y86.285
G1 F1800 X120.800 Y218.777 E681.14226
G0 F12000 X121.200 Y218.954
G1 F1800 X121.200 Y86.092 E685.56127
G0 F12000 X121.600 Y85.899
G1 F1800 X121.600 Y219.131 E689.99259
G0 F12000 X122.000 Y219.307
G1 F1800 X122.000 Y85.707 E694.43614
G0 F12000 X122.400 Y85.514
G1 F1800 X122.400 Y219.484 E698.89200
G0 F12000 X122.800 Y219.661
G1 F1800 X122.800 Y85.346 E703.35934
G0 F12000 X123.200 Y85.181
G1 F1800 X123.200 Y219.838 E707.83805
G0 F12000 X123.600 Y220.015
G1 F1800 X123.600 Y85.016 E712.32813
G0 F12000 X124.000 Y84.851
G1 F1800 X124.000 Y220.191 E716.82956
G0 F12000 X124.400 Y220.368
G1 F1800 X124.400 Y84.686 E721.34236
G0 F12000 X124.800 Y84.521
G1 F1800 X124.800 Y220.545 E725.86654
G0 F12000 X125.200 Y220.696
G1 F1800 X125.200 Y84.356 E730.40122
G0 F12000 X125.600 Y84.191
G1 F1800 X125.600 Y220.845 E734.94635
G0 F12000 X126.000 Y220.994
G1 F1800 X126.000 Y84.026 E739.50193
G0 F12000 X126.400 Y83.861
G1 F1800 X126.400 Y221.143 E744.06795
G0 F12000 X126.800 Y221.292
G1 F1800 X126.800 Y83.712 E748.64388
G0 F12000 X127.200 Y83.575
G1 F1800 X127.200 Y221.441 E753.22932
G0 F12000 X127.600 Y221.591
G1 F1800 X127.600 Y83.437 E757.82434
G0 F12000 X128.000 Y83.300
G1 F1800 X128.000 Y221.740 E762.42887
G0 F12000 X128.400 Y221.889
G1 F1800 X128.400 Y83.162 E767.04295
G0 F12000 X128.800 Y83.025
G1 F1800 X128.800 Y222.038 E771.66654
G0 F12000 X129.200 Y222.169
G1 F1800 X129.200 Y82.887 E776.29908
G0 F12000 X129.600 Y82.750
G1 F1800 X129.600 Y222.291 E780.94023
G0 F12000 X130.000 Y222.413
G1 F1800 X130.000 Y82.612 E785.59003
G0 F12000 X130.400 Y82.475
G1 F1800 X130.400 Y222.536 E790.24848
G0 F12000 X130.800 Y222.658
G1 F1800 X130.800 Y82.344 E794.91534
G0 F12000 X131.200 Y82.232
G1 F1800 X131.200 Y222.780 E799.58999
G0 F12000 X131.600 Y222.902
G1 F1800 X131.600 Y82.121 E804.27238
G0 F12000 X132.000 Y82.010
G1 F1800 X132.000 Y223.024 E808.96253
G0 F12000 X132.400 Y223.146
G1 F1800 X132.400 Y81.899 E813.66042
G0 F12000 X132.800 Y81.788
G1 F1800 X132.800 Y223.269 E818.36610
G0 F12000 X133.200 Y223.387
G1 F1800 X133.200 Y81.676 E823.07943
G0 F12000 X133.600 Y81.565
G1 F1800 X133.600 Y223.484 E827.79967
G0 F12000 X134.000 Y223.581
G1 F1800 X134.000 Y81.454 E832.52683
G0 F12000 X134.400 Y81.343
G1 F1800 X134.400 Y223.677 E837.26088
G0 F12000 X134.800 Y223.774
G1 F1800 X134.800 Y81.231 E842.00188
G0 F12000 X135.200 Y81.138
G1 F1800 X135.200 Y223.871 E846.74920
G0 F12000 X135.600 Y223.968
G1 F1800 X135.600 Y81.052 E851.50261
G0 F12000 X136.000 Y80.966
G1 F1800 X136.000 Y224.065 E856.26210
G0 F12000 X136.400 Y224.161
G1 F1800 X136.400 Y80.880 E861.02764
G0 F12000 X136.800 Y80.794
G1 F1800 X136.800 Y224.258 E865.79928
G0 F12000 X137.200 Y224.355
G1 F1800 X137.200 Y80.708 E870.57699
G0 F12000 X137.600 Y80.622
G1 F1800 X137.600 Y224.437 E875.36030
G0 F12000 X138.000 Y224.508
G1 F1800 X138.000 Y80.536 E880.14883
G0 F12000 X138.400 Y80.450
G1 F1800 X138.400 Y224.580 E884.94261
G0 F12000 X138.800 Y224.651
G1 F1800 X138.800 Y80.364 E889.74162
G0 F12000 X139.200 Y80.278
G1 F1800 X139.200 Y224.723 E894.54588
G0 F12000 X139.600 Y224.794
G1 F1800 X139.600 Y80.214 E899.35463
G0 F12000 X140.000 Y80.153
G1 F1800 X140.000 Y224.866 E904.16780
G0 F12000 X140.400 Y224.937
G1 F1800 X140.400 Y80.091 E908.98540
G0 F12000 X140.800 Y80.030
G1 F1800 X140.800 Y225.009 E913.80742
G0 F12000 X141.200 Y225.080
G1 F1800 X141.200 Y79.969 E918.63383
G0 F12000 X141.600 Y79.908
G1 F1800 X141.600 Y225.152 E923.46467
G0 F12000 X142.000 Y225.207
G1 F1800 X142.000 Y79.847 E928.29936
G0 F12000 X142.400 Y79.786
G1 F1800 X142.400 Y225.254 E933.13764
G0 F12000 X142.800 Y225.302
G1 F1800 X142.800 Y79.725 E937.97956
G0 F12000 X143.200 Y79.664
G1 F1800 X143.200 Y225.349 E942.82506
G0 F12000 X143.600 Y225.396
G1 F1800 X143.600 Y79.603 E947.67415
G0 F12000 X144.000 Y79.566
G1 F1800 X144.000 Y225.443 E952.52604
G0 F12000 X144.400 Y225.490
G1 F1800 X144.400 Y79.529 E957.38072
G0 F12000 X144.800 Y79.492
G1 F1800 X144.800 Y225.538 E962.23823
G0 F12000 X145.200 Y225.585
G1 F1800 X145.200 Y79.456 E967.09850
G0 F12000 X145.600 Y79.419
G1 F1800 X145.600 Y225.632 E971.96157
G0 F12000 X146.000 Y225.679
G1 F1800 X146.000 Y79.382 E976.82743
G0 F12000 X146.400 Y79.345
G1 F1800 X146.400 Y225.709 E981.69551
G0 F12000 X146.800 Y225.733
G1 F1800 X146.800 Y79.308 E986.56563
G1 F2100 E986.16563
G0 F12000 X158.400 Y79.325
G1 F2100 E986.56563
G1 F1800 X158.400 Y225.711 E991.43445
G0 F12000 X158.800 Y225.686
G1 F1800 X158.800 Y79.361 E996.30124
G0 F12000 X159.200 Y79.397
G1 F1800 X159.200 Y225.661 E1001.16600
G0 F12000 X159.600 Y225.616
G1 F1800 X159.600 Y79.433 E1006.02806
G0 F12000 X160.000 Y79.469
G1 F1800 X160.000 Y225.567 E1010.88730
G0 F12000 X160.400 Y225.518
G1 F1800 X160.400 Y79.505 E1015.74371
G0 F12000 X160.800 Y79.541
G1 F1800 X160.800 Y225.469 E1020.59730
G0 F12000 X161.200 Y225.420
G1 F1800 X161.200 Y79.584 E1025.44782
G0 F12000 X161.600 Y79.644
G1 F1800 X161.600 Y225.371 E1030.29472
G0 F12000 X162.000 Y225.322
G1 F1800 X162.000 Y79.703 E1035.13803
G0 F12000 X162.400 Y79.762
G1 F1800 X162.400 Y225.273 E1039.97775
G0 F12000 X162.800 Y225.224
G1 F1800 X162.800 Y79.821 E1044.81387
G0 F12000 X163.200 Y79.881
G1 F1800 X163.200 Y225.175 E1049.64637
G0 F12000 X163.600 Y225.126
G1 F1800 X163.600 Y79.940 E1054.47527
G0 F12000 X164.000 Y79.999
G1 F1800 X164.000 Y225.052 E1059.29976
G0 F12000 X164.400 Y224.979
G1 F1800 X164.400 Y80.058 E1064.11985
G0 F12000 X164.800 Y80.118
G1 F1800 X164.800 Y224.905 E1068.93548
G0 F12000 X165.200 Y224.832
G1 F1800 X165.200 Y80.177 E1073.74673
G0 F12000 X165.600 Y80.244
G1 F1800 X165.600 Y224.758 E1078.55328
G0 F12000 X166.000 Y224.685
G1 F1800 X166.000 Y80.328 E1083.35462
G0 F12000 X166.400 Y80.412
G1 F1800 X166.400 Y224.612 E1088.15073
G0 F12000 X166.800 Y224.538
G1 F1800 X166.800 Y80.497 E1092.94155
G0 F12000 X167.200 Y80.581
G1 F1800 X167.200 Y224.465 E1097.72715
G0 F12000 X167.600 Y224.391
G1 F1800 X167.600 Y80.665 E1102.50750
G0 F12000 X168.000 Y80.749
G1 F1800 X168.000 Y224.315 E1107.28252
G0 F12000 X168.400 Y224.217
G1 F1800 X168.400 Y80.833 E1112.05149
G0 F12000 X168.800 Y80.918
G1 F1800 X168.800 Y224.118 E1116.81435
G0 F12000 X169.200 Y224.019
G1 F1800 X169.200 Y81.002 E1121.57111
G0 F12000 X169.600 Y81.086
G1 F1800 X169.600 Y223.920 E1126.32179
G0 F12000 X170.000 Y223.821
G1 F1800 X170.000 Y81.177 E1131.06615
G0 F12000 X170.400 Y81.287
G1 F1800 X170.400 Y223.723 E1135.80359
G0 F12000 X170.800 Y223.624
G1 F1800 X170.800 Y81.398 E1140.53404
G0 F12000 X171.200 Y81.508
G1 F1800 X171.200 Y223.525 E1145.25755
G0 F12000 X171.600 Y223.426
G1 F1800 X171.600 Y81.618 E1149.97410
G0 F12000 X172.000 Y81.729
G1 F1800 X172.000 Y223.328 E1154.68370
G0 F12000 X172.400 Y223.216
G1 F1800 X172.400 Y81.839 E1159.38592
G0 F12000 X172.800 Y81.949
G1 F1800 X172.800 Y223.092 E1164.08036
G0 F12000 X173.200 Y222.968
G1 F1800 X173.200 Y82.060 E1168.76698
G0 F12000 X173.600 Y82.170
G1 F1800 X173.600 Y222.843 E1173.44578
G0 F12000 X174.000 Y222.719
G1 F1800 X174.000 Y82.281 E1178.11677
G0 F12000 X174.400 Y82.417
G1 F1800 X174.400 Y222.594 E1182.77907
G0 F12000 X174.800 Y222.470
G1 F1800 X174.800 Y82.552 E1187.43276
G0 F12000 X175.200 Y82.688
G1 F1800 X175.200 Y222.346 E1192.07781
G0 F12000 X175.600 Y222.221
G1 F1800 X175.600 Y82.823 E1196.71420
G0 F12000 X176.000 Y82.959
G1 F1800 X176.000 Y222.097 E1201.34195
G0 F12000 X176.400 Y221.972
G1 F1800 X176.400 Y83.095 E1205.96102
G0 F12000 X176.800 Y83.230
G1 F1800 X176.800 Y221.822 E1210.57061
G0 F12000 X177.200 Y221.671
G1 F1800 X177.200 Y83.366 E1215.17065
G0 F12000 X177.600 Y83.501
G1 F1800 X177.600 Y221.520 E1219.76118
G0 F12000 X178.000 Y221.368
G1 F1800 X178.000 Y83.637 E1224.34213
G0 F12000 X178.400 Y83.788
G1 F1800 X178.400 Y221.217 E1228.91304
G0 F12000 X178.800 Y221.066
G1 F1800 X178.800 Y83.951 E1233.47350
G0 F12000 X179.200 Y84.114
G1 F1800 X179.200 Y220.914 E1238.02349
G0 F12000 X179.600 Y220.763
G1 F1800 X179.600 Y84.277 E1242.56303
G0 F12000 X180.000 Y84.440
G1 F1800 X180.000 Y220.612 E1247.09213
G0 F12000 X180.400 Y220.460
G1 F1800 X180.400 Y84.603 E1251.61075
G0 F12000 X180.800 Y84.766
G1 F1800 X180.800 Y220.289 E1256.11827
G0 F12000 X181.200 Y220.110
G1 F1800 X181.200 Y84.929 E1260.61441
G0 F12000 X181.600 Y85.092
G1 F1800 X181.600 Y219.930 E1265.09914
G0 F12000 X182.000 Y219.751
G1 F1800 X182.000 Y85.255 E1269.57249
G0 F12000 X182.400 Y85.419
G1 F1800 X182.400 Y219.572 E1274.03444
G0 F12000 X182.800 Y219.393
G1 F1800 X182.800 Y85.611 E1278.48405
G0 F12000 X183.200 Y85.804
G1 F1800 X183.200 Y219.213 E1282.92125
G0 F12000 X183.600 Y219.034
G1 F1800 X183.600 Y85.997 E1287.34608
G0 F12000 X184.000 Y86.189
G1 F1800 X184.000 Y218.855 E1291.75857
G0 F12000 X184.400 Y218.676
G1 F1800 X184.400 Y86.382 E1296.15868
G0 F12000 X184.800 Y86.574
G1 F1800 X184.800 Y218.477 E1300.54579
G0 F12000 X185.200 Y218.269
G1 F1800 X185.200 Y86.767 E1304.91957
G0 F12000 X185.600 Y86.959
G1 F1800 X185.600 Y218.060 E1309.28000
G0 F12000 X186.000 Y217.851
G1 F1800 X186.000 Y87.152 E1313.62707
G0 F12000 X186.400 Y87.362
G1 F1800 X186.400 Y217.642 E1317.96020
G0 F12000 X186.800 Y217.434
G1 F1800 X186.800 Y87.583 E1322.27906
G0 F12000 X187.200 Y87.805
G1 F1800 X187.200 Y217.225 E1326.58359
G0 F12000 X187.600 Y217.016
G1 F1800 X187.600 Y88.027 E1330.87378
G0 F12000 X188.000 Y88.248
G1 F1800 X188.000 Y216.808 E1335.14970
G0 F12000 X188.400 Y216.599
G1 F1800 X188.400 Y88.470 E1339.41129
G0 F12000 X188.800 Y88.692
G1 F1800 X188.800 Y216.361 E1343.65758
G0 F12000 X189.200 Y216.121
G1 F1800 X189.200 Y88.913 E1347.88854
G0 F12000 X189.600 Y89.135
G1 F1800 X189.600 Y215.880 E1352.10409
G0 F12000 X190.000 Y215.640
G1 F1800 X190.000 Y89.357 E1356.30428
G0 F12000 X190.400 Y89.607
G1 F1800 X190.400 Y215.399 E1360.48814
G0 F12000 X190.800 Y215.158
G1 F1800 X190.800 Y89.862 E1364.65550
G0 F12000 X191.200 Y90.116
G1 F1800 X191.200 Y214.918 E1368.80643
G0 F12000 X191.600 Y214.677
G1 F1800 X191.600 Y90.371 E1372.94087
G0 F12000 X192.000 Y90.625
G1 F1800 X192.000 Y214.437 E1377.05887
G0 F12000 X192.400 Y214.178
G1 F1800 X192.400 Y90.879 E1381.15981
G0 F12000 X192.800 Y91.134
G1 F1800 X192.800 Y213.904 E1385.24316
G0 F12000 X193.200 Y213.630
G1 F1800 X193.200 Y91.388 E1389.30894
G0 F12000 X193.600 Y91.643
G1 F1800 X193.600 Y213.356 E1393.35714
G0 F12000 X194.000 Y213.081
G1 F1800 X194.000 Y91.920 E1397.38697
G0 F12000 X194.400 Y92.210
G1 F1800 X194.400 Y212.807 E1401.39804
G0 F12000 X194.800 Y212.533
G1 F1800 X194.800 Y92.499 E1405.39039
G0 F12000 X195.200 Y92.788
G1 F1800 X195.200 Y212.259 E1409.36401
G0 F12000 X195.600 Y211.985
G1 F1800 X195.600 Y93.077 E1413.31890
G0 F12000 X196.000 Y93.367
G1 F1800 X196.000 Y211.695 E1417.25451
G0 F12000 X196.400 Y211.384
G1 F1800 X196.400 Y93.656 E1421.17016
G0 F12000 X196.800 Y93.945
G1 F1800 X196.800 Y211.074 E1425.06588
G0 F12000 X197.200 Y210.763
G1 F1800 X197.200 Y94.234 E1428.94166
G0 F12000 X197.600 Y94.554
G1 F1800 X197.600 Y210.453 E1432.79647
G0 F12000 X198.000 Y210.142
G1 F1800 X198.000 Y94.881 E1436.63007
G0 F12000 X198.400 Y95.208
G1 F1800 X198.400 Y209.832 E1440.44248
G0 F12000 X198.800 Y209.522
G1 F1800 X198.800 Y95.536 E1444.23367
G0 F12000 X199.200 Y95.863
G1 F1800 X199.200 Y209.211 E1448.00364
G0 F12000 X199.600 Y208.867
G1 F1800 X199.600 Y96.191 E1451.75126
G0 F12000 X200.000 Y96.518
G1 F1800 X200.000 Y208.516 E1455.47632
G0 F12000 X200.400 Y208.166
G1 F1800 X200.400 Y96.846 E1459.17884
G0 F12000 X200.800 Y97.185
G1 F1800 X200.800 Y207.815 E1462.85841
G0 F12000 X201.200 Y207.464
G1 F1800 X201.200 Y97.554 E1466.51403
G0 F12000 X201.600 Y97.923
G1 F1800 X201.600 Y207.113 E1470.14571
G0 F12000 X202.000 Y206.762
G1 F1800 X202.000 Y98.292 E1473.75343
G0 F12000 X202.400 Y98.661
G1 F1800 X202.400 Y206.412 E1477.33725
G0 F12000 X202.800 Y206.034
G1 F1800 X202.800 Y99.031 E1480.89618
G0 F12000 X203.200 Y99.400
G1 F1800 X203.200 Y205.638 E1484.42967
G0 F12000 X203.600 Y205.242
G1 F1800 X203.600 Y99.769 E1487.93772
G0 F12000 X204.000 Y100.138
G1 F1800 X204.000 Y204.846 E1491.42032
G0 F12000 X204.400 Y204.450
G1 F1800 X204.400 Y100.551 E1494.87601
G0 F12000 X204.800 Y100.969
G1 F1800 X204.800 Y204.053 E1498.30460
G0 F12000 X205.200 Y203.657
G1 F1800 X205.200 Y101.387 E1501.70612
G0 F12000 X205.600 Y101.806
G1 F1800 X205.600 Y203.261 E1505.08052
G0 F12000 X206.000 Y202.830
G1 F1800 X206.000 Y102.224 E1508.42669
G0 F12000 X206.400 Y102.642
G1 F1800 X206.400 Y202.384 E1511.74412
G0 F12000 X206.800 Y201.938
G1 F1800 X206.800 Y103.061 E1515.03279
G0 F12000 X207.200 Y103.492
G1 F1800 X207.200 Y201.491 E1518.29225
G0 F12000 X207.600 Y201.045
G1 F1800 X207.600 Y103.964 E1521.52117
G0 F12000 X208.000 Y104.436
G1 F1800 X208.000 Y200.599 E1524.71957
G0 F12000 X208.400 Y200.152
G1 F1800 X208.400 Y104.908 E1527.88740
G0 F12000 X208.800 Y105.380
G1 F1800 X208.800 Y199.686 E1531.02403
G0 F12000 X209.200 Y199.184
G1 F1800 X209.200 Y105.852 E1534.12826
G0 F12000 X209.600 Y106.324
G1 F1800 X209.600 Y198.683 E1537.20014
G0 F12000 X210.000 Y198.181
G1 F1800 X210.000 Y106.823 E1540.23871
G0 F12000 X210.400 Y107.354
G1 F1800 X210.400 Y197.679 E1543.24294
G0 F12000 X210.800 Y197.178
G1 F1800 X210.800 Y107.885 E1546.21283
G0 F12000 X211.200 Y108.416
G1 F1800 X211.200 Y196.676 E1549.14837
G0 F12000 X211.600 Y196.118
G1 F1800 X211.600 Y108.947 E1552.04769
G0 F12000 X212.000 Y109.478
G1 F1800 X212.000 Y195.547 E1554.91036
G0 F12000 X212.400 Y194.976
G1 F1800 X212.400 Y110.009 E1557.73637
G0 F12000 X212.800 Y110.602
G1 F1800 X212.800 Y194.405 E1560.52367
G0 F12000 X213.200 Y193.834
G1 F1800 X213.200 Y111.205 E1563.27192
G0 F12000 X213.600 Y111.807
G1 F1800 X213.600 Y193.263 E1565.98116
G0 F12000 X214.000 Y192.669
G1 F1800 X214.000 Y112.410 E1568.65059
G0 F12000 X214.400 Y113.012
G1 F1800 X214.400 Y192.018 E1571.27834
G0 F12000 X214.800 Y191.368
G1 F1800 X214.800 Y113.614 E1573.86445
G0 F12000 X215.200 Y114.285
G1 F1800 X215.200 Y190.717 E1576.40658
G0 F12000 X215.600 Y190.067
G1 F1800 X215.600 Y114.973 E1578.90422
G0 F12000 X216.000 Y115.662
G1 F1800 X216.000 Y189.416 E1581.35729
G0 F12000 X216.400 Y188.719
G1 F1800 X216.400 Y116.350 E1583.76429
G0 F12000 X216.800 Y117.039
G1 F1800 X216.800 Y187.972 E1586.12353
G0 F12000 X217.200 Y187.225
G1 F1800 X217.200 Y117.731 E1588.43491
G0 F12000 X217.600 Y118.531
G1 F1800 X217.600 Y186.477 E1590.69481
G0 F12000 X218.000 Y185.730
G1 F1800 X218.000 Y119.331 E1592.90324
G0 F12000 X218.400 Y120.132
G1 F1800 X218.400 Y184.942 E1595.05883
G0 F12000 X218.800 Y184.074
G1 F1800 X218.800 Y120.932 E1597.15895
G0 F12000 X219.200 Y121.776
G1 F1800 X219.200 Y183.206 E1599.20212
G0 F12000 X219.600 Y182.338
G1 F1800 X219.600 Y122.705 E1601.18552
G0 F12000 X220.000 Y123.634
G1 F1800 X220.000 Y181.469 E1603.10912
G0 F12000 X220.400 Y180.485
G1 F1800 X220.400 Y124.563 E1604.96909
G0 F12000 X220.800 Y125.493
G1 F1800 X220.800 Y179.460 E1606.76404
G0 F12000 X221.200 Y178.435
G1 F1800 X221.200 Y126.570 E1608.48908
G0 F12000 X221.600 Y127.687
G1 F1800 X221.600 Y177.410 E1610.14287
G0 F12000 X222.000 Y176.231
G1 F1800 X222.000 Y128.803 E1611.72033
G0 F12000 X222.400 Y129.972
G1 F1800 X222.400 Y175.000 E1613.21797
G0 F12000 X222.800 Y173.769
G1 F1800 X222.800 Y131.332 E1614.62943
G0 F12000 X223.200 Y132.691
G1 F1800 X223.200 Y172.386 E1615.94969
G1 F2100 E1615.54969
G0 F12000 X223.600 Y170.832
G1 F2100 E1615.94969
G1 F1800 X223.600 Y134.104 E1617.17127
G1 F2100 E1616.77127
G0 F12000 X224.000 Y135.835
G1 F2100 E1617.17127
G1 F1800 X224.000 Y169.278 E1618.28359
G1 F2100 E1617.88359
G0 F12000 X224.400 Y167.417
G1 F2100 E1618.28359
G1 F1800 X224.400 Y137.565 E1619.27647
G1 F2100 E1618.87647
G0 F12000 X224.800 Y139.728
G1 F2100 E1619.27647
G1 F1800 X224.800 Y165.358 E1620.12893
G1 F2100 E1619.72893
G0 F12000 X225.200 Y162.803
G1 F2100 E1620.12893
G1 F1800 X225.200 Y142.102 E1620.81745
G1 F2100 E1620.41745
G0 F12000 X225.600 Y145.599
G1 F2100 E1620.81745
G1 F1800 X225.600 Y159.628 E1621.28405
G1 F2100 E1620.88405
G0 F12000 X82.400 Y174.374
G1 F2100 E1621.28405
G1 F1800 X82.400 Y130.630 E1622.73898
G0 F12000 X82.000 Y132.012
G1 F1800 X82.000 Y173.129 E1624.10654
G1 F2100 E1623.70654
G0 F12000 X81.600 Y171.599
G1 F2100 E1624.10654
G1 F1800 X81.600 Y133.394 E1625.37724
G1 F2100 E1624.97724
G0 F12000 X81.200 Y134.934
G1 F2100 E1625.37724
G1 F1800 X81.200 Y170.069 E1626.54584
G1 F2100 E1626.14584
G0 F12000 X80.800 Y168.395
G1 F2100 E1626.54584
G1 F1800 X80.800 Y136.707 E1627.59979
G1 F2100 E1627.19979
G0 F12000 X80.400 Y138.480
G1 F2100 E1627.59979
G1 F1800 X80.400 Y166.386 E1628.52794
G1 F2100 E1628.12794
G0 F12000 X80.000 Y164.225
G1 F2100 E1628.52794
G1 F1800 X80.000 Y140.910 E1629.30340
G1 F2100 E1628.90340
G0 F12000 X79.600 Y143.662
G1 F2100 E1629.30340
G1 F1800 X79.600 Y161.326 E1629.89091
G1 F2100 E1629.49091
G0 F12000 X79.200 Y156.916
G1 F2100 E1629.89091
G1 F1800 X79.200 Y148.048 E1630.18586
;LAYER:1
M106 S2
G0 F12000 X79.090 Y147.387 Z0.350
;TYPE:WALL-INNER
G1 F2220 X79.108 Y147.002 E1630.19547
G1 X79.566 Y142.641 E1630.30486
G1 X80.227 Y138.659 E1630.40555
G1 X80.288 Y138.294 E1630.41478
G1 X81.270 Y133.996 E1630.52476
G1 X82.391 Y130.156 E1630.62454
G1 X83.864 Y125.976 E1630.73510
G1 X83.991 Y125.622 E1630.74448
G1 X85.718 Y121.580 E1630.85413
G1 X87.684 Y117.650 E1630.96374
G1 X89.894 Y113.821 E1631.07403
G1 X92.318 Y110.151 E1631.18374
G1 X94.959 Y106.626 E1631.29362
G1 X97.565 Y103.553 E1631.39412
G1 X97.805 Y103.270 E1631.40338
G1 X100.858 Y100.078 E1631.51356
G1 X103.768 Y97.378 E1631.61259
G1 X107.193 Y94.530 E1631.72370
G1 X111.041 Y91.706 E1631.84277
G1 X114.417 Y89.550 E1631.94269
G1 X118.280 Y87.368 E1632.05336
G1 X118.596 Y87.191 E1632.06240
G1 X122.181 Y85.465 E1632.16165
G1 X126.276 Y83.760 E1632.27230
G1 X130.459 Y82.307 E1632.38276
G1 X134.658 Y81.125 E1632.49158
G1 X139.005 Y80.176 E1632.60257
G1 X139.363 Y80.099 E1632.61170
G1 X143.349 Y79.500 E1632.71225
G1 X143.719 Y79.444 E1632.72158
G1 X148.100 Y79.049 E1632.83131
G1 X152.132 Y78.929 E1632.93193
G1 X152.503 Y78.917 E1632.94119
G1 X156.530 Y79.037 E1633.04169
G1 X156.901 Y79.049 E1633.05095
G1 X161.289 Y79.445 E1633.16086
G1 X165.228 Y80.037 E1633.26022
G1 X169.594 Y80.940 E1633.37143
G1 X173.812 Y82.082 E1633.48044
G1 X178.008 Y83.490 E1633.59085
G1 X178.366 Y83.613 E1633.60029
G1 X182.051 Y85.123 E1633.69963
G1 X186.034 Y87.013 E1633.80960
G1 X189.932 Y89.159 E1633.92060
G1 X190.235 Y89.327 E1633.92924
G1 X193.620 Y91.489 E1634.02944
G1 X197.223 Y94.078 E1634.14011
G1 X197.532 Y94.303 E1634.14965
G1 X200.637 Y96.856 E1634.24992
G1 X203.843 Y99.801 E1634.35852
G1 X206.938 Y103.002 E1634.46959
G1 X207.200 Y103.276 E1634.47904
G1 X209.803 Y106.347 E1634.57946
G1 X210.046 Y106.634 E1634.58885
G1 X212.682 Y110.151 E1634.69848
G1 X215.106 Y113.821 E1634.80820
G1 X217.316 Y117.650 E1634.91848
G1 X219.282 Y121.580 E1635.02810
G1 X221.009 Y125.622 E1635.13774
G1 X222.497 Y129.772 E1635.24772
G1 X223.627 Y133.645 E1635.34836
G1 X224.713 Y138.298 E1635.46755
G1 X225.372 Y142.273 E1635.56806
G1 X225.434 Y142.647 E1635.57752
G1 X225.892 Y147.003 E1635.68678
G1 X226.073 Y151.047 E1635.78776
G1 X226.090 Y151.422 E1635.79712
G1 X226.031 Y155.445 E1635.89748
G1 X226.025 Y155.823 E1635.90691
G1 X225.696 Y160.213 E1636.01673
G1 X225.161 Y164.164 E1636.11619
G1 X224.333 Y168.493 E1636.22613
G1 X223.239 Y172.796 E1636.33689
G1 X221.900 Y176.989 E1636.44669
G1 X220.327 Y181.061 E1636.55558
G1 X218.481 Y185.103 E1636.66642
G1 X218.325 Y185.439 E1636.67566
G1 X216.413 Y188.990 E1636.77627
G1 X216.239 Y189.315 E1636.78546
G1 X214.132 Y192.724 E1636.88543
G1 X211.625 Y196.328 E1636.99495
G1 X208.901 Y199.783 E1637.10470
G1 X205.945 Y203.102 E1637.21557
G1 X205.692 Y203.382 E1637.22498
G1 X202.823 Y206.209 E1637.32545
G1 X202.564 Y206.465 E1637.33454
G1 X199.553 Y209.095 E1637.43427
G1 X196.053 Y211.832 E1637.54510
G1 X195.763 Y212.056 E1637.55424
G1 X192.117 Y214.542 E1637.66432
G1 X188.659 Y216.609 E1637.76482
G1 X188.350 Y216.794 E1637.77380
G1 X184.426 Y218.831 E1637.88409
G1 X180.784 Y220.451 E1637.98352
G1 X176.634 Y222.035 E1638.09433
G1 X176.283 Y222.167 E1638.10368
G1 X172.433 Y223.353 E1638.20417
G1 X172.082 Y223.462 E1638.21334
G1 X168.196 Y224.411 E1638.31313
G1 X163.831 Y225.227 E1638.42390
G1 X163.471 Y225.293 E1638.43303
G1 X159.464 Y225.774 E1638.53370
G1 X155.118 Y226.058 E1638.64234
G1 X150.661 Y226.083 E1638.75353
G1 X150.291 Y226.083 E1638.76276
G1 X146.321 Y225.845 E1638.86197
G1 X141.901 Y225.338 E1638.97295
G1 X137.595 Y224.579 E1639.08201
G1 X133.307 Y223.557 E1639.19198
G1 X129.059 Y222.273 E1639.30268
G1 X124.584 Y220.615 E1639.42172
G1 X120.939 Y218.993 E1639.52124
G1 X116.987 Y216.969 E1639.63200
G1 X116.654 Y216.796 E1639.64136
G1 X113.196 Y214.730 E1639.74185
G1 X109.237 Y212.056 E1639.86102
G1 X105.751 Y209.360 E1639.97095
G1 X102.754 Y206.743 E1640.07020
G1 X99.562 Y203.632 E1640.18139
G1 X99.307 Y203.383 E1640.19028
G1 X96.604 Y200.380 E1640.29107
G1 X96.356 Y200.104 E1640.30032
G1 X93.866 Y196.982 E1640.39994
G1 X91.304 Y193.384 E1640.51012
G1 X88.979 Y189.665 E1640.61953
G1 X86.846 Y185.757 E1640.73059
G1 X86.671 Y185.433 E1640.73977
G1 X84.824 Y181.445 E1640.84940
G1 X83.351 Y177.687 E1640.95009
G1 X81.969 Y173.506 E1641.05994
G1 X81.853 Y173.149 E1641.06930
G1 X80.840 Y169.251 E1641.16977
G1 X79.973 Y164.964 E1641.27887
G1 X79.358 Y160.605 E1641.38868
G1 X79.002 Y156.180 E1641.49942
G1 X78.975 Y155.822 E1641.50838
G1 X78.916 Y151.784 E1641.60912
G1 X78.910 Y151.417 E1641.61827
G1 X79.090 Y147.387 E1641.71890
G1 F2100 E1641.31890
G0 F12000 X147.090 Y152.516
G1 F2100 E1641.71890
G1 F2220 X147.259 Y153.861 E1641.75272
G1 X147.759 Y155.123 E1641.78658
G1 X148.557 Y156.220 E1641.82042
G1 X149.601 Y157.084 E1641.85422
G1 X150.828 Y157.662 E1641.88806
G1 X152.160 Y157.916 E1641.92188
G1 X153.514 Y157.831 E1641.95572
G1 X154.805 Y157.412 E1641.98958
G1 X155.949 Y156.685 E1642.02339
G1 X156.878 Y155.697 E1642.05722
G1 X157.532 Y154.508 E1642.09107
G1 X157.869 Y153.193 E1642.12494
G1 X157.869 Y151.838 E1642.15874
G1 X157.532 Y150.525 E1642.19255
G1 X156.879 Y149.335 E1642.22641
G1 X155.949 Y148.347 E1642.26026
G1 X154.805 Y147.620 E1642.29407
G1 X153.514 Y147.201 E1642.32793
G1 X152.160 Y147.116 E1642.36177
G1 X150.828 Y147.370 E1642.39560
G1 X149.601 Y147.948 E1642.42943
G1 X148.557 Y148.812 E1642.46324
G1 X147.759 Y149.909 E1642.49707
G1 X147.259 Y151.171 E1642.53094
G1 X147.090 Y152.516 E1642.56475
G0 F12000 X147.493 Y152.516
G1 F2220 X147.650 Y153.761 E1642.59605
G1 X148.112 Y154.929 E1642.62739
G1 X148.850 Y155.944 E1642.65869
G1 X149.817 Y156.744 E1642.69000
G1 X150.952 Y157.279 E1642.72130
G1 X152.186 Y157.514 E1642.75263
G1 X153.439 Y157.435 E1642.78395
G1 X154.633 Y157.047 E1642.81527
G1 X155.692 Y156.375 E1642.84656
G1 X156.552 Y155.460 E1642.87788
G1 X157.157 Y154.360 E1642.90920
G1 X157.469 Y153.143 E1642.94054
G1 X157.469 Y151.889 E1642.97182
G1 X157.157 Y150.673 E1643.00313
G1 X156.552 Y149.572 E1643.03447
G1 X155.692 Y148.657 E1643.06579
G1 X154.633 Y147.985 E1643.09708
G1 X153.439 Y147.597 E1643.12840
G1 X152.186 Y147.518 E1643.15972
G1 X150.952 Y147.753 E1643.19105
G1 X149.817 Y148.288 E1643.22235
G1 X148.850 Y149.088 E1643.25366
G1 X148.112 Y150.103 E1643.28496
G1 X147.650 Y151.271 E1643.31630
G1 X147.493 Y152.516 E1643.34760
G1 F2100 E1642.94760
G0 F12000 X78.516 Y151.790
G1 F2100 E1643.34760
G1 F2220 X78.509 Y151.406 E1643.35718
G1 X78.690 Y147.368 E1643.45801
G1 X78.707 Y146.994 E1643.46735
G1 X79.171 Y142.583 E1643.57799
G1 X79.833 Y138.592 E1643.67890
G1 X79.894 Y138.224 E1643.68821
G1 X80.882 Y133.896 E1643.79895
G1 X82.009 Y130.037 E1643.89923
G1 X83.487 Y125.841 E1644.01021
G1 X83.611 Y125.495 E1644.01937
G1 X85.363 Y121.396 E1644.13057
G1 X87.333 Y117.457 E1644.24044
G1 X89.553 Y113.610 E1644.35123
G1 X91.986 Y109.928 E1644.46132
G1 X94.641 Y106.384 E1644.57178
G1 X97.260 Y103.294 E1644.67282
G1 X100.571 Y99.799 E1644.79292
G1 X103.513 Y97.068 E1644.89305
G1 X106.939 Y94.221 E1645.00417
G1 X107.235 Y93.977 E1645.01374
G1 X110.816 Y91.375 E1645.12416
G1 X114.197 Y89.215 E1645.22424
G1 X118.084 Y87.020 E1645.33560
G1 X118.407 Y86.839 E1645.34483
G1 X122.040 Y85.090 E1645.44541
G1 X126.113 Y83.394 E1645.55547
G1 X130.329 Y81.929 E1645.66681
G1 X134.563 Y80.736 E1645.77654
G1 X138.915 Y79.786 E1645.88765
G1 X139.287 Y79.707 E1645.89714
G1 X143.289 Y79.105 E1645.99809
G1 X143.673 Y79.047 E1646.00778
G1 X148.068 Y78.650 E1646.11786
G1 X152.120 Y78.530 E1646.21898
G1 X152.503 Y78.518 E1646.22854
G1 X156.542 Y78.638 E1646.32934
G1 X156.933 Y78.650 E1646.33910
G1 X161.333 Y79.047 E1646.44930
G1 X165.314 Y79.646 E1646.54973
G1 X169.669 Y80.547 E1646.66066
G1 X170.044 Y80.627 E1646.67023
G1 X173.919 Y81.696 E1646.77050
G1 X178.138 Y83.112 E1646.88151
G1 X178.511 Y83.240 E1646.89135
G1 X182.218 Y84.759 E1646.99129
G1 X186.219 Y86.658 E1647.10176
G1 X190.120 Y88.805 E1647.21284
G1 X190.448 Y88.988 E1647.22221
G1 X193.847 Y91.159 E1647.32281
G1 X197.458 Y93.754 E1647.43374
G1 X200.891 Y96.547 E1647.54414
G1 X204.130 Y99.522 E1647.65384
G1 X207.227 Y102.725 E1647.76498
G1 X210.108 Y106.088 E1647.87545
G1 X210.357 Y106.382 E1647.88506
G1 X213.014 Y109.928 E1647.99559
G1 X215.447 Y113.610 E1648.10568
G1 X217.667 Y117.457 E1648.21648
G1 X219.637 Y121.396 E1648.32634
G1 X221.389 Y125.496 E1648.43756
G1 X222.875 Y129.641 E1648.54740
G1 X224.011 Y133.533 E1648.64854
G1 X224.117 Y133.891 E1648.65785
G1 X225.103 Y138.210 E1648.76836
G1 X225.767 Y142.207 E1648.86943
G1 X225.828 Y142.571 E1648.87864
G1 X226.293 Y146.994 E1648.98958
G1 X226.473 Y151.028 E1649.09031
G1 X226.491 Y151.409 E1649.09982
G1 X226.431 Y155.452 E1649.20069
G1 X226.424 Y155.841 E1649.21039
G1 X226.094 Y160.248 E1649.32063
G1 X225.554 Y164.236 E1649.42102
G1 X224.722 Y168.585 E1649.53148
G1 X223.626 Y172.897 E1649.64246
G1 X223.528 Y173.272 E1649.65213
G1 X222.280 Y177.114 E1649.75290
G1 X222.160 Y177.482 E1649.76255
G1 X220.695 Y181.217 E1649.86263
G1 X218.843 Y185.271 E1649.97381
G1 X218.677 Y185.631 E1649.98370
G1 X216.592 Y189.503 E1650.09340
G1 X214.468 Y192.940 E1650.19419
G1 X211.940 Y196.575 E1650.30464
G1 X209.207 Y200.041 E1650.41474
